public/filters/aura.cube
LUT_3D_SIZE 16
0.717647 0.003922 0.000000
0.726274 0.012549 0.008627
0.737255 0.019608 0.027451
0.739608 0.033726 0.042353
0.748236 0.046275 0.058040
0.752941 0.062745 0.074510
0.765490 0.082353 0.092549
0.774118 0.095686 0.119216
0.782745 0.112157 0.143529
0.789019 0.131764 0.163922
0.800000 0.149020 0.188235
0.816470 0.173333 0.216470
0.826667 0.191372 0.242353
0.833726 0.214118 0.269020
0.850980 0.237647 0.293334
0.862745 0.254824 0.317608
0.723138 0.005491 0.013334
0.726902 0.009255 0.017098
0.737255 0.019608 0.027451
0.739608 0.033726 0.044863
0.748236 0.046275 0.058040
0.752941 0.062745 0.074510
0.765490 0.081725 0.093804
0.771608 0.095686 0.119216
0.782745 0.112157 0.137255
0.787764 0.132392 0.163294
0.803138 0.152157 0.191373
0.816470 0.173333 0.216470
0.828706 0.194039 0.244706
0.843137 0.214118 0.272157
0.850039 0.238275 0.293177
0.854941 0.258746 0.317608
0.734118 0.021176 0.027451
0.734118 0.021176 0.027451
0.737255 0.019608 0.027451
0.739608 0.033726 0.045490
0.745098 0.042666 0.054431
0.752941 0.062745 0.074510
0.765490 0.079215 0.098823
0.774118 0.095686 0.119216
0.782745 0.112157 0.143529
0.795294 0.129098 0.163451
0.803922 0.154510 0.189020
0.816470 0.173333 0.213333
0.826980 0.192941 0.243294
0.835608 0.214118 0.267137
0.851921 0.236079 0.293020
0.862745 0.254824 0.317608
0.739608 0.033726 0.045490
0.739608 0.033726 0.045490
0.739608 0.033726 0.037647
0.741176 0.036706 0.048471
0.748236 0.046275 0.058040
0.752941 0.062745 0.074510
0.765177 0.079529 0.098823
0.772863 0.095686 0.119216
0.783686 0.113098 0.144470
0.789019 0.131764 0.163922
0.803922 0.156863 0.184314
0.816470 0.173333 0.216470
0.826980 0.192941 0.243294
0.833726 0.215686 0.265882
0.852549 0.232941 0.291765
0.854941 0.258746 0.317608
0.748236 0.046275 0.058040
0.748236 0.046275 0.058040
0.751372 0.046275 0.058040
0.748236 0.046275 0.058040
0.748236 0.046275 0.058040
0.752941 0.062745 0.074510
0.765490 0.079215 0.098823
0.774431 0.096000 0.119529
0.782745 0.112157 0.143529
0.795294 0.128784 0.163765
0.806274 0.152157 0.191373
0.816157 0.173333 0.216470
0.826667 0.191372 0.242353
0.837020 0.213647 0.269804
0.852863 0.234510 0.292706
0.862745 0.254824 0.317608
0.752941 0.062745 0.074510
0.752941 0.062745 0.074510
0.752941 0.062745 0.074510
0.752941 0.062745 0.074510
0.752941 0.062745 0.074510
0.756863 0.066667 0.078431
0.762353 0.076079 0.095687
0.774118 0.095686 0.111372
0.782745 0.112157 0.143529
0.792157 0.135686 0.166274
0.803922 0.152941 0.192157
0.814902 0.173333 0.216470
0.827451 0.195294 0.244706
0.831373 0.211765 0.266667
0.853333 0.233725 0.291765
0.854941 0.258746 0.317608
0.764706 0.078431 0.098039
0.765490 0.079215 0.098823
0.765490 0.079215 0.098823
0.765490 0.079215 0.098823
0.768627 0.076079 0.098823
0.765490 0.079215 0.098823
0.764706 0.080000 0.099137
0.777255 0.092549 0.119216
0.782745 0.112157 0.143529
0.790274 0.131921 0.163137
0.807059 0.152941 0.192157
0.816470 0.173333 0.216470
0.827137 0.191843 0.242824
0.836706 0.213333 0.271843
0.853333 0.233725 0.292549
0.862745 0.254824 0.317608
0.775686 0.097255 0.120784
0.775686 0.097255 0.120784
0.774118 0.095686 0.119216
0.778039 0.099608 0.123137
0.774118 0.095686 0.119216
0.774118 0.095686 0.119216
0.774902 0.096471 0.120000
0.773333 0.098039 0.121569
0.782745 0.112157 0.143529
0.797176 0.131294 0.165020
0.803922 0.152941 0.192157
0.815529 0.173333 0.216470
0.824157 0.192000 0.241412
0.833726 0.214118 0.269961
0.853647 0.234039 0.292392
0.858063 0.257177 0.317608
0.781177 0.113725 0.143529
0.781177 0.113725 0.143529
0.780392 0.114510 0.143529
0.782745 0.112157 0.143529
0.782745 0.112157 0.143529
0.781177 0.113725 0.143529
0.782745 0.112157 0.136627
0.782745 0.112157 0.143529
0.781804 0.117804 0.145882
0.788706 0.132862 0.163451
0.803922 0.152941 0.192157
0.816470 0.173333 0.213961
0.825412 0.191372 0.241726
0.835608 0.213176 0.269020
0.853333 0.233725 0.292549
0.862745 0.254824 0.317608
0.796078 0.132549 0.161568
0.796078 0.132549 0.161568
0.789804 0.132549 0.164706
0.793568 0.130667 0.164706
0.789647 0.132392 0.164549
0.789019 0.131764 0.160784
0.795294 0.132549 0.160000
0.795294 0.132549 0.160000
0.795294 0.131764 0.160784
0.788235 0.133333 0.164706
0.803138 0.152157 0.191373
0.817098 0.172706 0.211451
0.826667 0.191372 0.242353
0.841569 0.210196 0.269020
0.850823 0.231216 0.290039
0.861184 0.255608 0.317608
0.803922 0.152941 0.192157
0.803922 0.152941 0.192157
0.803922 0.152941 0.192157
0.803922 0.152941 0.192157
0.800000 0.149020 0.188235
0.803922 0.152941 0.192157
0.803922 0.156863 0.184314
0.803922 0.152941 0.192157
0.803922 0.155294 0.187451
0.800784 0.149804 0.189019
0.803922 0.152941 0.192157
0.816470 0.173333 0.216470
0.826667 0.191372 0.242353
0.841569 0.211765 0.265882
0.853333 0.233725 0.292549
0.862745 0.254824 0.317608
0.816470 0.173333 0.210196
0.816470 0.173333 0.210196
0.816470 0.173333 0.216470
0.816470 0.173333 0.210196
0.816470 0.173333 0.210196
0.816470 0.173333 0.210196
0.816470 0.173333 0.210196
0.816470 0.173333 0.210196
0.816470 0.173333 0.210196
0.816470 0.173333 0.210196
0.816470 0.173333 0.210196
0.814274 0.173961 0.217098
0.828549 0.193255 0.244235
0.841569 0.211765 0.265882
0.850353 0.237020 0.292706
0.862745 0.254831 0.317592
0.822745 0.195294 0.242353
0.822745 0.195294 0.242353
0.827451 0.192157 0.243137
0.825098 0.197647 0.244706
0.827137 0.191843 0.242824
0.829020 0.193725 0.244706
0.821176 0.193725 0.240784
0.822745 0.195294 0.242353
0.822118 0.194667 0.241726
0.823216 0.195765 0.242824
0.826667 0.191372 0.242353
0.824627 0.197176 0.244235
0.825098 0.194667 0.250666
0.833726 0.214118 0.269020
0.853333 0.233725 0.292549
0.862745 0.254824 0.317608
0.833726 0.214118 0.271373
0.833726 0.214118 0.271373
0.833726 0.214118 0.269020
0.833726 0.214118 0.269020
0.833726 0.214118 0.269020
0.836079 0.216471 0.271373
0.837490 0.212236 0.269020
0.833726 0.214118 0.269020
0.833726 0.214118 0.269020
0.833726 0.214118 0.269020
0.833726 0.214118 0.269020
0.833726 0.214118 0.269020
0.833726 0.214118 0.269020
0.833726 0.214118 0.271373
0.849882 0.238118 0.293020
0.862745 0.254824 0.317608
0.849411 0.237647 0.291765
0.849411 0.237647 0.291765
0.846275 0.234510 0.288627
0.850196 0.238432 0.292549
0.853333 0.235294 0.292549
0.850196 0.238432 0.293334
0.849411 0.237647 0.292392
0.850196 0.238432 0.292549
0.847529 0.235765 0.290667
0.849568 0.237804 0.292706
0.849411 0.237647 0.292549
0.849568 0.237804 0.292706
0.853647 0.234039 0.292863
0.850196 0.238432 0.293334
0.854118 0.234510 0.293334
0.862745 0.254824 0.317608
0.862706 0.254863 0.317608
0.862706 0.254863 0.317608
0.862706 0.254863 0.322267
0.862706 0.254863 0.317608
0.862706 0.254863 0.317608
0.862706 0.254863 0.317608
0.862745 0.254824 0.317608
0.862706 0.254863 0.317608
0.862706 0.254863 0.317608
0.862706 0.254863 0.317608
0.862706 0.254863 0.317608
0.862706 0.254863 0.317608
0.862706 0.254863 0.317608
0.862706 0.254863 0.317608
0.862745 0.254831 0.317592
0.855058 0.258745 0.317647
0.723922 0.008627 0.005491
0.726274 0.008627 0.016470
0.735686 0.020392 0.027451
0.739137 0.033726 0.042980
0.748392 0.046275 0.058040
0.752941 0.062745 0.074510
0.764863 0.081098 0.093176
0.776314 0.097882 0.121412
0.782275 0.112627 0.143529
0.794666 0.129882 0.164549
0.804706 0.152941 0.190588
0.816470 0.173333 0.216470
0.825098 0.189804 0.240784
0.840627 0.210667 0.269020
0.850666 0.237647 0.293177
0.864259 0.258746 0.320714
0.728785 0.009098 0.014745
0.734588 0.021176 0.027608
0.738918 0.033036 0.044800
0.747545 0.045584 0.057349
0.752314 0.062118 0.073882
0.764078 0.077804 0.097412
0.778133 0.095686 0.116204
0.781710 0.111937 0.142902
0.791467 0.131106 0.160282
0.803796 0.152314 0.189898
0.815843 0.172706 0.215843
0.825349 0.190117 0.241067
0.840879 0.211106 0.269396
0.851357 0.233412 0.291451
0.862494 0.255027 0.317647
0.870743 0.278511 0.345216
0.734745 0.018039 0.025568
0.738918 0.033098 0.044863
0.741364 0.035608 0.042102
0.748989 0.046274 0.058039
0.753443 0.061804 0.075890
0.765490 0.079215 0.098823
0.774118 0.095686 0.119216
0.782431 0.112470 0.143529
0.793035 0.132078 0.160470
0.805082 0.152690 0.190086
0.817725 0.172078 0.216470
0.824878 0.190651 0.241098
0.833726 0.214118 0.269020
0.848816 0.236581 0.292894
0.863623 0.255529 0.317772
0.874479 0.276032 0.345843
0.739608 0.033726 0.040784
0.747545 0.045584 0.057349
0.749020 0.045804 0.058039
0.748236 0.047686 0.059451
0.753286 0.063090 0.074855
0.765020 0.078745 0.098353
0.775122 0.097192 0.117710
0.782055 0.112847 0.143529
0.791718 0.133365 0.163796
0.803671 0.153067 0.191153
0.816470 0.173333 0.212706
0.827012 0.191718 0.242698
0.838055 0.211953 0.269145
0.850196 0.238243 0.293710
0.862620 0.255906 0.318274
0.871368 0.279142 0.345843
0.748236 0.046275 0.058040
0.753945 0.063749 0.075514
0.752941 0.062745 0.074510
0.752941 0.062745 0.074510
0.750933 0.064596 0.077961
0.765490 0.079215 0.098823
0.774620 0.095185 0.115200
0.782588 0.112815 0.140768
0.789961 0.132549 0.162667
0.803420 0.152439 0.191655
0.816470 0.173333 0.210196
0.827231 0.194510 0.239184
0.833726 0.215623 0.266008
0.849725 0.238431 0.293333
0.856784 0.258196 0.318525
0.871365 0.279145 0.347399
0.752941 0.062745 0.074510
0.764863 0.078588 0.098196
0.765490 0.079215 0.098823
0.765490 0.079215 0.098823
0.765333 0.079059 0.098667
0.764706 0.080000 0.098823
0.773804 0.095686 0.119216
0.783059 0.112470 0.140078
0.790588 0.132235 0.160784
0.803294 0.155451 0.185255
0.816470 0.173333 0.216470
0.827608 0.193882 0.244078
0.834667 0.215529 0.265255
0.847059 0.235294 0.290196
0.862118 0.254902 0.317647
0.872141 0.279921 0.346620
0.762039 0.076078 0.095530
0.776690 0.098572 0.121098
0.773804 0.095686 0.119404
0.774055 0.095937 0.119467
0.775373 0.095686 0.113569
0.774118 0.095686 0.112941
0.774337 0.096722 0.121067
0.782557 0.112470 0.138572
0.793725 0.130667 0.162667
0.803922 0.152314 0.191279
0.816470 0.173333 0.211451
0.823247 0.193224 0.237553
0.841255 0.213333 0.263059
0.851953 0.236392 0.292424
0.857788 0.258196 0.318525
0.871365 0.279145 0.346154
0.774118 0.095686 0.119216
0.782055 0.111592 0.142902
0.782745 0.112157 0.143529
0.783059 0.112470 0.143843
0.782745 0.112784 0.143843
0.782745 0.112784 0.143843
0.781083 0.114447 0.143843
0.781334 0.116078 0.144784
0.788455 0.132047 0.163921
0.805553 0.154604 0.185569
0.816470 0.173333 0.216470
0.826478 0.193255 0.243200
0.833726 0.214118 0.269020
0.850196 0.237961 0.294275
0.862620 0.255592 0.318274
0.870743 0.279455 0.345843
0.782745 0.112157 0.141019
0.795106 0.130416 0.162228
0.793443 0.133835 0.166776
0.795608 0.131106 0.164424
0.790588 0.130980 0.163921
0.789961 0.131294 0.162039
0.791467 0.132800 0.163231
0.790463 0.131796 0.164424
0.791310 0.134902 0.166776
0.804800 0.152565 0.191780
0.817725 0.172078 0.216470
0.826353 0.192627 0.242824
0.833726 0.214118 0.269333
0.849537 0.238431 0.294275
0.862118 0.256157 0.318274
0.871372 0.279137 0.345843
0.795451 0.131294 0.161568
0.804549 0.149773 0.184721
0.801412 0.150432 0.189647
0.804706 0.152941 0.190902
0.803890 0.152910 0.192125
0.803922 0.152314 0.191530
0.804549 0.155451 0.185882
0.801882 0.150683 0.187419
0.801412 0.149804 0.188517
0.804298 0.153569 0.192659
0.816470 0.173333 0.216470
0.828235 0.193004 0.243953
0.836235 0.212863 0.269020
0.851702 0.236549 0.293333
0.862431 0.255686 0.318274
0.871365 0.279145 0.345843
0.804706 0.152941 0.192157
0.815843 0.172706 0.215843
0.816000 0.172863 0.209725
0.816470 0.173333 0.210196
0.816470 0.173333 0.210196
0.819608 0.176471 0.213334
0.816470 0.173333 0.210196
0.816470 0.173333 0.210196
0.816470 0.173333 0.210196
0.816470 0.173333 0.216470
0.819608 0.175687 0.221177
0.829020 0.193725 0.244706
0.838431 0.211765 0.269020
0.852079 0.234039 0.290824
0.861490 0.255529 0.317647
0.871372 0.279137 0.345843
0.816470 0.173333 0.211451
0.825851 0.190619 0.237553
0.823686 0.191215 0.235765
0.826510 0.192972 0.238055
0.825725 0.190745 0.241569
0.829020 0.193725 0.244706
0.825725 0.190745 0.241569
0.825192 0.190212 0.241035
0.828769 0.193475 0.244455
0.828361 0.193380 0.244204
0.829020 0.193725 0.239686
0.825098 0.197615 0.244769
0.836235 0.212863 0.269020
0.853145 0.234604 0.292267
0.863498 0.255404 0.318274
0.872770 0.278988 0.346452
0.822118 0.193725 0.241255
0.833098 0.213490 0.268392
0.838118 0.211921 0.269020
0.838431 0.212235 0.269333
0.838369 0.212172 0.269271
0.837490 0.212235 0.269020
0.840000 0.210980 0.269020
0.840502 0.210918 0.269145
0.837490 0.212235 0.269020
0.837490 0.212235 0.269020
0.838431 0.211765 0.269020
0.834730 0.213710 0.269082
0.834667 0.215059 0.270463
0.852831 0.235796 0.291451
0.859169 0.256690 0.317647
0.871365 0.279145 0.345843
0.833726 0.214118 0.269020
0.848219 0.236549 0.291640
0.849725 0.238431 0.293333
0.848439 0.236863 0.291765
0.846839 0.235545 0.290447
0.849725 0.238431 0.293333
0.850855 0.233789 0.292518
0.849725 0.238431 0.294275
0.848470 0.237177 0.293020
0.849412 0.238118 0.293961
0.851451 0.237177 0.293333
0.848690 0.236925 0.291827
0.850478 0.237365 0.294902
0.849914 0.238306 0.295090
0.856533 0.258322 0.318525
0.871372 0.279137 0.345843
0.849411 0.237647 0.291765
0.858855 0.252894 0.314760
0.862369 0.256408 0.318525
0.862118 0.256157 0.318274
0.862118 0.256157 0.318212
0.862118 0.256157 0.318275
0.862620 0.256659 0.318776
0.861490 0.255529 0.317145
0.861490 0.255529 0.317647
0.863623 0.254902 0.318149
0.861490 0.255529 0.317647
0.861459 0.255498 0.317616
0.859106 0.257663 0.318274
0.858541 0.255435 0.318274
0.858416 0.258824 0.319153
0.871365 0.279145 0.346154
0.862706 0.254863 0.317608
0.873851 0.275410 0.345203
0.871372 0.279137 0.347396
0.871427 0.279145 0.347396
0.871364 0.279176 0.345780
0.871365 0.279145 0.345843
0.871365 0.279176 0.345780
0.873073 0.280885 0.347489
0.871346 0.279126 0.345824
0.871365 0.279170 0.345793
0.871365 0.279145 0.347396
0.871358 0.279139 0.347390
0.871377 0.279151 0.347321
0.871407 0.279150 0.346780
0.871973 0.278499 0.347048
0.863670 0.282298 0.347435
0.734118 0.021176 0.027451
0.731765 0.018823 0.025098
0.734118 0.021176 0.027451
0.738667 0.033726 0.045490
0.749804 0.046275 0.058040
0.752941 0.062745 0.074510
0.763921 0.078902 0.094745
0.776627 0.098196 0.121725
0.782745 0.112157 0.143529
0.791529 0.130510 0.163922
0.805490 0.152941 0.192157
0.816470 0.173333 0.213961
0.823529 0.191372 0.240784
0.835922 0.214431 0.269961
0.849725 0.237961 0.292863
0.862706 0.254863 0.317608
0.733647 0.020706 0.026980
0.738917 0.033098 0.044863
0.739765 0.034196 0.043702
0.748047 0.046086 0.058792
0.752941 0.062745 0.074510
0.764706 0.078431 0.098039
0.774118 0.095686 0.115451
0.782431 0.112345 0.143655
0.792282 0.130416 0.164110
0.803922 0.152941 0.192157
0.816470 0.173333 0.213961
0.825788 0.191435 0.241945
0.838369 0.212549 0.269522
0.848753 0.237177 0.291577
0.861490 0.255529 0.317647
0.872588 0.277921 0.346464
0.730824 0.020706 0.026039
0.740549 0.034667 0.041161
0.747169 0.047090 0.058228
0.757804 0.061961 0.075608
0.763200 0.076361 0.096251
0.774745 0.096314 0.115137
0.781678 0.111341 0.142588
0.791216 0.129255 0.162980
0.803200 0.151937 0.183059
0.815812 0.172110 0.208941
0.824157 0.188863 0.239843
0.838432 0.210353 0.268079
0.849631 0.234290 0.290981
0.863122 0.253396 0.317082
0.873851 0.275232 0.344188
0.880612 0.298181 0.367043
0.739608 0.033726 0.043608
0.748235 0.046274 0.058039
0.752000 0.061804 0.072628
0.755357 0.065161 0.076925
0.763796 0.078651 0.097694
0.772235 0.095686 0.116392
0.782118 0.113725 0.142494
0.790274 0.132549 0.164863
0.804236 0.153224 0.185004
0.816376 0.172863 0.210227
0.827137 0.193725 0.239059
0.839122 0.212549 0.266761
0.848408 0.237020 0.291922
0.862180 0.256031 0.318212
0.874353 0.276706 0.344941
0.883424 0.297216 0.371725
0.748236 0.046275 0.058040
0.755671 0.063592 0.075984
0.764549 0.078274 0.097882
0.765490 0.079216 0.098824
0.764235 0.080471 0.098824
0.772863 0.098196 0.117020
0.781239 0.113788 0.143592
0.787451 0.132549 0.163921
0.803545 0.151875 0.191090
0.816471 0.173333 0.216471
0.827922 0.193255 0.243922
0.833726 0.214118 0.269020
0.850541 0.237020 0.293051
0.858290 0.258541 0.318588
0.872000 0.278588 0.345882
0.883417 0.299103 0.373613
0.755294 0.065098 0.076863
0.765490 0.079215 0.098823
0.777098 0.098667 0.117490
0.774745 0.096314 0.115137
0.774118 0.095686 0.119216
0.778039 0.099608 0.123137
0.781961 0.112941 0.143529
0.796863 0.130196 0.165490
0.802353 0.151373 0.190588
0.816000 0.172863 0.215059
0.829020 0.193725 0.244706
0.833726 0.214118 0.269333
0.850980 0.237020 0.293333
0.860863 0.255843 0.317647
0.871686 0.277961 0.345412
0.882314 0.298000 0.372510
0.765177 0.078902 0.098510
0.774808 0.096690 0.120220
0.781929 0.111341 0.142713
0.783059 0.112470 0.143843
0.783059 0.112470 0.140549
0.782745 0.112157 0.140235
0.782463 0.115012 0.144815
0.796047 0.133176 0.160878
0.801851 0.152220 0.186447
0.816565 0.173239 0.213773
0.832471 0.193412 0.239686
0.840188 0.210886 0.269020
0.851890 0.235796 0.291451
0.864063 0.255278 0.318588
0.875043 0.275545 0.345882
0.885952 0.296907 0.371416
0.772863 0.095686 0.119216
0.783059 0.114666 0.144941
0.789333 0.130196 0.162980
0.790651 0.131514 0.164298
0.790274 0.131137 0.163921
0.790274 0.131137 0.163921
0.795576 0.132204 0.164047
0.795702 0.133741 0.167466
0.803294 0.151749 0.190965
0.817600 0.171639 0.208345
0.828392 0.194353 0.242823
0.835608 0.213177 0.269020
0.849443 0.234479 0.290604
0.861428 0.256408 0.318212
0.873412 0.277176 0.347388
0.883883 0.299569 0.374079
0.780392 0.114510 0.143529
0.789961 0.131294 0.163921
0.803671 0.152376 0.187827
0.803357 0.152283 0.187075
0.803639 0.154071 0.189051
0.803922 0.154981 0.188078
0.803922 0.154384 0.189271
0.803357 0.152376 0.191592
0.805239 0.153882 0.193098
0.816941 0.172863 0.215718
0.823529 0.191372 0.240784
0.833726 0.214118 0.269020
0.847780 0.236643 0.291545
0.860173 0.257600 0.318588
0.871373 0.279216 0.346886
0.881544 0.299093 0.372671
0.792784 0.129882 0.163922
0.804298 0.151435 0.190651
0.815529 0.172392 0.215529
0.816941 0.172863 0.215843
0.818729 0.171074 0.211137
0.818353 0.170510 0.210667
0.816471 0.173333 0.211326
0.816471 0.173333 0.212329
0.816941 0.172863 0.211137
0.814023 0.174024 0.217161
0.824313 0.192157 0.237804
0.838431 0.214275 0.264000
0.847498 0.236361 0.291263
0.860863 0.255843 0.317647
0.873726 0.276863 0.345882
0.881553 0.297240 0.371749
0.803922 0.156863 0.184314
0.816470 0.173333 0.210196
0.824784 0.189490 0.240471
0.826667 0.191372 0.242353
0.825098 0.189804 0.240784
0.829020 0.193725 0.244706
0.824314 0.193725 0.242353
0.825412 0.191372 0.241725
0.829020 0.193725 0.244706
0.826667 0.194510 0.243922
0.825098 0.197647 0.244706
0.836863 0.212549 0.269020
0.847843 0.234196 0.290039
0.862745 0.254902 0.315765
0.872627 0.279529 0.346667
0.883883 0.299569 0.374079
0.816470 0.173333 0.216470
0.827388 0.192408 0.243231
0.840000 0.209569 0.268079
0.840941 0.210510 0.269020
0.833726 0.216000 0.265255
0.837177 0.214275 0.265255
0.837553 0.214180 0.265318
0.837490 0.214118 0.265255
0.841569 0.212079 0.265255
0.837679 0.214024 0.265255
0.842823 0.212392 0.270902
0.834353 0.214745 0.271216
0.849788 0.236267 0.290886
0.864345 0.254620 0.312659
0.872220 0.278368 0.345882
0.882033 0.297687 0.372182
0.824628 0.195294 0.243294
0.835232 0.213365 0.269020
0.847215 0.236079 0.292236
0.847592 0.236455 0.292612
0.851921 0.236079 0.293333
0.850980 0.237020 0.293333
0.850196 0.237930 0.294337
0.849820 0.238055 0.292957
0.849945 0.236926 0.294024
0.850510 0.237490 0.294588
0.850980 0.235138 0.290981
0.848345 0.237208 0.290698
0.849568 0.238808 0.294212
0.862369 0.255655 0.315200
0.873757 0.276267 0.348110
0.884396 0.297239 0.371749
0.834980 0.213490 0.269020
0.848972 0.237490 0.293898
0.859922 0.254902 0.316706
0.861804 0.256220 0.319717
0.860863 0.255843 0.317647
0.861804 0.256784 0.318588
0.863874 0.256031 0.320659
0.863686 0.255843 0.318588
0.860863 0.255467 0.318400
0.856785 0.257882 0.317647
0.860863 0.255843 0.317647
0.860863 0.255843 0.317647
0.863184 0.256094 0.317835
0.858792 0.258290 0.320847
0.871373 0.279216 0.348769
0.884192 0.298623 0.373133
0.850196 0.238432 0.293334
0.862745 0.254902 0.317647
0.871843 0.277804 0.344000
0.871843 0.278745 0.345882
0.872470 0.278745 0.348706
0.871843 0.278745 0.348392
0.872784 0.278745 0.348392
0.872157 0.279278 0.345129
0.871843 0.279216 0.344941
0.871749 0.279121 0.344847
0.871843 0.278745 0.348392
0.872094 0.278996 0.346635
0.871843 0.278368 0.345694
0.869208 0.278619 0.348267
0.872094 0.279749 0.346510
0.883417 0.299103 0.373613
0.862706 0.254863 0.317608
0.873228 0.277282 0.345843
0.882918 0.298604 0.373114
0.883883 0.299569 0.374079
0.883864 0.299550 0.374060
0.883883 0.299569 0.375631
0.883106 0.298792 0.373302
0.883873 0.299559 0.374069
0.881537 0.297224 0.371733
0.881548 0.297251 0.371713
0.882329 0.298015 0.372525
0.883843 0.299553 0.373992
0.883883 0.299569 0.374700
0.880932 0.296618 0.372681
0.884814 0.299569 0.374079
0.883875 0.299561 0.375608
0.739608 0.033726 0.042353
0.739608 0.033726 0.045490
0.739608 0.033726 0.045490
0.740549 0.034667 0.046431
0.749647 0.045020 0.056785
0.752941 0.062745 0.074510
0.765490 0.081569 0.094118
0.772863 0.095686 0.116392
0.782745 0.112157 0.143529
0.789019 0.131764 0.163922
0.806275 0.152941 0.192157
0.816470 0.173333 0.213961
0.825098 0.189804 0.240784
0.841569 0.210196 0.269020
0.849411 0.237647 0.292549
0.859600 0.256416 0.317608
0.741490 0.035608 0.044863
0.748863 0.045647 0.057412
0.749208 0.045992 0.057757
0.747765 0.047216 0.060894
0.753569 0.063373 0.075137
0.762980 0.078274 0.097098
0.776691 0.098447 0.116957
0.782274 0.114635 0.144721
0.791655 0.134494 0.162667
0.802918 0.152659 0.189710
0.815843 0.173333 0.216470
0.825161 0.191309 0.241569
0.835232 0.213365 0.269020
0.848125 0.236549 0.291451
0.860047 0.256251 0.317647
0.874940 0.275570 0.346775
0.739608 0.033726 0.043608
0.748989 0.046274 0.058039
0.755765 0.061334 0.074510
0.753192 0.064878 0.075702
0.763984 0.077898 0.096941
0.775059 0.096628 0.118275
0.781302 0.113851 0.143655
0.792157 0.130196 0.163921
0.805773 0.152565 0.185443
0.816659 0.173145 0.213773
0.826667 0.191372 0.242353
0.834102 0.213929 0.269020
0.848847 0.237334 0.292236
0.859796 0.256377 0.317647
0.874604 0.276173 0.345506
0.887956 0.298924 0.373434
0.740549 0.035608 0.047373
0.749177 0.047216 0.061333
0.755357 0.065161 0.076925
0.765082 0.077553 0.097788
0.774902 0.096094 0.119812
0.781804 0.111216 0.141333
0.794823 0.129412 0.162196
0.804643 0.151059 0.189145
0.816533 0.170635 0.213898
0.827043 0.189866 0.241475
0.839373 0.209882 0.268079
0.847749 0.235608 0.290698
0.861804 0.253961 0.316706
0.873788 0.276612 0.345788
0.881914 0.297600 0.372110
0.895497 0.319013 0.393529
0.746353 0.044392 0.059294
0.752941 0.062745 0.074510
0.761600 0.079341 0.096941
0.773177 0.094745 0.117271
0.776314 0.098824 0.122353
0.782745 0.112157 0.142902
0.793412 0.132643 0.165553
0.803828 0.152659 0.186227
0.815969 0.172581 0.212706
0.827859 0.193318 0.243294
0.837804 0.212863 0.267451
0.849819 0.238431 0.293083
0.862118 0.256345 0.316518
0.872251 0.278337 0.345882
0.883137 0.298824 0.373333
0.895189 0.319961 0.394470
0.752941 0.062745 0.074510
0.765490 0.079215 0.098823
0.776157 0.097725 0.121255
0.781804 0.111216 0.142588
0.782745 0.112157 0.143529
0.780392 0.114510 0.143529
0.787451 0.132549 0.163921
0.804863 0.153569 0.189020
0.817098 0.172706 0.216471
0.826353 0.194824 0.243294
0.833726 0.214118 0.269020
0.848784 0.236863 0.292079
0.859608 0.255530 0.319529
0.871373 0.279216 0.350588
0.883137 0.298824 0.373333
0.894855 0.319961 0.394470
0.765177 0.078902 0.098510
0.776314 0.098196 0.121726
0.782118 0.113161 0.143717
0.795419 0.132455 0.161286
0.795921 0.128941 0.162353
0.793725 0.130667 0.162353
0.790745 0.132078 0.164706
0.805678 0.152000 0.188079
0.816784 0.173020 0.214714
0.827482 0.191310 0.242416
0.837804 0.213647 0.265882
0.848063 0.236172 0.291074
0.863686 0.255655 0.316518
0.873223 0.278306 0.346353
0.881788 0.297474 0.371984
0.895192 0.319958 0.394470
0.774118 0.095686 0.119216
0.782431 0.112470 0.143529
0.790965 0.130792 0.163921
0.802730 0.150808 0.190024
0.803922 0.152784 0.182274
0.802981 0.154667 0.182745
0.803451 0.153443 0.185035
0.804863 0.153882 0.193098
