public/filters/aura.cube
LUT_3D_SIZE 6
0.717647 0.003922 0.000000
0.739608 0.033726 0.042353
0.765490 0.082353 0.092549
0.789019 0.131764 0.163922
0.826667 0.191372 0.242353
0.862745 0.254824 0.317608
0.739608 0.033726 0.045490
0.741176 0.036706 0.048471
0.765177 0.079529 0.098823
0.789019 0.131764 0.163922
0.826980 0.192941 0.243294
0.854941 0.258746 0.317608
0.764706 0.078431 0.098039
0.765490 0.079215 0.098823
0.764706 0.080000 0.099137
0.790274 0.131921 0.163137
0.827137 0.191843 0.242824
0.862745 0.254824 0.317608
0.796078 0.132549 0.161568
0.793568 0.130667 0.164706
0.795294 0.132549 0.160000
0.788235 0.133333 0.164706
0.826667 0.191372 0.242353
0.861184 0.255608 0.317608
0.822745 0.195294 0.242353
0.825098 0.197647 0.244706
0.821176 0.193725 0.240784
0.823216 0.195765 0.242824
0.825098 0.194667 0.250666
0.862745 0.254824 0.317608
0.862706 0.254863 0.317608
0.862706 0.254863 0.317608
0.862745 0.254824 0.317608
0.862706 0.254863 0.317608
0.862706 0.254863 0.317608
0.855058 0.258745 0.317647
0.739608 0.033726 0.042353
0.740549 0.034667 0.046431
0.765490 0.081569 0.094118
0.789019 0.131764 0.163922
0.825098 0.189804 0.240784
0.859600 0.256416 0.317608
0.740549 0.035608 0.047373
0.765082 0.077553 0.097788
0.794823 0.129412 0.162196
0.827043 0.189866 0.241475
0.861804 0.253961 0.316706
0.895497 0.319013 0.393529
0.765177 0.078902 0.098510
0.795419 0.132455 0.161286
0.790745 0.132078 0.164706
0.827482 0.191310 0.242416
0.863686 0.255655 0.316518
0.895192 0.319958 0.394470
0.789019 0.131764 0.163922
0.825067 0.192282 0.237930
0.828706 0.193412 0.243639
0.823843 0.194259 0.246149
0.861177 0.257098 0.318588
0.897029 0.321824 0.396334
0.823686 0.196235 0.243294
0.859922 0.254902 0.316706
0.863498 0.255655 0.318400
0.858980 0.257255 0.320470
0.857349 0.259577 0.318965
0.899404 0.320107 0.396030
0.862729 0.254886 0.317631
0.895490 0.319020 0.393529
0.897674 0.321203 0.395713
0.896408 0.319961 0.394470
0.896441 0.319970 0.394480
0.898722 0.321538 0.406071
0.764706 0.081569 0.091765
0.765490 0.079215 0.098823
0.762196 0.075922 0.095530
0.788706 0.131921 0.163922
0.823529 0.191372 0.240784
0.862706 0.254863 0.317608
0.763921 0.080784 0.098823
0.796047 0.132706 0.161349
0.794980 0.130981 0.163294
0.825725 0.194196 0.242667
0.860863 0.255843 0.315514
0.896444 0.319948 0.394470
0.765333 0.079059 0.098667
0.790588 0.131921 0.164549
0.824847 0.191372 0.241443
0.861929 0.254557 0.315639
0.895686 0.319373 0.393882
0.929360 0.384262 0.474458
0.790902 0.132549 0.163765
0.822651 0.192376 0.240847
0.855969 0.257538 0.316894
0.861553 0.257443 0.319278
0.895373 0.320188 0.396329
0.929349 0.383468 0.476013
0.825412 0.190117 0.236392
0.860863 0.255843 0.317647
0.895843 0.318431 0.396832
0.894965 0.320063 0.397710
0.893804 0.321255 0.399843
0.927809 0.382711 0.472907
0.862714 0.254855 0.317608
0.894102 0.319961 0.399130
0.929366 0.384269 0.474465
0.929343 0.384245 0.474391
0.929349 0.384251 0.474385
0.928573 0.381145 0.482212
0.789804 0.133333 0.160784
0.789333 0.132078 0.164235
0.789019 0.131764 0.163922
0.790902 0.135529 0.167059
0.826667 0.191372 0.241412
0.865812 0.257969 0.320714
0.787764 0.132862 0.164235
0.825725 0.189804 0.236706
0.824125 0.193537 0.239529
0.827231 0.192439 0.240534
0.861051 0.256031 0.317835
0.898295 0.319476 0.401031
0.790431 0.132078 0.163294
0.826729 0.191247 0.242290
0.862118 0.254274 0.316769
0.862306 0.256188 0.320031
0.896408 0.320000 0.394510
0.927950 0.383622 0.475390
0.788078 0.133176 0.164549
0.824094 0.193317 0.241914
0.858102 0.257538 0.319780
0.895216 0.320753 0.395262
0.928157 0.383059 0.473255
0.959333 0.433843 0.539725
0.824784 0.192627 0.242039
0.861522 0.255184 0.319812
0.896314 0.320157 0.395294
0.927184 0.381271 0.478933
0.925992 0.383843 0.480879
0.958079 0.434471 0.540353
0.862706 0.254863 0.317608
0.896431 0.319961 0.394455
0.926398 0.380679 0.472739
0.955606 0.433998 0.539881
0.956860 0.434475 0.540357
0.956863 0.434509 0.546667
0.825098 0.189804 0.236079
0.826980 0.194510 0.244078
0.826980 0.194824 0.244235
0.827451 0.192157 0.243137
0.822745 0.195294 0.242353
0.859600 0.256416 0.317608
0.821176 0.193725 0.240784
0.861804 0.253961 0.316706
0.861365 0.256722 0.318400
0.862933 0.255090 0.317835
0.861302 0.257035 0.318588
0.896431 0.319961 0.394470
0.826823 0.192157 0.242824
0.861804 0.256784 0.318588
0.895530 0.319373 0.392376
0.896471 0.319937 0.395576
0.897255 0.321067 0.399969
0.929668 0.384570 0.474766
0.826353 0.196392 0.244706
0.860235 0.256627 0.320470
0.894243 0.320314 0.394949
0.927530 0.381177 0.475137
0.927059 0.382275 0.480941
0.956855 0.434471 0.540353
0.824470 0.195137 0.243137
0.858667 0.259388 0.320282
0.895279 0.321318 0.395827
0.927530 0.382118 0.476643
0.955702 0.434133 0.540015
0.981641 0.475759 0.593406
0.859616 0.258730 0.319161
0.895057 0.320916 0.395426
0.926251 0.381153 0.471349
0.956389 0.434471 0.540353
0.983970 0.479951 0.597288
0.985866 0.480015 0.599200
0.862745 0.254824 0.317608
0.854941 0.258746 0.317608
0.854941 0.258746 0.317608
0.862706 0.254863 0.317608
0.862706 0.254863 0.317608
0.862745 0.254902 0.317647
0.860377 0.252533 0.315278
0.897990 0.318383 0.394436
0.896431 0.319961 0.394470
0.896439 0.319969 0.394463
0.896431 0.319961 0.394470
0.896470 0.320000 0.394509
0.862706 0.254863 0.317608
0.894115 0.319948 0.398198
0.926919 0.381727 0.471954
0.925498 0.378063 0.479153
0.929381 0.383506 0.476032
0.928635 0.381200 0.482290
0.862714 0.254871 0.317616
0.893326 0.319961 0.394470
0.929348 0.383473 0.475999
0.956072 0.433688 0.539194
0.956855 0.434471 0.540353
0.956863 0.434509 0.540391
0.862706 0.254863 0.317608
0.895034 0.319961 0.394470
0.929846 0.384748 0.474944
0.957613 0.434471 0.540353
0.981945 0.476063 0.593710
0.985866 0.479984 0.597631
0.862745 0.254902 0.317647
0.894180 0.320039 0.394548
0.926313 0.377356 0.479129
0.956863 0.434509 0.540391
0.982007 0.483843 0.597662
1.000000 0.513685 0.639176
