public/filters/god.cube
TITLE "Generated by Resolve"
LUT_3D_SIZE 33
0.0684367 0.0889601 0.0218967
0.0667887 0.0896315 0.0221714
0.0672007 0.0905013 0.0224613
0.0820172 0.0911574 0.0222019
0.0951858 0.0935073 0.0225681
0.105776 0.0965438 0.0231174
0.116976 0.0995499 0.0232547
0.134676 0.101701 0.0228275
0.157183 0.101808 0.0211185
0.179507 0.101289 0.0186465
0.201419 0.100557 0.0156405
0.222354 0.0975662 0.00500496
0.243259 0.0941787 0
0.265705 0.0906691 0
0.288685 0.0821241 0
0.311818 0.0704967 0
0.335332 0.064271 0
0.358877 0.0596323 0
0.380667 0.0583963 0
0.402243 0.0575265 0
0.422004 0.0570077 0
0.441352 0.0563363 0
0.460716 0.0558328 0
0.479637 0.0551614 0
0.498436 0.0546731 0
0.516609 0.0540322 0
0.533516 0.0536049 0
0.549844 0.0529641 0
0.564858 0.0525978 0
0.579187 0.052079 0
0.593561 0.051667 0
0.607385 0.0512856 0
0.620462 0.0507668 0
0.0693828 0.101595 0.0232853
0.0675822 0.102068 0.0238041
0.0681926 0.102937 0.0247501
0.0848402 0.104204 0.0249027
0.0996109 0.1066 0.0247501
0.111803 0.109575 0.0248875
0.1243 0.112703 0.0250248
0.14229 0.114778 0.0243687
0.166171 0.11577 0.0218967
0.190051 0.116258 0.0185092
0.213275 0.116686 0.0144503
0.235477 0.116243 0.00106813
0.258518 0.115816 0
0.282597 0.115145 0
0.306844 0.113222 0
0.331197 0.110735 0
0.355337 0.10692 0
0.378683 0.102739 0
0.400549 0.0957198 0
0.42208 0.0885939 0
0.441352 0.0724804 0
0.4607 0.0561837 0
0.480186 0.055314 0
0.499977 0.0546578 0
0.518761 0.0539864 0
0.53782 0.0535134 0
0.554513 0.0528878 0
0.571405 0.05243 0
0.586511 0.0518502 0
0.601373 0.0514687 0
0.615946 0.0508736 0
0.629831 0.0505226 0
0.64329 0.0502174 0
0.0684977 0.109377 0.0262303
0.0664225 0.109682 0.0267643
0.0672923 0.110567 0.0278782
0.0865644 0.112016 0.0283207
0.102907 0.114656 0.0280613
0.116564 0.117968 0.0279545
0.130678 0.12163 0.0277104
0.149813 0.124178 0.0263828
0.174624 0.125948 0.0235599
0.199359 0.127214 0.0196384
0.223713 0.127947 0.0146487
0.247898 0.12845 0.000961318
0.27216 0.128862 0
0.297078 0.129274 0
0.322286 0.128725 0
0.34757 0.127825 0
0.372259 0.125826 0
0.396902 0.123674 0
0.419364 0.1205 0
0.441718 0.117372 0
0.461509 0.113146 0
0.48101 0.108568 0
0.499458 0.0948806 0
0.517983 0.0817578 0
0.536645 0.0731212 0
0.555001 0.0651408 0
0.572213 0.060029 0
0.58883 0.0564889 0
0.604089 0.0554818 0
0.618952 0.0545357 0
0.633768 0.0534066 0
0.647486 0.0515755 0
0.660883 0.0501106 0
0.0598154 0.119554 0.0286259
0.0574655 0.119936 0.02916
0.0593271 0.121065 0.0303807
0.0857099 0.122881 0.0308537
0.104753 0.12575 0.0306096
0.119951 0.129244 0.0301671
0.13521 0.132998 0.02916
0.155474 0.136095 0.0274815
0.181155 0.138201 0.0238346
0.207019 0.139818 0.0183413
0.232547 0.141085 0.0110933
0.258091 0.142519 0
0.283574 0.143679 0
0.309438 0.14461 0
0.335256 0.145022 0
0.36112 0.1449 0
0.386847 0.144366 0
0.411917 0.143618 0
0.435065 0.142046 0
0.458076 0.140536 0
0.478569 0.138354 0
0.498573 0.135943 0
0.517693 0.131289 0
0.536706 0.126406 0
0.554742 0.116915 0
0.572534 0.106935 0
0.5888 0.0967117 0
0.605035 0.0890211 0
0.620249 0.0861067 0
0.634623 0.0828717 0
0.649042 0.0789654 0
0.662425 0.0728313 0
0.675273 0.0673075 0
0.0487221 0.131167 0.0310369
0.0474098 0.131823 0.0315251
0.0504158 0.133455 0.032578
0.0813306 0.135546 0.0325475
0.104433 0.138552 0.032105
0.122011 0.142351 0.0312505
0.13846 0.146212 0.0298619
0.160021 0.14966 0.0275731
0.186786 0.152239 0.0234836
0.213809 0.154269 0.0158236
0.240558 0.155962 0.00456245
0.267308 0.158282 0
0.294179 0.160311 0
0.320668 0.162188 0
0.347311 0.163333 0
0.373541 0.164065 0
0.399649 0.164065 0
0.425681 0.164096 0
0.449561 0.163638 0
0.472908 0.162905 0
0.493721 0.161929 0
0.514214 0.160693 0
0.533989 0.158007 0
0.553704 0.155413 0
0.572198 0.15201 0
0.590829 0.148516 0
0.607401 0.144564 0
0.623697 0.140459 0
0.638437 0.136095 0
0.65243 0.131121 0
0.666529 0.125765 0
0.679332 0.118395 0
0.691295 0.109972 0
0.045243 0.143145 0.0334936
0.0452583 0.144167 0.0337987
0.0461891 0.146304 0.0344549
0.0716564 0.148531 0.0336614
0.101457 0.151766 0.0329137
0.123934 0.155764 0.0319982
0.141268 0.159899 0.0302281
0.164736 0.16376 0.0272068
0.192615 0.16672 0.0222782
0.220737 0.169207 0.0129702
0.248631 0.171496 0
0.276905 0.174533 0
0.304738 0.177371 0
0.33225 0.179934 0
0.359594 0.181903 0
0.386664 0.183337 0
0.413199 0.18407 0
0.439887 0.18471 0
0.464317 0.18497 0
0.48864 0.185382 0
0.509728 0.184924 0
0.530861 0.184405 0
0.551019 0.183062 0
0.571115 0.181521 0
0.590158 0.17911 0
0.6094 0.176867 0
0.626291 0.17435 0
0.64303 0.172045 0
0.658106 0.16994 0
0.672572 0.167803 0
0.687053 0.165759 0
0.700282 0.164279 0
0.713039 0.162875 0
0.0454261 0.154452 0.0352636
0.0454414 0.155627 0.0353552
0.0456245 0.158221 0.0357671
0.0678721 0.160983 0.0348516
0.0995651 0.164492 0.0338598
0.12517 0.168872 0.0323949
0.145083 0.173312 0.0301823
0.168536 0.177172 0.0263371
0.198016 0.180621 0.0199588
0.227848 0.18381 0.010071
0.257282 0.186831 0
0.286839 0.190463 0
0.315572 0.19411 0
0.343984 0.197223 0
0.371756 0.199466 0
0.399695 0.201633 0
0.427298 0.20325 0
0.454459 0.204746 0
0.479332 0.205509 0
0.504189 0.206271 0
0.525933 0.206455 0
0.547662 0.206363 0
0.568032 0.205463 0
0.588708 0.204776 0
0.608301 0.203204 0
0.62768 0.20145 0
0.645258 0.199817 0
0.66212 0.198108 0
0.677287 0.196689 0
0.691905 0.195346 0
0.706615 0.193912 0
0.719676 0.192676 0
0.732387 0.191699 0
0.0455024 0.166918 0.0366522
0.0455177 0.16846 0.0365911
0.045716 0.171679 0.0370184
0.0649424 0.174624 0.035523
0.0967269 0.178393 0.0338903
0.124559 0.182971 0.0318151
0.146761 0.187854 0.0287327
0.17258 0.192416 0.0240024
0.203113 0.196323 0.0139925
0.234134 0.200092 0.0030518
0.26569 0.204013 0
0.29659 0.208591 0
0.326146 0.212665 0
0.35523 0.216297 0
0.383963 0.219471 0
0.412543 0.222034 0
0.440513 0.224186 0
0.46833 0.226093 0
0.493828 0.227466 0
0.519219 0.228946 0
0.541451 0.22945 0
0.563333 0.229801 0
0.584405 0.229603 0
0.605447 0.229099 0
0.625299 0.22797 0
0.644999 0.226749 0
0.662791 0.225742 0
0.680079 0.224704 0
0.695399 0.223575 0
0.710124 0.222705 0
0.724804 0.221729 0
0.737713 0.220783 0
0.750622 0.22034 0
0.045716 0.180804 0.0373999
0.0458381 0.182452 0.0372778
0.0457008 0.185916 0.0372931
0.0594797 0.189197 0.035462
0.0907454 0.193408 0.0329442
0.121553 0.198383 0.0299077
0.14725 0.203647 0.0252689
0.175128 0.20885 0.0177462
0.207431 0.213504 0.00563058
0.240055 0.218097 0
0.273518 0.22327 0
0.305562 0.228641 0
0.336324 0.233494 0
0.366171 0.237659 0
0.395514 0.241337 0
0.42472 0.244465 0
0.453483 0.24715 0
0.481376 0.249485 0
0.507332 0.251179 0
0.532998 0.252796 0
0.555306 0.25359 0
0.577813 0.254658 0
0.59913 0.254673 0
0.620508 0.254536 0
0.640635 0.253773 0
0.660838 0.252934 0
0.678996 0.252262 0
0.696406 0.251759 0
0.711818 0.250965 0
0.726696 0.250431 0
0.741146 0.24979 0
0.754086 0.249378 0
0.766934 0.249271 0
0.0456397 0.195697 0.0368811
0.0457771 0.197559 0.0365454
0.0457313 0.20145 0.0365301
0.0497139 0.204852 0.0341192
0.080827 0.209476 0.0306859
0.115663 0.214755 0.0259861
0.146471 0.22089 0.0190433
0.176455 0.22652 0.00650034
0.210742 0.232532 0
0.245411 0.238254 0
0.28072 0.244694 0
0.313634 0.250553 0
0.345602 0.256184 0
0.376196 0.260853 0
0.406134 0.264973 0
0.435813 0.268528 0
0.46479 0.271473 0
0.493248 0.273976 0
0.519478 0.276005 0
0.545205 0.278035 0
0.5682 0.279515 0
0.590997 0.280705 0
0.612512 0.280888 0
0.634272 0.281178 0
0.65478 0.280797 0
0.674876 0.280217 0
0.693294 0.279881 0
0.71104 0.279637 0
0.72665 0.279316 0
0.741421 0.278904 0
0.75581 0.278431 0
0.768933 0.278264 0
0.78201 0.278569 0
0.045716 0.210361 0.0359655
0.0454719 0.212085 0.0351415
0.045594 0.216236 0.0350805
0.0467994 0.220203 0.0319371
0.071397 0.224948 0.0267796
0.107301 0.230869 0.0181277
0.143771 0.237644 0.00709544
0.176959 0.244892 0
0.213413 0.252064 0
0.250248 0.258991 0
0.286702 0.265888 0
0.321187 0.272587 0
0.353948 0.278569 0
0.385534 0.283787 0
0.415808 0.288258 0
0.445853 0.292058 0
0.474952 0.295186 0
0.503975 0.298009 0
0.530327 0.300359 0
0.556481 0.302556 0
0.579629 0.304006 0
0.602426 0.305318 0
0.624598 0.305943 0
0.646433 0.306432 0
0.666941 0.306249 0
0.687877 0.306249 0
0.70602 0.305837 0
0.723949 0.305837 0
0.739696 0.305699 0
0.754635 0.305669 0
0.769131 0.305379 0
0.782345 0.305196 0
0.795239 0.305699 0
0.045304 0.224598 0.034287
0.045243 0.226749 0.0333867
0.0452888 0.231022 0.0329747
0.0448768 0.235126 0.0286717
0.0608072 0.240208 0.0206455
0.0960403 0.246921 0.00891127
0.140017 0.254765 0
0.176944 0.263233 0
0.216007 0.271626 0
0.254734 0.279545 0
0.292805 0.287083 0
0.328405 0.294194 0
0.362051 0.300587 0
0.394293 0.306294 0
0.424765 0.310811 0
0.455131 0.314717 0
0.484642 0.318181 0
0.513771 0.321309 0
0.540688 0.323842 0
0.566827 0.326055 0
0.590356 0.327703 0
0.613519 0.329549 0
0.635523 0.330266 0
0.657649 0.330724 0
0.678721 0.331029 0
0.699413 0.331075 0
0.718334 0.331258 0
0.736156 0.331212 0
0.752239 0.331334 0
0.766979 0.331212 0
0.781628 0.331273 0
0.79472 0.33135 0
0.807706 0.331731 0
0.0449378 0.238941 0.0321508
0.0447395 0.241108 0.030869
0.0446174 0.245518 0.0298314
0.0444038 0.250095 0.024567
0.0471962 0.25536 0.0115816
0.0808728 0.26305 0
0.134798 0.272145 0
0.176837 0.282094 0
0.218082 0.291173 0
0.258991 0.299779 0
0.298665 0.307851 0
0.335027 0.315465 0
0.369604 0.322225 0
0.40238 0.328161 0
0.433494 0.333104 0
0.464363 0.337469 0
0.494087 0.341115 0
0.523323 0.344274 0
0.550423 0.34696 0
0.577081 0.349462 0
0.60061 0.351293 0
0.623697 0.352941 0
0.64596 0.353872 0
0.668406 0.354879 0
0.689616 0.355123 0
0.710704 0.35552 0
0.72958 0.355596 0
0.747677 0.356008 0
0.763806 0.356207 0
0.779095 0.356435 0
0.793591 0.356207 0
0.806912 0.356573 0
0.819638 0.357168 0
0.0442206 0.253666 0.0283207
0.0440986 0.256153 0.0263371
0.0440833 0.26096 0.0246128
0.0437781 0.265782 0.0168765
0.043534 0.271946 0.00289921
0.07364 0.280385 0
0.127749 0.290898 0
0.175204 0.301854 0
0.219364 0.311772 0
0.262379 0.320943 0
0.303548 0.329473 0
0.341085 0.337392 0
0.376776 0.344823 0
0.410071 0.350851 0
0.442054 0.356252 0
0.473045 0.3608 0
0.503044 0.364538 0
0.532525 0.368109 0
0.559945 0.37084 0
0.586984 0.373541 0
0.610636 0.375601 0
0.634211 0.377768 0
0.656657 0.378744 0
0.679225 0.379721 0
0.700771 0.380407 0
0.722118 0.380819 0
0.740948 0.38117 0
0.759289 0.381537 0
0.775479 0.381918 0
0.790707 0.382345 0
0.805585 0.382681 0
0.818875 0.382757 0
0.822873 0.377737 0
0.0437629 0.268803 0.0242466
0.0436561 0.271412 0.0213779
0.0434119 0.276295 0.0185397
0.0433204 0.281697 0.00842298
0.0429084 0.288655 0
0.0690166 0.298421 0
0.119493 0.30959 0
0.173587 0.321584 0
0.220493 0.332357 0
0.265385 0.342123 0
0.308278 0.351019 0
0.34696 0.359228 0
0.383337 0.366842 0
0.417609 0.373648 0
0.449882 0.379126 0
0.481315 0.383871 0
0.51191 0.388006 0
0.541802 0.391897 0
0.569635 0.394995 0
0.596796 0.398016 0
0.620645 0.400046 0
0.64416 0.402243 0
0.667201 0.403418 0
0.690089 0.404807 0
0.711589 0.405554 0
0.73283 0.406012 0
0.7523 0.406729 0
0.770611 0.407187 0
0.787213 0.407935 0
0.802228 0.408103 0
0.817273 0.408652 0
0.82121 0.40322 0
0.834867 0.403693 0
0.0430915 0.285069 0.0176852
0.0431373 0.288106 0.0131685
0.0427863 0.293431 0.00704967
0.0426642 0.299504 0
0.0424048 0.307561 0
0.0591135 0.318029 0
0.0998398 0.330129 0
0.170306 0.343282 0
0.220996 0.35462 0
0.268101 0.36492 0
0.312795 0.374395 0
0.352361 0.383139 0
0.390005 0.391196 0
0.424659 0.39791 0
0.458045 0.403952 0
0.490089 0.409277 0
0.52105 0.413489 0
0.551385 0.417746 0
0.57969 0.420905 0
0.607111 0.424262 0
0.631464 0.426657 0
0.655436 0.429114 0
0.678386 0.430533 0
0.701442 0.431998 0
0.723125 0.432731 0
0.744717 0.433478 0
0.764385 0.434256 0
0.782605 0.434714 0
0.79939 0.435645 0
0.805005 0.429404 0
0.819654 0.430014 0
0.833539 0.430533 0
0.847257 0.431403 0
0.0429694 0.301564 0.0108644
0.0426642 0.304906 0.00479133
0.0426795 0.310765 0
0.0425116 0.317479 0
0.0425422 0.32668 0
0.0500954 0.337682 0
0.0824903 0.350332 0
0.166857 0.364752 0
0.221103 0.376638 0
0.270527 0.387442 0
0.316793 0.397177 0
0.357504 0.406317 0
0.396445 0.415015 0
0.431815 0.422156 0
0.465766 0.42829 0
0.498436 0.434012 0
0.53019 0.438788 0
0.560998 0.443107 0
0.589563 0.446601 0
0.617548 0.450141 0
0.642069 0.452842 0
0.666423 0.455604 0
0.689799 0.457282 0
0.71284 0.458656 0
0.734524 0.459541 0
0.756634 0.460639 0
0.775906 0.461387 0
0.783841 0.454719 0
0.80061 0.455695 0
0.817044 0.456428 0
0.8318 0.457252 0
0.84622 0.457877 0
0.859892 0.458701 0
0.0426642 0.318578 0.000503548
0.0426032 0.322683 0
0.0424506 0.328923 0
0.0425574 0.336568 0
0.0428321 0.346426 0
0.0458839 0.358099 0
0.0726635 0.371298 0
0.161288 0.386465 0
0.219715 0.399176 0
0.272496 0.410239 0
0.320485 0.42063 0
0.362493 0.430182 0
0.402335 0.439033 0
0.438941 0.446845 0
0.473625 0.453285 0
0.506905 0.459052 0
0.539147 0.464225 0
0.570825 0.469093 0
0.599985 0.473075 0
0.628473 0.476768 0
0.653376 0.479683 0
0.678096 0.482536 0
0.701305 0.484276 0
0.724605 0.485985 0
0.746777 0.486946 0
0.756786 0.480156 0
0.77641 0.481025 0
0.796246 0.482048 0
0.812924 0.482948 0
0.829602 0.484016 0
0.844388 0.484672 0
0.858976 0.48574 0
0.873014 0.486671 0
0.0426947 0.335302 0
0.0426032 0.339696 0
0.042771 0.346624 0
0.0428168 0.354986 0
0.0429999 0.36556 0
0.0433051 0.377905 0
0.0661936 0.391684 0
0.154849 0.407233 0
0.218204 0.420584 0
0.274037 0.432395 0
0.324132 0.443214 0
0.367407 0.453162 0
0.408194 0.462486 0
0.445594 0.470283 0
0.481193 0.47747 0
0.515129 0.483543 0
0.548257 0.489052 0
0.580148 0.494041 0
0.609751 0.498146 0
0.638834 0.502342 0
0.664027 0.505455 0
0.688884 0.508583 0
0.712367 0.51043 0
0.724269 0.504433 0
0.746319 0.505837 0
0.7682 0.506874 0
0.788022 0.507591 0
0.807874 0.508721 0
0.824674 0.509743 0
0.841779 0.510948 0
0.856901 0.51194 0
0.871839 0.512947 0
0.886 0.514076 0
0.042649 0.351003 0
0.0428779 0.356252 0
0.0429084 0.363638 0
0.0429694 0.372335 0
0.0432288 0.383398 0
0.0434577 0.396429 0
0.0651713 0.410834 0
0.146624 0.426551 0
0.214893 0.440757 0
0.27538 0.453071 0
0.327153 0.464424 0
0.371908 0.474815 0
0.413703 0.484428 0
0.45182 0.492638 0
0.487968 0.499947 0
0.522881 0.506615 0
0.556435 0.512215 0
0.589227 0.517784 0
0.61941 0.522225 0
0.648722 0.526604 0
0.674266 0.529915 0
0.687968 0.524819 0
0.711894 0.527169 0
0.734997 0.528939 0
0.757076 0.530358 0
0.779309 0.531746 0
0.79942 0.532799 0
0.819196 0.533776 0
0.836484 0.534951 0
0.853391 0.53611 0
0.869108 0.537499 0
0.883848 0.538643 0
0.898543 0.540154 0
0.0429694 0.365942 0
0.0429694 0.371542 0
0.0431525 0.3794 0
0.0433661 0.3888 0
0.0436713 0.400381 0
0.0436866 0.413748 0
0.0633097 0.428717 0
0.137392 0.444785 0
0.211536 0.459586 0
0.276661 0.472602 0
0.329915 0.484367 0
0.375875 0.495201 0
0.418647 0.505043 0
0.457649 0.513802 0
0.494759 0.521416 0
0.530037 0.528344 0
0.564263 0.534447 0
0.597665 0.540154 0
0.628153 0.544839 0
0.646159 0.541405 0
0.67274 0.545174 0
0.697826 0.548653 0
0.721996 0.551156 0
0.745327 0.55314 0
0.767987 0.554879 0
0.790112 0.556161 0
0.810254 0.557305 0
0.830564 0.558618 0
0.847822 0.559899 0
0.865049 0.561196 0
0.880812 0.562554 0
0.895811 0.563836 0
0.911025 0.565423 0
0.0431983 0.379171 0
0.0433204 0.385428 0
0.0433814 0.393576 0
0.043473 0.403342 0
0.0437781 0.415396 0
0.0440528 0.429572 0
0.061387 0.444923 0
0.126329 0.461158 0
0.207431 0.476829 0
0.278141 0.490333 0
0.332341 0.502403 0
0.379385 0.513634 0
0.423163 0.524041 0
0.462821 0.533013 0
0.500404 0.541024 0
0.53666 0.548379 0
0.571191 0.554711 0
0.59353 0.5523 0
0.624537 0.557382 0
0.654276 0.562127 0
0.6813 0.566155 0
0.706798 0.569924 0
0.731121 0.572625 0
0.754818 0.57496 0
0.777569 0.576562 0
0.799924 0.578195 0
0.820096 0.579492 0
0.840406 0.580713 0
0.858091 0.582345 0
0.875227 0.583856 0
0.891325 0.58529 0
0.906569 0.586664 0
0.921935 0.588312 0
0.0433661 0.391836 0
0.043534 0.39884 0
0.0437324 0.407446 0
0.0438239 0.417639 0
0.0441444 0.430198 0
0.0442664 0.444663 0
0.0585794 0.460624 0
0.111925 0.477012 0
0.202213 0.493553 0
0.27924 0.50753 0
0.334997 0.52018 0
0.382635 0.531716 0
0.427207 0.542336 0
0.467613 0.551873 0
0.505913 0.56022 0
0.531945 0.559457 0
0.566674 0.566033 0
0.600671 0.572457 0
0.632151 0.577646 0
0.662409 0.582818 0
0.689723 0.587152 0
0.715709 0.591119 0
0.740169 0.59411 0
0.764126 0.596597 0
0.787015 0.598276 0
0.809583 0.600107 0
0.829969 0.601648 0
0.850355 0.603067 0
0.867964 0.604685 0
0.885634 0.606317 0
0.90161 0.607767 0
0.91725 0.609552 0
0.932525 0.611078 0
0.0435187 0.403983 0
0.0437324 0.41146 0
0.0438849 0.420783 0
0.0441749 0.431388 0
0.0442512 0.444251 0
0.0444648 0.459449 0
0.0547799 0.475547 0
0.092607 0.492195 0
0.194858 0.509483 0
0.280568 0.524437 0
0.336904 0.537209 0
0.385672 0.54934 0
0.430869 0.560372 0
0.461753 0.561532 0
0.500267 0.570275 0
0.537209 0.578119 0
0.572351 0.585122 0
0.607126 0.591852 0
0.63917 0.597528 0
0.669673 0.602945 0
0.697505 0.607492 0
0.723827 0.611704 0
0.748501 0.614969 0
0.772625 0.617792 0
0.79585 0.619669 0
0.818601 0.62153 0
0.839277 0.623346 0
0.859907 0.625071 0
0.877546 0.62678 0
0.895598 0.628748 0
0.91165 0.630137 0
0.927138 0.631754 0
0.942565 0.633661 0
0.0438239 0.415702 0
0.0438849 0.423667 0
0.0441444 0.433478 0
0.0442664 0.444465 0
0.044419 0.458122 0
0.0448157 0.473838 0
0.0519265 0.49044 0
0.0783246 0.507012 0
0.189471 0.525124 0
0.281224 0.54052 0
0.338674 0.553887 0
0.378576 0.557946 0
0.424887 0.569574 0
0.466026 0.579736 0
0.505135 0.588785 0
0.542473 0.596857 0
0.578378 0.604181 0
0.613474 0.611353 0
0.645975 0.617411 0
0.677134 0.623102 0
0.705287 0.627939 0
0.731807 0.632456 0
0.756924 0.63592 0
0.781323 0.639017 0
0.804623 0.641215 0
0.827832 0.643244 0
0.848554 0.645106 0
0.869368 0.647242 0
0.887266 0.649073 0
0.905318 0.650752 0
0.921736 0.652659 0
0.937331 0.654353 0
0.952834 0.656306 0
0.043946 0.426993 0
0.044007 0.435554 0
0.0442817 0.445747 0
0.0444038 0.457389 0
0.0447547 0.471427 0
0.0449226 0.487465 0
0.0505074 0.504738 0
0.0699016 0.521782 0
0.186221 0.540413 0
0.272877 0.548012 0
0.330343 0.561563 0
0.380652 0.574014 0
0.42768 0.586191 0
0.469612 0.596643 0
0.509392 0.606241 0
0.547173 0.614664 0
0.583688 0.622415 0
0.619242 0.629664 0
0.652171 0.636103 0
0.683772 0.642237 0
0.7122 0.647471 0
0.739239 0.652018 0
0.764675 0.655833 0
0.789502 0.659098 0
0.813031 0.661738 0
0.836271 0.664073 0
0.857328 0.665934 0
0.878355 0.668132 0
0.896437 0.670253 0
0.914534 0.672312 0
0.931014 0.674083 0
0.946777 0.675837 0
0.962127 0.677623 0
0.0442359 0.437339 0
0.0443122 0.446571 0
0.044419 0.457374 0
0.0447089 0.469368 0
0.0450752 0.483909 0
0.0452277 0.500435 0
0.0499123 0.518044 0
0.0644236 0.528008 0
0.167178 0.546654 0
0.272786 0.563088 0
0.331594 0.577127 0
0.383124 0.590372 0
0.43061 0.602716 0
0.47332 0.61355 0
0.513649 0.623438 0
0.551904 0.632288 0
0.588861 0.64062 0
0.624903 0.648127 0
0.658564 0.655024 0
0.690379 0.661173 0
0.719402 0.666743 0
0.746502 0.671778 0
0.772457 0.675807 0
0.797436 0.679332 0
0.821454 0.682094 0
0.844831 0.684672 0
0.866194 0.687037 0
0.887282 0.689265 0
0.905669 0.69163 0
0.923873 0.693675 0
0.940169 0.695552 0
0.95642 0.697536 0
0.971786 0.699443 0
0.0443427 0.447135 0
0.0444343 0.457023 0
0.0447089 0.468193 0
0.0448463 0.480674 0
0.0452125 0.495735 0
0.0454414 0.505806 0
0.048249 0.523186 0
0.0645304 0.540581 0
0.166506 0.559258 0
