public/filters/god.cube
TITLE "Generated by Resolve"
LUT_3D_SIZE 9
0.0684367 0.0889601 0.0218967
0.0951858 0.0935073 0.0225681
0.157183 0.101808 0.0211185
0.243259 0.0941787 0
0.335332 0.064271 0
0.422004 0.0570077 0
0.498436 0.0546731 0
0.564858 0.0525978 0
0.620462 0.0507668 0
0.0487221 0.131167 0.0310369
0.104433 0.138552 0.032105
0.186786 0.152239 0.0234836
0.294179 0.160311 0
0.399649 0.164065 0
0.493721 0.161929 0
0.572198 0.15201 0
0.638437 0.136095 0
0.691295 0.109972 0
0.045716 0.180804 0.0373999
0.0907454 0.193408 0.0329442
0.207431 0.213504 0.00563058
0.336324 0.233494 0
0.453483 0.24715 0
0.555306 0.25359 0
0.640635 0.253773 0
0.711818 0.250965 0
0.766934 0.249271 0
0.0449378 0.238941 0.0321508
0.0471962 0.25536 0.0115816
0.218082 0.291173 0
0.369604 0.322225 0
0.494087 0.341115 0
0.60061 0.351293 0
0.689616 0.355123 0
0.763806 0.356207 0
0.819638 0.357168 0
0.0429694 0.301564 0.0108644
0.0425422 0.32668 0
0.221103 0.376638 0
0.396445 0.415015 0
0.53019 0.438788 0
0.642069 0.452842 0
0.734524 0.459541 0
0.80061 0.455695 0
0.859892 0.458701 0
0.0429694 0.365942 0
0.0436713 0.400381 0
0.211536 0.459586 0
0.418647 0.505043 0
0.564263 0.534447 0
0.67274 0.545174 0
0.767987 0.554879 0
0.847822 0.559899 0
0.911025 0.565423 0
0.0438239 0.415702 0
0.044419 0.458122 0
0.189471 0.525124 0
0.424887 0.569574 0
0.578378 0.604181 0
0.705287 0.627939 0
0.804623 0.641215 0
0.887266 0.649073 0
0.952834 0.656306 0
0.0444038 0.455406 0
0.0452277 0.500374 0
0.166262 0.57171 0
0.436469 0.631205 0
0.598199 0.671626 0
0.731136 0.699718 0
0.835279 0.71722 0
0.921569 0.728405 0
0.98822 0.737011 0
0.0453346 0.480308 0.00944533
0.0458076 0.534829 0
0.166171 0.608988 0
0.446967 0.672984 0
0.612146 0.716686 0
0.746944 0.748089 0
0.854795 0.769787 0
0.944686 0.785382 0
1 0.794812 0
0.066453 0.0867323 0.0678416
0.097261 0.0920119 0.0715038
0.16405 0.0987106 0.0744945
0.256443 0.0847791 0.06981
0.353582 0.059144 0.0662852
0.442756 0.0563363 0.0629892
0.519875 0.0539864 0.0582895
0.586252 0.0519417 0.0545815
0.641443 0.0504463 0.0586709
0.045243 0.139147 0.087129
0.0973678 0.146212 0.0883955
0.193988 0.160678 0.0898604
0.308766 0.164981 0.0822003
0.4121 0.157656 0.070573
0.501503 0.137957 0.0521096
0.576547 0.0923018 0.0330816
0.643824 0.0609598 0.0191043
0.698436 0.0525673 0.011902
0.0458381 0.196201 0.103868
0.0647898 0.209873 0.105852
0.211048 0.23064 0.102968
0.347387 0.244053 0.0920882
0.462989 0.247486 0.0762493
0.562646 0.243992 0.0523079
0.645441 0.234913 0.0290837
0.714443 0.224765 0.00421149
0.766278 0.217945 0.00154116
0.0444038 0.265431 0.116457
0.0439765 0.28275 0.114733
0.212024 0.314153 0.106981
0.373907 0.335332 0.0925612
0.498817 0.344656 0.0665293
0.604013 0.34725 0.0364691
0.692348 0.346075 0.00750744
0.765774 0.344076 0.00154116
0.818738 0.342824 0
0.0443275 0.337987 0.127749
0.0447242 0.361196 0.12253
0.183749 0.40058 0.107576
0.391959 0.42945 0.0816205
0.529503 0.445686 0.0480049
0.64358 0.45539 0.00994888
0.736767 0.459632 0.000518807
0.80235 0.453056 0
0.859251 0.454551 0
0.0458228 0.40856 0.140383
0.0462196 0.437797 0.131151
0.151995 0.484779 0.107378
0.405554 0.522179 0.069276
0.559319 0.545541 0.0195468
0.673686 0.55494 0.0016022
0.76997 0.562646 0
0.849546 0.565728 0
0.910567 0.569772 0
0.0468452 0.459342 0.153353
0.0475166 0.496513 0.142794
0.115862 0.549035 0.111604
0.403586 0.585595 0.0649271
0.5673 0.615061 0.0090486
0.700328 0.637736 0
0.802106 0.650156 0
0.885451 0.657191 0
0.948867 0.663035 0
0.0477607 0.499962 0.171008
0.0485237 0.538888 0.155795
0.0878767 0.594873 0.122835
0.4065 0.645426 0.074464
0.578286 0.679271 0.012604
0.716701 0.705684 0
0.824521 0.723217 0
0.912795 0.735058 0
0.977386 0.742931 0
0.0487068 0.525628 0.194125
0.0494087 0.575082 0.186374
0.084123 0.632563 0.153658
0.408637 0.68632 0.110536
0.58378 0.72137 0.0612955
0.721584 0.74725 0.0123445
0.832563 0.76791 0.00077821
0.923598 0.783139 0
0.990616 0.793408 0
0.0592966 0.0647593 0.127504
0.0990921 0.0675975 0.134295
0.168734 0.072755 0.141253
0.26659 0.0623178 0.141543
0.366155 0.0588235 0.141924
0.455772 0.0560464 0.141634
0.533394 0.0537118 0.142061
0.59997 0.0517128 0.143404
0.654276 0.0501106 0.150851
0.0453193 0.139773 0.158938
0.0825513 0.151095 0.162432
0.194629 0.165545 0.16875
0.316426 0.169238 0.166583
0.421958 0.161318 0.160464
0.512428 0.13933 0.151965
0.588769 0.094667 0.14493
0.656046 0.0612802 0.142412
0.70811 0.0518044 0.144747
0.0460822 0.210437 0.188769
0.0458228 0.224094 0.192172
0.20351 0.245029 0.193164
0.352926 0.259495 0.189227
0.472709 0.262577 0.182574
0.573312 0.257603 0.174975
0.65684 0.24741 0.167636
0.724514 0.23537 0.16199
0.772534 0.225391 0.160739
0.0447395 0.289174 0.211978
0.0446937 0.306462 0.214725
0.179614 0.337713 0.211063
0.373526 0.358511 0.207736
0.505409 0.367681 0.199588
0.613947 0.36965 0.189364
0.700465 0.365087 0.180941
0.770703 0.358724 0.174945
0.813947 0.35024 0.16788
0.0457771 0.368643 0.234943
0.0462806 0.392752 0.236774
0.138033 0.43035 0.227466
0.384451 0.459632 0.222461
0.531487 0.474678 0.21239
0.648508 0.481468 0.200534
0.728374 0.472786 0.18584
0.802106 0.469215 0.178759
0.857511 0.468742 0.17615
0.0473945 0.444022 0.259434
0.0479133 0.474235 0.25687
0.0847486 0.51899 0.244526
0.389944 0.557412 0.235035
0.54461 0.570001 0.217716
0.671321 0.581033 0.205356
0.766629 0.583749 0.193408
0.843275 0.58262 0.183642
0.902129 0.583749 0.180697
0.0485237 0.496269 0.280171
0.0491493 0.534691 0.278202
0.0739147 0.577691 0.257832
0.379919 0.622141 0.245274
0.557794 0.648325 0.23064
0.692668 0.66389 0.216846
0.793606 0.670604 0.20267
0.874342 0.673304 0.190753
0.935088 0.676066 0.187396
0.0489967 0.53135 0.295171
0.0499428 0.576242 0.295216
0.0585489 0.631266 0.279927
0.375158 0.6813 0.265934
0.564157 0.712642 0.249851
0.705577 0.732601 0.234058
0.812146 0.743877 0.217929
0.897917 0.750149 0.20444
0.959991 0.755322 0.200366
0.0496834 0.558923 0.325353
0.0509651 0.610086 0.329122
0.0519875 0.6663 0.309712
0.370092 0.719097 0.297017
0.565148 0.753475 0.283314
0.709056 0.776226 0.268696
0.819806 0.791302 0.253635
0.9093 0.80145 0.240177
0.973587 0.808743 0.2336
0.0433051 0.0627756 0.193057
0.0935683 0.0627756 0.201801
0.175174 0.0626078 0.21355
0.276844 0.0609293 0.2168
0.375723 0.0579995 0.218906
0.465263 0.055436 0.22118
0.542779 0.0531472 0.22385
0.608454 0.0512093 0.226825
0.660838 0.0496529 0.233448
0.0446174 0.127504 0.233066
0.0672313 0.147845 0.242817
0.193378 0.162783 0.253788
0.318776 0.166339 0.255146
0.425147 0.157259 0.250553
0.515145 0.124804 0.242832
0.593133 0.0873274 0.239277
0.660853 0.0606241 0.240513
0.712154 0.0510109 0.245914
0.0454108 0.214679 0.278202
0.0452888 0.229801 0.282734
0.188128 0.252567 0.286442
0.350729 0.267552 0.287709
0.473915 0.27068 0.284581
0.576852 0.265904 0.280171
0.660258 0.255146 0.275334
0.727825 0.242588 0.271946
0.775814 0.234455 0.273838
0.0447242 0.303166 0.309178
0.0449683 0.322515 0.316472
0.147204 0.353735 0.315175
0.366491 0.374426 0.316136
0.503471 0.382849 0.312047
0.614374 0.384619 0.307118
0.70219 0.380056 0.301915
0.772824 0.374044 0.298222
0.815946 0.365164 0.292103
0.046479 0.389822 0.3402
0.047013 0.413947 0.345739
0.0833143 0.451362 0.340673
0.370809 0.480583 0.339864
0.525399 0.494499 0.334966
0.645472 0.500908 0.32932
0.727703 0.49189 0.317052
0.802609 0.48893 0.312718
0.857511 0.488457 0.312566
0.0479438 0.468559 0.367361
0.0485542 0.499504 0.371664
0.0579385 0.544625 0.365667
0.366155 0.581628 0.360113
0.533425 0.592981 0.347463
0.664485 0.603296 0.341436
0.762112 0.606073 0.334401
0.840772 0.605295 0.328695
0.899977 0.607187 0.329824
0.0491493 0.522759 0.391302
0.049836 0.561166 0.395529
0.0509651 0.604227 0.381674
0.348394 0.647395 0.37409
0.542535 0.67303 0.366964
0.682689 0.687922 0.359625
0.786831 0.695064 0.352148
0.869505 0.698116 0.346563
0.930877 0.701625 0.347372
0.0500649 0.557641 0.40647
0.0508278 0.602502 0.412589
0.0519265 0.65713 0.404395
0.334066 0.706203 0.396368
0.545846 0.737713 0.389487
0.693095 0.757153 0.380743
0.803372 0.769284 0.373281
0.891127 0.776837 0.367941
0.953201 0.781842 0.367666
0.0505074 0.583215 0.435508
0.0515908 0.633982 0.442847
0.0527962 0.691554 0.433066
0.324788 0.742489 0.424781
0.545541 0.777111 0.420066
0.695583 0.800183 0.414313
0.809628 0.815869 0.406271
0.900893 0.826535 0.398856
0.966094 0.834531 0.398871
0.0428779 0.0622873 0.253605
0.0835431 0.0623941 0.264439
0.177417 0.0621347 0.278981
0.284672 0.060029 0.286
0.384146 0.0572366 0.28986
0.472847 0.054551 0.292256
0.549813 0.0523537 0.295445
0.615717 0.0504463 0.300389
0.668254 0.0489815 0.308598
0.043473 0.096849 0.297368
0.0559091 0.137743 0.311284
0.191669 0.155718 0.32694
0.319875 0.158679 0.331579
0.426139 0.143496 0.329244
0.517143 0.108553 0.323796
0.596353 0.0744182 0.322316
0.665797 0.0582132 0.325795
0.716854 0.0480507 0.331884
0.0451057 0.211505 0.350515
0.0449531 0.230015 0.360113
0.171466 0.257435 0.367193
0.34786 0.271794 0.372961
0.473457 0.2748 0.372595
0.577234 0.269642 0.369635
0.661662 0.259068 0.366674
0.729885 0.246189 0.36495
0.778531 0.23859 0.36846
0.0448005 0.309071 0.389288
0.0453193 0.330495 0.399405
0.110002 0.362997 0.399405
0.35845 0.384771 0.405341
0.50045 0.393408 0.405127
0.613123 0.394858 0.402335
0.701976 0.390082 0.398947
0.764752 0.378195 0.389425
0.817395 0.375494 0.391272
0.0467536 0.401694 0.422904
0.047303 0.427588 0.433341
0.0710765 0.465537 0.431022
0.356222 0.495277 0.432944
0.518746 0.509178 0.432212
0.641611 0.514931 0.429709
0.725628 0.506188 0.418723
0.801633 0.503212 0.416083
0.85771 0.503029 0.417792
0.0485389 0.485191 0.453223
0.0493782 0.517723 0.463935
0.0502327 0.562997 0.461295
0.342061 0.599588 0.457374
0.521904 0.610834 0.448676
0.656779 0.620111 0.446021
0.758022 0.623728 0.442603
0.839185 0.624369 0.440314
0.898695 0.625788 0.442344
0.0496681 0.539986 0.477684
0.0506905 0.57969 0.48809
0.0514229 0.623392 0.477592
0.31284 0.665812 0.471672
0.527413 0.691783 0.470176
0.672801 0.706355 0.467369
0.780743 0.714733 0.464134
0.866697 0.719432 0.462058
0.928237 0.722332 0.463676
0.0504311 0.57525 0.492882
0.0514992 0.620401 0.502739
0.0526894 0.676326 0.499489
0.282429 0.723827 0.49337
0.528008 0.75613 0.492546
0.681941 0.776318 0.48896
0.796307 0.789883 0.486275
0.886534 0.798657 0.484657
0.949538 0.803342 0.484855
0.0511025 0.599939 0.518242
0.0522164 0.650202 0.528725
0.0532998 0.708919 0.524483
0.270756 0.758846 0.518364
0.52697 0.794339 0.519219
0.684001 0.818402 0.518074
0.801343 0.834852 0.514763
0.894881 0.846891 0.511681
0.961334 0.855085 0.512886
0.0424201 0.0617685 0.304952
0.0646982 0.0619516 0.317082
0.176043 0.0615244 0.33373
0.289586 0.0594644 0.343908
0.390158 0.0564889 0.349111
0.479561 0.0537423 0.352483
0.556023 0.0516213 0.356649
0.622187 0.0497444 0.362799
0.6757 0.0485847 0.371221
0.0424201 0.0708171 0.353506
0.0510109 0.118532 0.367773
0.190188 0.142473 0.387411
0.319738 0.143145 0.394812
0.426368 0.117433 0.39501
0.519112 0.0951247 0.392554
0.600549 0.0637369 0.393378
0.670787 0.0514229 0.397269
0.722438 0.0472572 0.404242
0.0445869 0.200488 0.408927
0.0447089 0.225788 0.422721
0.159197 0.260182 0.433341
0.34519 0.274174 0.443275
0.472145 0.276524 0.445304
0.576852 0.271031 0.444144
0.662425 0.260304 0.442466
0.731579 0.247562 0.442176
0.780743 0.239933 0.446494
0.0448157 0.310521 0.453681
0.0455482 0.334173 0.466957
0.0853742 0.368673 0.469261
0.350118 0.391882 0.478416
0.496239 0.400183 0.480735
0.610956 0.40174 0.479942
0.701274 0.396918 0.478508
0.765209 0.38497 0.470527
0.818982 0.382925 0.473259
0.0470741 0.408789 0.489754
0.0476387 0.435981 0.503243
0.0550546 0.474907 0.50396
0.341009 0.50576 0.50811
0.511528 0.520012 0.510964
0.627909 0.516564 0.503044
0.723644 0.516854 0.5019
0.801343 0.515007 0.50135
0.8589 0.5149 0.504219
0.0488746 0.496056 0.521202
0.0496071 0.529717 0.537072
0.0506294 0.575341 0.537255
0.308598 0.60415 0.527657
0.511284 0.624216 0.530343
0.650095 0.633249 0.530999
0.754788 0.638773 0.530938
0.838834 0.64123 0.531319
0.899138 0.640986 0.533806
0.0501564 0.552331 0.546715
0.050782 0.58616 0.553948
0.0519875 0.637507 0.554894
0.270695 0.679225 0.549783
0.513344 0.70576 0.552789
0.664088 0.721004 0.553857
0.776089 0.731258 0.554223
0.865019 0.737621 0.555108
0.927535 0.739422 0.556863
0.0508431 0.587549 0.560433
0.0519112 0.632959 0.574609
0.0532235 0.690242 0.574868
0.240604 0.736263 0.569421
0.510842 0.769451 0.573541
0.671656 0.791135 0.574487
0.78996 0.806363 0.575418
0.883085 0.816602 0.576501
0.948104 0.821469 0.577325
0.0514534 0.610391 0.580941
0.0524453 0.661463 0.59585
0.0539712 0.721248 0.595636
0.227405 0.769955 0.590799
0.509316 0.806912 0.596429
0.67335 0.832334 0.598627
0.794186 0.850172 0.59942
0.890135 0.862974 0.599634
0.958968 0.871885 0.601709
0.0421607 0.0614633 0.346807
0.0451972 0.0614023 0.35996
0.1729 0.0611887 0.378363
0.291112 0.0588083 0.390982
0.393515 0.0558175 0.397848
0.485191 0.0531777 0.403967
0.562585 0.0509346 0.409216
0.629358 0.049134 0.415839
0.683421 0.0479896 0.425025
0.0417945 0.0617533 0.401022
0.0487221 0.0955215 0.414664
0.188617 0.117571 0.437003
0.31783 0.116564 0.446662
0.427039 0.104707 0.450111
0.521645 0.0737621 0.451164
0.606058 0.0603342 0.454337
0.676829 0.0482338 0.458671
0.729671 0.0467079 0.466346
0.0442817 0.192874 0.454551
0.0444038 0.219089 0.471962
0.144305 0.26009 0.485496
0.342779 0.274159 0.497719
0.471229 0.276081 0.502632
0.577173 0.270726 0.505028
0.663386 0.259342 0.505272
0.73315 0.246067 0.505898
0.783551 0.238987 0.509804
0.0449531 0.314992 0.50457
0.0455177 0.336553 0.520668
0.0786145 0.3738 0.525811
0.342657 0.397452 0.535775
0.492287 0.405097 0.540475
0.608408 0.405524 0.541848
0.701106 0.40206 0.54345
0.766506 0.391333 0.537224
0.821591 0.389899 0.540429
0.047303 0.414557 0.543313
0.0478828 0.441779 0.558556
0.048661 0.481651 0.562325
0.326329 0.51313 0.567605
0.504082 0.527184 0.57261
0.623178 0.523888 0.566445
0.722118 0.525582 0.568627
0.802426 0.525292 0.571389
0.861021 0.525048 0.574304
0.0491951 0.50428 0.574884
0.0499123 0.537865 0.592416
0.050721 0.583337 0.595666
0.277302 0.611887 0.587594
0.500313 0.633066 0.593912
0.644205 0.643748 0.597131
0.752102 0.650095 0.599893
0.83827 0.653574 0.603159
0.900023 0.653468 0.606012
0.0502174 0.560693 0.598398
0.0511177 0.594537 0.608499
0.052079 0.646113 0.61236
0.237446 0.68719 0.608759
0.49987 0.71516 0.615763
0.656352 0.732052 0.619883
0.772015 0.743313 0.623774
0.863401 0.7505 0.626947
0.927672 0.752865 0.629938
0.051133 0.594827 0.608942
0.0522316 0.640589 0.626261
0.0533303 0.698695 0.630533
0.19968 0.743618 0.625299
0.495659 0.778881 0.633829
0.662501 0.802365 0.639002
0.784207 0.818296 0.643061
0.879789 0.828992 0.646357
0.946975 0.835187 0.649546
0.051545 0.617304 0.626398
0.0527352 0.667918 0.643
0.0540627 0.72874 0.647059
0.179065 0.775555 0.642008
0.493355 0.814817 0.652369
0.664134 0.842283 0.6589
0.788373 0.86154 0.663035
0.886839 0.87538 0.666224
0.957549 0.885008 0.670192
0.0419776 0.0612192 0.380484
0.0417792 0.0610208 0.395422
0.169375 0.0606699 0.414282
0.291539 0.0584573 0.429374
0.396155 0.0554055 0.438331
0.488533 0.0526589 0.445777
0.568093 0.0504921 0.452613
0.635538 0.0488289 0.459495
0.690608 0.0474708 0.469062
0.0413977 0.0605631 0.439139
0.041825 0.0813611 0.452674
0.186435 0.109392 0.476799
0.31664 0.107164 0.488457
0.427115 0.0879225 0.494301
0.524758 0.066453 0.49865
0.609888 0.0554055 0.503227
0.68217 0.0474403 0.508797
0.736309 0.0463569 0.516945
0.0437171 0.178149 0.487739
0.0440375 0.211994 0.509743
0.135042 0.2589 0.525841
0.338704 0.272923 0.540261
0.46981 0.274922 0.548074
0.577173 0.270054 0.553262
0.664195 0.25861 0.555657
0.734493 0.244816 0.557122
0.778363 0.232136 0.553246
0.0451209 0.318013 0.545312
0.045655 0.337148 0.561471
0.0721447 0.376242 0.568978
0.335531 0.40119 0.580118
0.488792 0.409003 0.587457
0.606271 0.409064 0.591485
0.69102 0.400427 0.588205
0.767788 0.396765 0.591821
0.824109 0.395407 0.595178
0.0474708 0.419043 0.581582
0.0478828 0.446387 0.600702
0.0488289 0.48632 0.607416
0.311727 0.518227 0.612863
0.488182 0.523827 0.613519
0.61883 0.529656 0.617243
0.72079 0.53254 0.62237
0.803342 0.533654 0.627482
0.86334 0.533867 0.631266
0.0491646 0.508278 0.614145
0.0501106 0.542428 0.632929
0.0508125 0.580621 0.633494
0.249714 0.617105 0.633661
0.490593 0.639384 0.643305
0.639231 0.651957 0.64921
0.749798 0.65951 0.654826
0.837934 0.663127 0.660166
0.901228 0.663447 0.663828
0.0503395 0.56025 0.629511
0.051133 0.598978 0.648661
0.0523079 0.651576 0.655879
0.205753 0.691905 0.653071
0.487709 0.721721 0.664195
0.650126 0.740871 0.671855
0.768154 0.753048 0.677974
0.861509 0.760327 0.683268
0.927733 0.763485 0.687587
0.0511177 0.598764 0.644495
0.0523079 0.645914 0.66424
0.0536202 0.704234 0.672023
0.14374 0.747066 0.666239
0.482048 0.785199 0.679789
0.654627 0.810636 0.688594
0.779004 0.827405 0.695384
0.876692 0.838575 0.70074
0.946105 0.845747 0.70573
0.0516976 0.620996 0.657816
0.0528725 0.671611 0.677317
0.0544137 0.733455 0.684916
0.0903792 0.77702 0.67805
0.479118 0.819913 0.693935
0.655528 0.849363 0.703975
0.782864 0.869764 0.71107
0.883726 0.884428 0.716533
0.956466 0.895033 0.72256
0.0415961 0.0608225 0.405417
0.0414893 0.0606851 0.422217
0.166369 0.0604105 0.441428
0.290486 0.0580301 0.457847
0.397101 0.0549172 0.469123
0.490227 0.052369 0.477821
0.571252 0.0500343 0.485939
0.640406 0.0483406 0.494087
0.695949 0.0472267 0.502907
0.0412146 0.0603342 0.466529
0.0412451 0.0734569 0.480751
0.183139 0.10399 0.504707
0.314168 0.099855 0.518364
0.425803 0.0762646 0.525872
0.526238 0.0650034 0.532937
0.612711 0.0522316 0.53994
0.685832 0.0469825 0.546914
0.740642 0.0461433 0.553979
0.0435187 0.175875 0.513207
0.0439002 0.206012 0.535164
0.127749 0.25803 0.553704
0.332998 0.271946 0.570321
0.466468 0.274708 0.580697
0.576257 0.271519 0.588678
0.664607 0.260456 0.592996
0.736034 0.246189 0.59617
0.779843 0.230915 0.592767
0.0447852 0.307179 0.565103
0.0455787 0.335515 0.587518
0.0640726 0.375753 0.596841
0.327535 0.403021 0.609873
0.484611 0.412406 0.620844
0.604593 0.414267 0.628519
0.690135 0.404868 0.627085
0.767636 0.40029 0.631067
0.825284 0.398962 0.635981
0.0473182 0.420279 0.607858
0.0480964 0.4477 0.627207
0.0489509 0.487495 0.635569
0.299046 0.522087 0.642344
0.482856 0.528588 0.647547
0.616175 0.535729 0.65539
0.718975 0.538369 0.661509
0.802411 0.538918 0.667048
0.864057 0.539483 0.672572
0.049485 0.51014 0.637919
0.0500496 0.545892 0.6589
0.0510872 0.584649 0.663081
0.232212 0.621408 0.663661
0.482841 0.645274 0.676646
0.634607 0.658274 0.685878
0.747005 0.665934 0.69337
0.836683 0.669856 0.699626
0.901381 0.670695 0.704982
0.0504921 0.563027 0.654948
0.0514992 0.602548 0.673503
0.052491 0.654322 0.683177
0.175158 0.694865 0.681086
0.478279 0.726848 0.696315
0.644266 0.746929 0.706661
0.765026 0.759731 0.715236
0.859953 0.767712 0.722255
0.927047 0.770916 0.727275
0.0514534 0.602243 0.666743
0.0522011 0.64802 0.687434
0.053727 0.706279 0.69691
0.0774701 0.747494 0.691188
0.470848 0.788647 0.709209
0.64802 0.816022 0.721157
0.77525 0.833875 0.730282
0.874907 0.845533 0.737408
0.944976 0.852628 0.743038
0.0518196 0.623377 0.676173
0.0530251 0.673579 0.696391
0.0544137 0.73489 0.706279
0.0776074 0.77911 0.701503
0.469276 0.823331 0.719417
0.649271 0.853635 0.732158
0.778668 0.874968 0.741573
0.880751 0.890318 0.748837
0.95465 0.90071 0.754879
