public/filters/god.cube
TITLE "Generated by Resolve"
LUT_3D_SIZE 5
0.0684367 0.0889601 0.0218967
0.157183 0.101808 0.0211185
0.335332 0.064271 0
0.498436 0.0546731 0
0.620462 0.0507668 0
0.045716 0.180804 0.0373999
0.207431 0.213504 0.00563058
0.453483 0.24715 0
0.640635 0.253773 0
0.766934 0.249271 0
0.0429694 0.301564 0.0108644
0.221103 0.376638 0
0.53019 0.438788 0
0.734524 0.459541 0
0.859892 0.458701 0
0.0438239 0.415702 0
0.189471 0.525124 0
0.578378 0.604181 0
0.804623 0.641215 0
0.952834 0.656306 0
0.0453346 0.480308 0.00944533
0.166171 0.608988 0
0.612146 0.716686 0
0.854795 0.769787 0
1 0.794812 0
0.0592966 0.0647593 0.127504
0.168734 0.072755 0.141253
0.366155 0.0588235 0.141924
0.533394 0.0537118 0.142061
0.654276 0.0501106 0.150851
0.0460822 0.210437 0.188769
0.20351 0.245029 0.193164
0.472709 0.262577 0.182574
0.65684 0.24741 0.167636
0.772534 0.225391 0.160739
0.0457771 0.368643 0.234943
0.138033 0.43035 0.227466
0.531487 0.474678 0.21239
0.728374 0.472786 0.18584
0.857511 0.468742 0.17615
0.0485237 0.496269 0.280171
0.0739147 0.577691 0.257832
0.557794 0.648325 0.23064
0.793606 0.670604 0.20267
0.935088 0.676066 0.187396
0.0496834 0.558923 0.325353
0.0519875 0.6663 0.309712
0.565148 0.753475 0.283314
0.819806 0.791302 0.253635
0.973587 0.808743 0.2336
0.0428779 0.0622873 0.253605
0.177417 0.0621347 0.278981
0.384146 0.0572366 0.28986
0.549813 0.0523537 0.295445
0.668254 0.0489815 0.308598
0.0451057 0.211505 0.350515
0.171466 0.257435 0.367193
0.473457 0.2748 0.372595
0.661662 0.259068 0.366674
0.778531 0.23859 0.36846
0.0467536 0.401694 0.422904
0.0710765 0.465537 0.431022
0.518746 0.509178 0.432212
0.725628 0.506188 0.418723
0.85771 0.503029 0.417792
0.0496681 0.539986 0.477684
0.0514229 0.623392 0.477592
0.527413 0.691783 0.470176
0.780743 0.714733 0.464134
0.928237 0.722332 0.463676
0.0511025 0.599939 0.518242
0.0532998 0.708919 0.524483
0.52697 0.794339 0.519219
0.801343 0.834852 0.514763
0.961334 0.855085 0.512886
0.0421607 0.0614633 0.346807
0.1729 0.0611887 0.378363
0.393515 0.0558175 0.397848
0.562585 0.0509346 0.409216
0.683421 0.0479896 0.425025
0.0442817 0.192874 0.454551
0.144305 0.26009 0.485496
0.471229 0.276081 0.502632
0.663386 0.259342 0.505272
0.783551 0.238987 0.509804
0.047303 0.414557 0.543313
0.048661 0.481651 0.562325
0.504082 0.527184 0.57261
0.722118 0.525582 0.568627
0.861021 0.525048 0.574304
0.0502174 0.560693 0.598398
0.052079 0.646113 0.61236
0.49987 0.71516 0.615763
0.772015 0.743313 0.623774
0.927672 0.752865 0.629938
0.051545 0.617304 0.626398
0.0540627 0.72874 0.647059
0.493355 0.814817 0.652369
0.788373 0.86154 0.663035
0.957549 0.885008 0.670192
0.0415961 0.0608225 0.405417
0.166369 0.0604105 0.441428
0.397101 0.0549172 0.469123
0.571252 0.0500343 0.485939
0.695949 0.0472267 0.502907
0.0435187 0.175875 0.513207
0.127749 0.25803 0.553704
0.466468 0.274708 0.580697
0.664607 0.260456 0.592996
0.779843 0.230915 0.592767
0.0473182 0.420279 0.607858
0.0489509 0.487495 0.635569
0.482856 0.528588 0.647547
0.718975 0.538369 0.661509
0.864057 0.539483 0.672572
0.0504921 0.563027 0.654948
0.052491 0.654322 0.683177
0.478279 0.726848 0.696315
0.765026 0.759731 0.715236
0.927047 0.770916 0.727275
0.0518196 0.623377 0.676173
0.0544137 0.73489 0.706279
0.469276 0.823331 0.719417
0.778668 0.874968 0.741573
0.95465 0.90071 0.754879
