public/filters/npc.cube
TITLE "npc"
LUT_3D_SIZE 5
DOMAIN_MIN 0.0 0.0 0.0
DOMAIN_MAX 1.0 1.0 1.0
0.086275 0.086275 0.086275
0.178431 0.178431 0.178431
0.325490 0.325490 0.325490
0.445098 0.445098 0.445098
0.592157 0.592157 0.592157
0.295098 0.295098 0.295098
0.327451 0.327451 0.327451
0.391176 0.391176 0.391176
0.481618 0.481618 0.481618
0.608824 0.608824 0.608824
0.496078 0.496078 0.496078
0.509804 0.509804 0.509804
0.545098 0.545098 0.545098
0.595098 0.595098 0.595098
0.688235 0.688235 0.688235
0.671569 0.671569 0.671569
0.678431 0.678431 0.678431
0.700980 0.700980 0.700980
0.738235 0.738235 0.738235
0.803922 0.803922 0.803922
0.894118 0.894118 0.894118
0.898039 0.898039 0.898039
0.907843 0.907843 0.907843
0.926471 0.926471 0.926471
0.964706 0.964706 0.964706
0.127451 0.127451 0.127451
0.197059 0.197059 0.197059
0.337255 0.337255 0.337255
0.449020 0.449020 0.449020
0.588235 0.588235 0.588235
0.302941 0.302941 0.302941
0.329167 0.329167 0.329167
0.395956 0.395956 0.395956
0.484743 0.484743 0.484743
0.608578 0.608578 0.608578
0.500000 0.500000 0.500000
0.511765 0.511765 0.511765
0.543382 0.543382 0.543382
0.595098 0.595098 0.595098
0.690196 0.690196 0.690196
0.675490 0.675490 0.675490
0.683088 0.683088 0.683088
0.702941 0.702941 0.702941
0.738235 0.738235 0.738235
0.807843 0.807843 0.807843
0.898039 0.898039 0.898039
0.901961 0.901961 0.901961
0.909804 0.909804 0.909804
0.929412 0.929412 0.929412
0.964706 0.964706 0.964706
0.219608 0.219608 0.219608
0.259314 0.259314 0.259314
0.348039 0.348039 0.348039
0.460784 0.460784 0.460784
0.596078 0.596078 0.596078
0.323039 0.323039 0.323039
0.344730 0.344730 0.344730
0.403922 0.403922 0.403922
0.496324 0.496324 0.496324
0.615686 0.615686 0.615686
0.503922 0.503922 0.503922
0.513725 0.513725 0.513725
0.545098 0.545098 0.545098
0.602941 0.602941 0.602941
0.690196 0.690196 0.690196
0.680392 0.680392 0.680392
0.687255 0.687255 0.687255
0.706373 0.706373 0.706373
0.742157 0.742157 0.742157
0.811765 0.811765 0.811765
0.901961 0.901961 0.901961
0.901961 0.901961 0.901961
0.913725 0.913725 0.913725
0.933824 0.933824 0.933824
0.968627 0.968627 0.968627
0.291176 0.291176 0.291176
0.312990 0.312990 0.312990
0.382843 0.382843 0.382843
0.479657 0.479657 0.479657
0.603922 0.603922 0.603922
0.355637 0.355637 0.355637
0.371936 0.371936 0.371936
0.427696 0.427696 0.427696
0.510172 0.510172 0.510172
0.625490 0.625490 0.625490
0.514216 0.514216 0.514216
0.523407 0.523407 0.523407
0.553922 0.553922 0.553922
0.610784 0.610784 0.610784
0.694118 0.694118 0.694118
0.690196 0.690196 0.690196
0.697059 0.697059 0.697059
0.715196 0.715196 0.715196
0.749449 0.749449 0.749449
0.815686 0.815686 0.815686
0.901961 0.901961 0.901961
0.905882 0.905882 0.905882
0.919608 0.919608 0.919608
0.945098 0.945098 0.945098
0.980392 0.980392 0.980392
0.341176 0.341176 0.341176
0.356863 0.356863 0.356863
0.417647 0.417647 0.417647
0.527451 0.527451 0.527451
0.662745 0.662745 0.662745
0.386275 0.386275 0.386275
0.398039 0.398039 0.398039
0.450980 0.450980 0.450980
0.552941 0.552941 0.552941
0.676471 0.676471 0.676471
0.525490 0.525490 0.525490
0.529412 0.529412 0.529412
0.556863 0.556863 0.556863
0.627451 0.627451 0.627451
0.735294 0.735294 0.735294
0.727451 0.727451 0.727451
0.730392 0.730392 0.730392
0.734314 0.734314 0.734314
0.756863 0.756863 0.756863
0.838235 0.838235 0.838235
0.929412 0.929412 0.929412
0.929412 0.929412 0.929412
0.941176 0.941176 0.941176
0.960784 0.960784 0.960784
0.996078 0.996078 0.996078
