public/filters/npc.cube
TITLE "npc"
LUT_3D_SIZE 9
DOMAIN_MIN 0.0 0.0 0.0
DOMAIN_MAX 1.0 1.0 1.0
0.086275 0.086275 0.086275
0.116667 0.116667 0.116667
0.178431 0.178431 0.178431
0.248039 0.248039 0.248039
0.325490 0.325490 0.325490
0.387255 0.387255 0.387255
0.445098 0.445098 0.445098
0.510784 0.510784 0.510784
0.592157 0.592157 0.592157
0.162255 0.162255 0.162255
0.181373 0.181373 0.181373
0.219730 0.219730 0.219730
0.277941 0.277941 0.277941
0.340196 0.340196 0.340196
0.396752 0.396752 0.396752
0.452451 0.452451 0.452451
0.513725 0.513725 0.513725
0.590686 0.590686 0.590686
0.295098 0.295098 0.295098
0.303431 0.303431 0.303431
0.327451 0.327451 0.327451
0.355392 0.355392 0.355392
0.391176 0.391176 0.391176
0.434191 0.434191 0.434191
0.481618 0.481618 0.481618
0.539216 0.539216 0.539216
0.608824 0.608824 0.608824
0.409314 0.409314 0.409314
0.413725 0.413725 0.413725
0.424877 0.424877 0.424877
0.444179 0.444179 0.444179
0.466176 0.466176 0.466176
0.495098 0.495098 0.495098
0.531373 0.531373 0.531373
0.580882 0.580882 0.580882
0.642647 0.642647 0.642647
0.496078 0.496078 0.496078
0.503922 0.503922 0.503922
0.509804 0.509804 0.509804
0.524755 0.524755 0.524755
0.545098 0.545098 0.545098
0.566667 0.566667 0.566667
0.595098 0.595098 0.595098
0.636029 0.636029 0.636029
0.688235 0.688235 0.688235
0.579412 0.579412 0.579412
0.585784 0.585784 0.585784
0.592279 0.592279 0.592279
0.602941 0.602941 0.602941
0.618873 0.618873 0.618873
0.638725 0.638725 0.638725
0.664216 0.664216 0.664216
0.696569 0.696569 0.696569
0.743137 0.743137 0.743137
0.671569 0.671569 0.671569
0.674510 0.674510 0.674510
0.678431 0.678431 0.678431
0.689093 0.689093 0.689093
0.700980 0.700980 0.700980
0.716176 0.716176 0.716176
0.738235 0.738235 0.738235
0.765196 0.765196 0.765196
0.803922 0.803922 0.803922
0.775490 0.775490 0.775490
0.775919 0.775919 0.775919
0.775980 0.775980 0.775980
0.783640 0.783640 0.783640
0.794853 0.794853 0.794853
0.806556 0.806556 0.806556
0.823039 0.823039 0.823039
0.845159 0.845159 0.845159
0.876471 0.876471 0.876471
0.894118 0.894118 0.894118
0.898039 0.898039 0.898039
0.898039 0.898039 0.898039
0.901961 0.901961 0.901961
0.907843 0.907843 0.907843
0.915196 0.915196 0.915196
0.926471 0.926471 0.926471
0.941667 0.941667 0.941667
0.964706 0.964706 0.964706
0.094118 0.094118 0.094118
0.120588 0.120588 0.120588
0.188848 0.188848 0.188848
0.259314 0.259314 0.259314
0.325490 0.325490 0.325490
0.385478 0.385478 0.385478
0.441176 0.441176 0.441176
0.506863 0.506863 0.506863
0.584314 0.584314 0.584314
0.166115 0.166115 0.166115
0.181855 0.181855 0.181855
0.227129 0.227129 0.227129
0.285294 0.285294 0.285294
0.341697 0.341697 0.341697
0.394608 0.394608 0.394608
0.450781 0.450781 0.450781
0.513672 0.513672 0.513672
0.586765 0.586765 0.586765
0.298897 0.298897 0.298897
0.306495 0.306495 0.306495
0.327451 0.327451 0.327451
0.355392 0.355392 0.355392
0.391605 0.391605 0.391605
0.432353 0.432353 0.432353
0.479075 0.479075 0.479075
0.536045 0.536045 0.536045
0.607843 0.607843 0.607843
0.410784 0.410784 0.410784
0.415196 0.415196 0.415196
0.424877 0.424877 0.424877
0.442096 0.442096 0.442096
0.464216 0.464216 0.464216
0.492532 0.492532 0.492532
0.530270 0.530270 0.530270
0.579373 0.579373 0.579373
0.641176 0.641176 0.641176
0.498039 0.498039 0.498039
0.505882 0.505882 0.505882
0.513235 0.513235 0.513235
0.525980 0.525980 0.525980
0.544118 0.544118 0.544118
0.564216 0.564216 0.564216
0.595098 0.595098 0.595098
0.634069 0.634069 0.634069
0.688235 0.688235 0.688235
0.584498 0.584498 0.584498
0.590993 0.590993 0.590993
0.596063 0.596063 0.596063
0.605331 0.605331 0.605331
0.619608 0.619608 0.619608
0.638725 0.638725 0.638725
0.664216 0.664216 0.664216
0.696569 0.696569 0.696569
0.743137 0.743137 0.743137
0.675490 0.675490 0.675490
0.679289 0.679289 0.679289
0.682353 0.682353 0.682353
0.690809 0.690809 0.690809
0.701471 0.701471 0.701471
0.716176 0.716176 0.716176
0.738235 0.738235 0.738235
0.765196 0.765196 0.765196
0.804902 0.804902 0.804902
0.776471 0.776471 0.776471
0.779902 0.779902 0.779902
0.779902 0.779902 0.779902
0.787255 0.787255 0.787255
0.795098 0.795098 0.795098
0.808111 0.808111 0.808111
0.825613 0.825613 0.825613
0.845159 0.845159 0.845159
0.876471 0.876471 0.876471
0.898039 0.898039 0.898039
0.898039 0.898039 0.898039
0.898039 0.898039 0.898039
0.901961 0.901961 0.901961
0.909559 0.909559 0.909559
0.917647 0.917647 0.917647
0.926471 0.926471 0.926471
0.941667 0.941667 0.941667
0.964706 0.964706 0.964706
0.127451 0.127451 0.127451
0.147426 0.147426 0.147426
0.197059 0.197059 0.197059
0.271569 0.271569 0.271569
0.337255 0.337255 0.337255
0.391176 0.391176 0.391176
0.449020 0.449020 0.449020
0.510784 0.510784 0.510784
0.588235 0.588235 0.588235
0.184804 0.184804 0.184804
0.196798 0.196798 0.196798
0.235692 0.235692 0.235692
0.294960 0.294960 0.294960
0.350184 0.350184 0.350184
0.402451 0.402451 0.402451
0.456342 0.456342 0.456342
0.517525 0.517525 0.517525
0.590686 0.590686 0.590686
0.302941 0.302941 0.302941
0.311397 0.311397 0.311397
0.329167 0.329167 0.329167
0.360202 0.360202 0.360202
0.395956 0.395956 0.395956
0.438113 0.438113 0.438113
0.484743 0.484743 0.484743
0.539216 0.539216 0.539216
0.608578 0.608578 0.608578
0.410784 0.410784 0.410784
0.415196 0.415196 0.415196
0.423039 0.423039 0.423039
0.441176 0.441176 0.441176
0.464216 0.464216 0.464216
0.495098 0.495098 0.495098
0.533364 0.533364 0.533364
0.580882 0.580882 0.580882
0.642279 0.642279 0.642279
0.500000 0.500000 0.500000
0.505882 0.505882 0.505882
0.511765 0.511765 0.511765
0.524755 0.524755 0.524755
0.543382 0.543382 0.543382
0.564216 0.564216 0.564216
0.595098 0.595098 0.595098
0.636029 0.636029 0.636029
0.690196 0.690196 0.690196
0.586275 0.586275 0.586275
0.591176 0.591176 0.591176
0.596569 0.596569 0.596569
0.605882 0.605882 0.605882
0.619608 0.619608 0.619608
0.638174 0.638174 0.638174
0.664216 0.664216 0.664216
0.697059 0.697059 0.697059
0.744608 0.744608 0.744608
0.675490 0.675490 0.675490
0.682230 0.682230 0.682230
0.683088 0.683088 0.683088
0.691176 0.691176 0.691176
0.702941 0.702941 0.702941
0.718015 0.718015 0.718015
0.738235 0.738235 0.738235
0.766176 0.766176 0.766176
0.807843 0.807843 0.807843
0.779412 0.779412 0.779412
0.779856 0.779856 0.779856
0.783333 0.783333 0.783333
0.787255 0.787255 0.787255
0.796814 0.796814 0.796814
0.810294 0.810294 0.810294
0.825613 0.825613 0.825613
0.845588 0.845588 0.845588
0.876471 0.876471 0.876471
0.898039 0.898039 0.898039
0.898039 0.898039 0.898039
0.901961 0.901961 0.901961
0.903799 0.903799 0.903799
0.909804 0.909804 0.909804
0.917647 0.917647 0.917647
0.929412 0.929412 0.929412
0.941667 0.941667 0.941667
0.964706 0.964706 0.964706
0.173529 0.173529 0.173529
0.186275 0.186275 0.186275
0.227941 0.227941 0.227941
0.280331 0.280331 0.280331
0.341176 0.341176 0.341176
0.399020 0.399020 0.399020
0.456863 0.456863 0.456863
0.517341 0.517341 0.517341
0.592157 0.592157 0.592157
0.212255 0.212255 0.212255
0.223859 0.223859 0.223859
0.256005 0.256005 0.256005
0.301777 0.301777 0.301777
0.355239 0.355239 0.355239
0.407904 0.407904 0.407904
0.463955 0.463955 0.463955
0.521569 0.521569 0.521569
0.594608 0.594608 0.594608
0.311765 0.311765 0.311765
0.317463 0.317463 0.317463
0.335447 0.335447 0.335447
0.364216 0.364216 0.364216
0.400000 0.400000 0.400000
0.443015 0.443015 0.443015
0.490196 0.490196 0.490196
0.545282 0.545282 0.545282
0.611765 0.611765 0.611765
0.409252 0.409252 0.409252
0.415196 0.415196 0.415196
0.424877 0.424877 0.424877
0.442096 0.442096 0.442096
0.468137 0.468137 0.468137
0.498790 0.498790 0.498790
0.538113 0.538113 0.538113
0.584804 0.584804 0.584804
0.645098 0.645098 0.645098
0.501961 0.501961 0.501961
0.505882 0.505882 0.505882
0.511765 0.511765 0.511765
0.524755 0.524755 0.524755
0.543750 0.543750 0.543750
0.567402 0.567402 0.567402
0.599020 0.599020 0.599020
0.639706 0.639706 0.639706
0.690196 0.690196 0.690196
0.586275 0.586275 0.586275
0.592647 0.592647 0.592647
0.597672 0.597672 0.597672
0.606457 0.606457 0.606457
0.619608 0.619608 0.619608
0.640257 0.640257 0.640257
0.665686 0.665686 0.665686
0.700490 0.700490 0.700490
0.747059 0.747059 0.747059
0.678431 0.678431 0.678431
0.682353 0.682353 0.682353
0.686734 0.686734 0.686734
0.693857 0.693857 0.693857
0.704902 0.704902 0.704902
0.719730 0.719730 0.719730
0.741422 0.741422 0.741422
0.768153 0.768153 0.768153
0.807843 0.807843 0.807843
0.779412 0.779412 0.779412
0.782843 0.782843 0.782843
0.783333 0.783333 0.783333
0.790625 0.790625 0.790625
0.798775 0.798775 0.798775
0.811581 0.811581 0.811581
0.826838 0.826838 0.826838
0.846078 0.846078 0.846078
0.880392 0.880392 0.880392
0.898039 0.898039 0.898039
0.901961 0.901961 0.901961
0.901961 0.901961 0.901961
0.905882 0.905882 0.905882
0.911029 0.911029 0.911029
0.920650 0.920650 0.920650
0.930392 0.930392 0.930392
0.945098 0.945098 0.945098
0.964706 0.964706 0.964706
0.219608 0.219608 0.219608
0.228922 0.228922 0.228922
0.259314 0.259314 0.259314
0.299755 0.299755 0.299755
0.348039 0.348039 0.348039
0.402941 0.402941 0.402941
0.460784 0.460784 0.460784
0.522549 0.522549 0.522549
0.596078 0.596078 0.596078
0.247549 0.247549 0.247549
0.254963 0.254963 0.254963
0.278431 0.278431 0.278431
0.316422 0.316422 0.316422
0.360172 0.360172 0.360172
0.411673 0.411673 0.411673
0.468015 0.468015 0.468015
0.527206 0.527206 0.527206
0.598284 0.598284 0.598284
0.323039 0.323039 0.323039
0.329657 0.329657 0.329657
0.344730 0.344730 0.344730
0.370404 0.370404 0.370404
0.403922 0.403922 0.403922
0.447488 0.447488 0.447488
0.496324 0.496324 0.496324
0.550613 0.550613 0.550613
0.615686 0.615686 0.615686
0.412255 0.412255 0.412255
0.417494 0.417494 0.417494
0.426593 0.426593 0.426593
0.445098 0.445098 0.445098
0.469608 0.469608 0.469608
0.503952 0.503952 0.503952
0.542647 0.542647 0.542647
0.588542 0.588542 0.588542
0.645098 0.645098 0.645098
0.503922 0.503922 0.503922
0.507843 0.507843 0.507843
0.513725 0.513725 0.513725
0.526716 0.526716 0.526716
0.545098 0.545098 0.545098
0.570098 0.570098 0.570098
0.602941 0.602941 0.602941
0.639951 0.639951 0.639951
0.690196 0.690196 0.690196
0.591667 0.591667 0.591667
0.594118 0.594118 0.594118
0.598591 0.598591 0.598591
0.608119 0.608119 0.608119
0.622794 0.622794 0.622794
0.641636 0.641636 0.641636
0.669608 0.669608 0.669608
0.702267 0.702267 0.702267
0.747059 0.747059 0.747059
0.680392 0.680392 0.680392
0.683333 0.683333 0.683333
0.687255 0.687255 0.687255
0.695098 0.695098 0.695098
0.706373 0.706373 0.706373
0.723039 0.723039 0.723039
0.742157 0.742157 0.742157
0.770098 0.770098 0.770098
0.811765 0.811765 0.811765
0.779902 0.779902 0.779902
0.783333 0.783333 0.783333
0.786275 0.786275 0.786275
0.791176 0.791176 0.791176
0.802451 0.802451 0.802451
0.815502 0.815502 0.815502
0.830331 0.830331 0.830331
0.849724 0.849724 0.849724
0.884314 0.884314 0.884314
0.901961 0.901961 0.901961
0.901961 0.901961 0.901961
0.901961 0.901961 0.901961
0.908333 0.908333 0.908333
0.913725 0.913725 0.913725
0.923039 0.923039 0.923039
0.933824 0.933824 0.933824
0.949020 0.949020 0.949020
0.968627 0.968627 0.968627
0.260294 0.260294 0.260294
0.264216 0.264216 0.264216
0.286765 0.286765 0.286765
0.321017 0.321017 0.321017
0.362255 0.362255 0.362255
0.411703 0.411703 0.411703
0.465809 0.465809 0.465809
0.526471 0.526471 0.526471
0.597549 0.597549 0.597549
0.278431 0.278431 0.278431
0.282843 0.282843 0.282843
0.301823 0.301823 0.301823
0.332843 0.332843 0.332843
0.373039 0.373039 0.373039
0.421071 0.421071 0.421071
0.472947 0.472947 0.472947
0.533333 0.533333 0.533333
0.602451 0.602451 0.602451
0.338725 0.338725 0.338725
0.343490 0.343490 0.343490
0.357230 0.357230 0.357230
0.380882 0.380882 0.380882
0.413848 0.413848 0.413848
0.454412 0.454412 0.454412
0.500797 0.500797 0.500797
0.554534 0.554534 0.554534
0.616667 0.616667 0.616667
0.420650 0.420650 0.420650
0.423039 0.423039 0.423039
0.433134 0.433134 0.433134
0.450260 0.450260 0.450260
0.476532 0.476532 0.476532
0.508333 0.508333 0.508333
0.546569 0.546569 0.546569
0.592226 0.592226 0.592226
0.646569 0.646569 0.646569
0.504657 0.504657 0.504657
0.509804 0.509804 0.509804
0.516238 0.516238 0.516238
0.529902 0.529902 0.529902
0.549020 0.549020 0.549020
0.574755 0.574755 0.574755
0.603983 0.603983 0.603983
0.640594 0.640594 0.640594
0.690196 0.690196 0.690196
0.594056 0.594056 0.594056
0.598039 0.598039 0.598039
0.601961 0.601961 0.601961
0.611336 0.611336 0.611336
0.625980 0.625980 0.625980
0.645098 0.645098 0.645098
0.669608 0.669608 0.669608
0.701785 0.701785 0.701785
0.747059 0.747059 0.747059
0.681495 0.681495 0.681495
0.684436 0.684436 0.684436
0.688082 0.688082 0.688082
0.696936 0.696936 0.696936
0.709804 0.709804 0.709804
0.726961 0.726961 0.726961
0.746078 0.746078 0.746078
0.773039 0.773039 0.773039
0.815686 0.815686 0.815686
0.779902 0.779902 0.779902
0.783333 0.783333 0.783333
0.786994 0.786994 0.786994
0.794608 0.794608 0.794608
0.805882 0.805882 0.805882
0.818313 0.818313 0.818313
0.833456 0.833456 0.833456
0.853431 0.853431 0.853431
0.888235 0.888235 0.888235
0.901961 0.901961 0.901961
0.901961 0.901961 0.901961
0.905882 0.905882 0.905882
0.909804 0.909804 0.909804
0.917647 0.917647 0.917647
0.927880 0.927880 0.927880
0.938235 0.938235 0.938235
0.952941 0.952941 0.952941
0.972549 0.972549 0.972549
0.291176 0.291176 0.291176
0.295098 0.295098 0.295098
0.312990 0.312990 0.312990
0.342525 0.342525 0.342525
0.382843 0.382843 0.382843
0.429289 0.429289 0.429289
0.479657 0.479657 0.479657
0.535294 0.535294 0.535294
0.603922 0.603922 0.603922
0.305882 0.305882 0.305882
0.310187 0.310187 0.310187
0.325123 0.325123 0.325123
0.355025 0.355025 0.355025
0.392341 0.392341 0.392341
0.436366 0.436366 0.436366
0.484589 0.484589 0.484589
0.541299 0.541299 0.541299
0.607843 0.607843 0.607843
0.355637 0.355637 0.355637
0.359712 0.359712 0.359712
0.371936 0.371936 0.371936
0.394455 0.394455 0.394455
0.427696 0.427696 0.427696
0.466544 0.466544 0.466544
0.510172 0.510172 0.510172
0.561520 0.561520 0.561520
0.625490 0.625490 0.625490
0.430882 0.430882 0.430882
0.432675 0.432675 0.432675
0.440931 0.440931 0.440931
0.458701 0.458701 0.458701
0.485294 0.485294 0.485294
0.517479 0.517479 0.517479
0.555147 0.555147 0.555147
0.598897 0.598897 0.598897
0.652574 0.652574 0.652574
0.514216 0.514216 0.514216
0.517647 0.517647 0.517647
0.523407 0.523407 0.523407
0.535049 0.535049 0.535049
0.553922 0.553922 0.553922
0.579902 0.579902 0.579902
0.610784 0.610784 0.610784
0.646324 0.646324 0.646324
0.694118 0.694118 0.694118
0.602574 0.602574 0.602574
0.606955 0.606955 0.606955
0.610600 0.610600 0.610600
0.618857 0.618857 0.618857
0.630944 0.630944 0.630944
0.649020 0.649020 0.649020
0.673529 0.673529 0.673529
0.705254 0.705254 0.705254
0.746201 0.746201 0.746201
0.690196 0.690196 0.690196
0.693352 0.693352 0.693352
0.697059 0.697059 0.697059
0.704075 0.704075 0.704075
0.715196 0.715196 0.715196
0.729504 0.729504 0.729504
0.749449 0.749449 0.749449
0.776961 0.776961 0.776961
0.815686 0.815686 0.815686
0.783701 0.783701 0.783701
0.786275 0.786275 0.786275
0.790196 0.790196 0.790196
0.798039 0.798039 0.798039
0.806556 0.806556 0.806556
0.819424 0.819424 0.819424
0.837377 0.837377 0.837377
0.858104 0.858104 0.858104
0.895588 0.895588 0.895588
0.901961 0.901961 0.901961
0.901961 0.901961 0.901961
0.905882 0.905882 0.905882
0.909804 0.909804 0.909804
0.919608 0.919608 0.919608
0.930882 0.930882 0.930882
0.945098 0.945098 0.945098
0.957353 0.957353 0.957353
0.980392 0.980392 0.980392
0.322059 0.322059 0.322059
0.325490 0.325490 0.325490
0.340319 0.340319 0.340319
0.367157 0.367157 0.367157
0.402451 0.402451 0.402451
0.448713 0.448713 0.448713
0.500490 0.500490 0.500490
0.558333 0.558333 0.558333
0.624020 0.624020 0.624020
0.333272 0.333272 0.333272
0.337194 0.337194 0.337194
0.349004 0.349004 0.349004
0.374962 0.374962 0.374962
0.411275 0.411275 0.411275
0.453699 0.453699 0.453699
0.506173 0.506173 0.506173
0.561765 0.561765 0.561765
0.626961 0.626961 0.626961
0.374877 0.374877 0.374877
0.378539 0.378539 0.378539
0.389338 0.389338 0.389338
0.410110 0.410110 0.410110
0.440993 0.440993 0.440993
0.481327 0.481327 0.481327
0.528860 0.528860 0.528860
0.583134 0.583134 0.583134
0.641667 0.641667 0.641667
0.442647 0.442647 0.442647
0.444386 0.444386 0.444386
0.452191 0.452191 0.452191
0.468627 0.468627 0.468627
0.491667 0.491667 0.491667
0.526471 0.526471 0.526471
0.568015 0.568015 0.568015
0.617218 0.617218 0.617218
0.670282 0.670282 0.670282
0.523529 0.523529 0.523529
0.525735 0.525735 0.525735
0.530944 0.530944 0.530944
0.540441 0.540441 0.540441
0.556863 0.556863 0.556863
0.582108 0.582108 0.582108
0.618689 0.618689 0.618689
0.660018 0.660018 0.660018
0.708088 0.708088 0.708088
0.613725 0.613725 0.613725
0.616176 0.616176 0.616176
0.617877 0.617877 0.617877
0.625008 0.625008 0.625008
0.633425 0.633425 0.633425
0.650490 0.650490 0.650490
0.679948 0.679948 0.679948
0.715464 0.715464 0.715464
0.757843 0.757843 0.757843
0.707230 0.707230 0.707230
0.710172 0.710172 0.710172
0.712868 0.712868 0.712868
0.717647 0.717647 0.717647
0.724203 0.724203 0.724203
0.734452 0.734452 0.734452
0.753922 0.753922 0.753922
0.783839 0.783839 0.783839
0.819975 0.819975 0.819975
0.798529 0.798529 0.798529
0.801532 0.801532 0.801532
0.802451 0.802451 0.802451
0.806373 0.806373 0.806373
0.814216 0.814216 0.814216
0.825712 0.825712 0.825712
0.842157 0.842157 0.842157
0.865196 0.865196 0.865196
0.899510 0.899510 0.899510
0.901961 0.901961 0.901961
0.902451 0.902451 0.902451
0.905882 0.905882 0.905882
0.909804 0.909804 0.909804
0.917647 0.917647 0.917647
0.929412 0.929412 0.929412
0.946078 0.946078 0.946078
0.965196 0.965196 0.965196
0.988235 0.988235 0.988235
0.341176 0.341176 0.341176
0.345098 0.345098 0.345098
0.356863 0.356863 0.356863
0.382843 0.382843 0.382843
0.417647 0.417647 0.417647
0.468137 0.468137 0.468137
0.527451 0.527451 0.527451
0.593137 0.593137 0.593137
0.662745 0.662745 0.662745
0.351961 0.351961 0.351961
0.352451 0.352451 0.352451
0.364216 0.364216 0.364216
0.390196 0.390196 0.390196
0.425000 0.425000 0.425000
0.473039 0.473039 0.473039
0.531740 0.531740 0.531740
0.596998 0.596998 0.596998
0.665196 0.665196 0.665196
0.386275 0.386275 0.386275
0.390196 0.390196 0.390196
0.398039 0.398039 0.398039
0.420098 0.420098 0.420098
0.450980 0.450980 0.450980
0.495098 0.495098 0.495098
0.552941 0.552941 0.552941
0.613725 0.613725 0.613725
0.676471 0.676471 0.676471
0.446569 0.446569 0.446569
0.450184 0.450184 0.450184
0.455515 0.455515 0.455515
0.471017 0.471017 0.471017
0.497059 0.497059 0.497059
0.534865 0.534865 0.534865
0.583333 0.583333 0.583333
0.639706 0.639706 0.639706
0.701471 0.701471 0.701471
0.525490 0.525490 0.525490
0.525490 0.525490 0.525490
0.529412 0.529412 0.529412
0.538480 0.538480 0.538480
0.556863 0.556863 0.556863
0.586520 0.586520 0.586520
0.627451 0.627451 0.627451
0.679167 0.679167 0.679167
0.735294 0.735294 0.735294
0.619118 0.619118 0.619118
0.621569 0.621569 0.621569
0.623039 0.623039 0.623039
0.625490 0.625490 0.625490
0.633333 0.633333 0.633333
0.652022 0.652022 0.652022
0.684191 0.684191 0.684191
0.730392 0.730392 0.730392
0.780882 0.780882 0.780882
0.727451 0.727451 0.727451
0.730392 0.730392 0.730392
0.730392 0.730392 0.730392
0.730392 0.730392 0.730392
0.734314 0.734314 0.734314
0.738235 0.738235 0.738235
0.756863 0.756863 0.756863
0.792157 0.792157 0.792157
0.838235 0.838235 0.838235
0.833824 0.833824 0.833824
0.833824 0.833824 0.833824
0.833824 0.833824 0.833824
0.837745 0.837745 0.837745
0.841667 0.841667 0.841667
0.849203 0.849203 0.849203
0.856863 0.856863 0.856863
0.872549 0.872549 0.872549
0.911275 0.911275 0.911275
0.929412 0.929412 0.929412
0.929412 0.929412 0.929412
0.929412 0.929412 0.929412
0.933333 0.933333 0.933333
0.941176 0.941176 0.941176
0.949020 0.949020 0.949020
0.960784 0.960784 0.960784
0.973039 0.973039 0.973039
0.996078 0.996078 0.996078
