public/filters/npc.cube
TITLE "npc"
LUT_3D_SIZE 33
DOMAIN_MIN 0.0 0.0 0.0
DOMAIN_MAX 1.0 1.0 1.0
0.086275 0.086275 0.086275
0.090074 0.090074 0.090074
0.093873 0.093873 0.093873
0.101593 0.101593 0.101593
0.116667 0.116667 0.116667
0.132108 0.132108 0.132108
0.148284 0.148284 0.148284
0.162990 0.162990 0.162990
0.178431 0.178431 0.178431
0.197794 0.197794 0.197794
0.213235 0.213235 0.213235
0.231250 0.231250 0.231250
0.248039 0.248039 0.248039
0.269730 0.269730 0.269730
0.288971 0.288971 0.288971
0.306127 0.306127 0.306127
0.325490 0.325490 0.325490
0.340931 0.340931 0.340931
0.356373 0.356373 0.356373
0.371814 0.371814 0.371814
0.387255 0.387255 0.387255
0.402696 0.402696 0.402696
0.414216 0.414216 0.414216
0.429657 0.429657 0.429657
0.445098 0.445098 0.445098
0.460539 0.460539 0.460539
0.475980 0.475980 0.475980
0.491422 0.491422 0.491422
0.510784 0.510784 0.510784
0.526225 0.526225 0.526225
0.545588 0.545588 0.545588
0.565074 0.565074 0.565074
0.592157 0.592157 0.592157
0.090074 0.090074 0.090074
0.090196 0.090196 0.090196
0.097672 0.097672 0.097672
0.105392 0.105392 0.105392
0.120466 0.120466 0.120466
0.136029 0.136029 0.136029
0.151471 0.151471 0.151471
0.166816 0.166816 0.166816
0.182230 0.182230 0.182230
0.197760 0.197760 0.197760
0.213235 0.213235 0.213235
0.231170 0.231170 0.231170
0.248039 0.248039 0.248039
0.269730 0.269730 0.269730
0.288971 0.288971 0.288971
0.306127 0.306127 0.306127
0.323529 0.323529 0.323529
0.340931 0.340931 0.340931
0.356373 0.356373 0.356373
0.371814 0.371814 0.371814
0.387255 0.387255 0.387255
0.401348 0.401348 0.401348
0.414216 0.414216 0.414216
0.429657 0.429657 0.429657
0.445098 0.445098 0.445098
0.460539 0.460539 0.460539
0.475980 0.475980 0.475980
0.491422 0.491422 0.491422
0.507460 0.507460 0.507460
0.526225 0.526225 0.526225
0.542027 0.542027 0.542027
0.565074 0.565074 0.565074
0.588235 0.588235 0.588235
0.105392 0.105392 0.105392
0.105392 0.105392 0.105392
0.109298 0.109298 0.109298
0.120121 0.120121 0.120121
0.131863 0.131863 0.131863
0.144202 0.144202 0.144202
0.159069 0.159069 0.159069
0.171392 0.171392 0.171392
0.186029 0.186029 0.186029
0.201471 0.201471 0.201471
0.216912 0.216912 0.216912
0.235011 0.235011 0.235011
0.251869 0.251869 0.251869
0.271224 0.271224 0.271224
0.290579 0.290579 0.290579
0.309804 0.309804 0.309804
0.325490 0.325490 0.325490
0.340931 0.340931 0.340931
0.356373 0.356373 0.356373
0.371814 0.371814 0.371814
0.387255 0.387255 0.387255
0.402612 0.402612 0.402612
0.416743 0.416743 0.416743
0.429657 0.429657 0.429657
0.445098 0.445098 0.445098
0.460539 0.460539 0.460539
0.475980 0.475980 0.475980
0.491422 0.491422 0.491422
0.507353 0.507353 0.507353
0.526225 0.526225 0.526225
0.541912 0.541912 0.541912
0.565074 0.565074 0.565074
0.588235 0.588235 0.588235
0.128309 0.128309 0.128309
0.131863 0.131863 0.131863
0.135562 0.135562 0.135562
0.139706 0.139706 0.139706
0.151348 0.151348 0.151348
0.162435 0.162435 0.162435
0.173966 0.173966 0.173966
0.185784 0.185784 0.185784
0.197396 0.197396 0.197396
0.212745 0.212745 0.212745
0.228186 0.228186 0.228186
0.243627 0.243627 0.243627
0.261657 0.261657 0.261657
0.278799 0.278799 0.278799
0.298162 0.298162 0.298162
0.313603 0.313603 0.313603
0.329228 0.329228 0.329228
0.344853 0.344853 0.344853
0.360294 0.360294 0.360294
0.375586 0.375586 0.375586
0.390809 0.390809 0.390809
0.405028 0.405028 0.405028
0.418137 0.418137 0.418137
0.433578 0.433578 0.433578
0.448652 0.448652 0.448652
0.464093 0.464093 0.464093
0.479534 0.479534 0.479534
0.494975 0.494975 0.494975
0.510784 0.510784 0.510784
0.526225 0.526225 0.526225
0.545244 0.545244 0.545244
0.565074 0.565074 0.565074
0.591789 0.591789 0.591789
0.162255 0.162255 0.162255
0.162730 0.162730 0.162730
0.166636 0.166636 0.166636
0.173652 0.173652 0.173652
0.181373 0.181373 0.181373
0.189583 0.189583 0.189583
0.197304 0.197304 0.197304
0.208946 0.208946 0.208946
0.219730 0.219730 0.219730
0.231618 0.231618 0.231618
0.243137 0.243137 0.243137
0.258578 0.258578 0.258578
0.277941 0.277941 0.277941
0.293382 0.293382 0.293382
0.309314 0.309314 0.309314
0.324755 0.324755 0.324755
0.340196 0.340196 0.340196
0.355637 0.355637 0.355637
0.367433 0.367433 0.367433
0.382598 0.382598 0.382598
0.396752 0.396752 0.396752
0.410049 0.410049 0.410049
0.423928 0.423928 0.423928
0.437010 0.437010 0.437010
0.452451 0.452451 0.452451
0.467785 0.467785 0.467785
0.482843 0.482843 0.482843
0.498284 0.498284 0.498284
0.513725 0.513725 0.513725
0.529979 0.529979 0.529979
0.548775 0.548775 0.548775
0.567999 0.567999 0.567999
0.590686 0.590686 0.590686
0.193627 0.193627 0.193627
0.197426 0.197426 0.197426
0.197549 0.197549 0.197549
0.202026 0.202026 0.202026
0.209436 0.209436 0.209436
0.217157 0.217157 0.217157
0.224877 0.224877 0.224877
0.232598 0.232598 0.232598
0.240319 0.240319 0.240319
0.251030 0.251030 0.251030
0.264024 0.264024 0.264024
0.278431 0.278431 0.278431
0.293873 0.293873 0.293873
0.307349 0.307349 0.307349
0.320833 0.320833 0.320833
0.336275 0.336275 0.336275
0.348407 0.348407 0.348407
0.363848 0.363848 0.363848
0.375368 0.375368 0.375368
0.390809 0.390809 0.390809
0.402328 0.402328 0.402328
0.416632 0.416632 0.416632
0.429289 0.429289 0.429289
0.443800 0.443800 0.443800
0.456710 0.456710 0.456710
0.471691 0.471691 0.471691
0.487132 0.487132 0.487132
0.502574 0.502574 0.502574
0.518627 0.518627 0.518627
0.534069 0.534069 0.534069
0.552857 0.552857 0.552857
0.572898 0.572898 0.572898
0.596078 0.596078 0.596078
0.224510 0.224510 0.224510
0.225222 0.225222 0.225222
0.228431 0.228431 0.228431
0.232054 0.232054 0.232054
0.236520 0.236520 0.236520
0.244240 0.244240 0.244240
0.251961 0.251961 0.251961
0.259107 0.259107 0.259107
0.266667 0.266667 0.266667
0.275123 0.275123 0.275123
0.286765 0.286765 0.286765
0.298407 0.298407 0.298407
0.310509 0.310509 0.310509
0.322426 0.322426 0.322426
0.336275 0.336275 0.336275
0.348139 0.348139 0.348139
0.361642 0.361642 0.361642
0.373261 0.373261 0.373261
0.386688 0.386688 0.386688
0.398529 0.398529 0.398529
0.410049 0.410049 0.410049
0.424142 0.424142 0.424142
0.437010 0.437010 0.437010
0.448529 0.448529 0.448529
0.463971 0.463971 0.463971
0.478715 0.478715 0.478715
0.491667 0.491667 0.491667
0.507108 0.507108 0.507108
0.522549 0.522549 0.522549
0.538289 0.538289 0.538289
0.556664 0.556664 0.556664
0.576103 0.576103 0.576103
0.600000 0.600000 0.600000
0.255392 0.255392 0.255392
0.255392 0.255392 0.255392
0.259122 0.259122 0.259122
0.259314 0.259314 0.259314
0.266667 0.266667 0.266667
0.270466 0.270466 0.270466
0.278883 0.278883 0.278883
0.289158 0.289158 0.289158
0.297549 0.297549 0.297549
0.302206 0.302206 0.302206
0.309926 0.309926 0.309926
0.321569 0.321569 0.321569
0.329825 0.329825 0.329825
0.341441 0.341441 0.341441
0.351716 0.351716 0.351716
0.363235 0.363235 0.363235
0.374755 0.374755 0.374755
0.386275 0.386275 0.386275
0.398277 0.398277 0.398277
0.409823 0.409823 0.409823
0.421369 0.421369 0.421369
0.433211 0.433211 0.433211
0.444730 0.444730 0.444730
0.459069 0.459069 0.459069
0.471691 0.471691 0.471691
0.486275 0.486275 0.486275
0.498652 0.498652 0.498652
0.514093 0.514093 0.514093
0.529534 0.529534 0.529534
0.544975 0.544975 0.544975
0.560662 0.560662 0.560662
0.579902 0.579902 0.579902
0.603922 0.603922 0.603922
0.295098 0.295098 0.295098
0.296048 0.296048 0.296048
0.296078 0.296078 0.296078
0.299908 0.299908 0.299908
0.303431 0.303431 0.303431
0.307690 0.307690 0.307690
0.314951 0.314951 0.314951
0.320374 0.320374 0.320374
0.327451 0.327451 0.327451
0.335172 0.335172 0.335172
0.340870 0.340870 0.340870
0.347672 0.347672 0.347672
0.355392 0.355392 0.355392
0.363113 0.363113 0.363113
0.371814 0.371814 0.371814
0.382996 0.382996 0.382996
0.391176 0.391176 0.391176
0.402819 0.402819 0.402819
0.412806 0.412806 0.412806
0.423162 0.423162 0.423162
0.434191 0.434191 0.434191
0.446446 0.446446 0.446446
0.456066 0.456066 0.456066
0.467616 0.467616 0.467616
0.481618 0.481618 0.481618
0.493873 0.493873 0.493873
0.509314 0.509314 0.509314
0.523775 0.523775 0.523775
0.539216 0.539216 0.539216
0.554657 0.554657 0.554657
0.570159 0.570159 0.570159
0.586612 0.586612 0.586612
0.608824 0.608824 0.608824
0.325000 0.325000 0.325000
0.329990 0.329990 0.329990
0.332843 0.332843 0.332843
0.333843 0.333843 0.333843
0.336765 0.336765 0.336765
0.337868 0.337868 0.337868
0.341789 0.341789 0.341789
0.348775 0.348775 0.348775
0.352574 0.352574 0.352574
0.360294 0.360294 0.360294
0.365319 0.365319 0.365319
0.371814 0.371814 0.371814
0.377773 0.377773 0.377773
0.384436 0.384436 0.384436
0.392157 0.392157 0.392157
0.399877 0.399877 0.399877
0.409007 0.409007 0.409007
0.419240 0.419240 0.419240
0.426961 0.426961 0.426961
0.438603 0.438603 0.438603
0.446737 0.446737 0.446737
0.458345 0.458345 0.458345
0.467670 0.467670 0.467670
0.479224 0.479224 0.479224
0.491054 0.491054 0.491054
0.505392 0.505392 0.505392
0.518015 0.518015 0.518015
0.533456 0.533456 0.533456
0.548897 0.548897 0.548897
0.564338 0.564338 0.564338
0.579779 0.579779 0.579779
0.595343 0.595343 0.595343
0.618505 0.618505 0.618505
0.351961 0.351961 0.351961
0.357070 0.357070 0.357070
0.360953 0.360953 0.360953
0.361029 0.361029 0.361029
0.363388 0.363388 0.363388
0.364951 0.364951 0.364951
0.368137 0.368137 0.368137
0.371936 0.371936 0.371936
0.375735 0.375735 0.375735
0.381518 0.381518 0.381518
0.387255 0.387255 0.387255
0.394975 0.394975 0.394975
0.399234 0.399234 0.399234
0.406495 0.406495 0.406495
0.412699 0.412699 0.412699
0.419240 0.419240 0.419240
0.426961 0.426961 0.426961
0.434681 0.434681 0.434681
0.442402 0.442402 0.442402
0.454044 0.454044 0.454044
0.461765 0.461765 0.461765
0.470833 0.470833 0.470833
0.481510 0.481510 0.481510
0.492770 0.492770 0.492770
0.504718 0.504718 0.504718
0.516912 0.516912 0.516912
0.529657 0.529657 0.529657
0.543873 0.543873 0.543873
0.556618 0.556618 0.556618
0.572059 0.572059 0.572059
0.587500 0.587500 0.587500
0.603064 0.603064 0.603064
0.626225 0.626225 0.626225
0.376348 0.376348 0.376348
0.384069 0.384069 0.384069
0.386604 0.386604 0.386604
0.387986 0.387986 0.387986
0.388113 0.388113 0.388113
0.388113 0.388113 0.388113
0.392034 0.392034 0.392034
0.395661 0.395661 0.395661
0.398897 0.398897 0.398897
0.403799 0.403799 0.403799
0.410417 0.410417 0.410417
0.415564 0.415564 0.415564
0.421936 0.421936 0.421936
0.428129 0.428129 0.428129
0.433456 0.433456 0.433456
0.439809 0.439809 0.439809
0.446324 0.446324 0.446324
0.454044 0.454044 0.454044
0.461765 0.461765 0.461765
0.469485 0.469485 0.469485
0.477206 0.477206 0.477206
0.485390 0.485390 0.485390
0.496569 0.496569 0.496569
0.505392 0.505392 0.505392
0.516912 0.516912 0.516912
0.528431 0.528431 0.528431
0.541046 0.541046 0.541046
0.554990 0.554990 0.554990
0.568091 0.568091 0.568091
0.582112 0.582112 0.582112
0.595221 0.595221 0.595221
0.613277 0.613277 0.613277
0.633946 0.633946 0.633946
0.409314 0.409314 0.409314
0.412209 0.412209 0.412209
0.413725 0.413725 0.413725
0.413725 0.413725 0.413725
0.413725 0.413725 0.413725
0.417034 0.417034 0.417034
0.417647 0.417647 0.417647
0.421569 0.421569 0.421569
0.424877 0.424877 0.424877
0.428722 0.428722 0.428722
0.433578 0.433578 0.433578
0.438220 0.438220 0.438220
0.444179 0.444179 0.444179
0.448897 0.448897 0.448897
0.454412 0.454412 0.454412
0.460417 0.460417 0.460417
0.466176 0.466176 0.466176
0.471936 0.471936 0.471936
0.479657 0.479657 0.479657
0.487377 0.487377 0.487377
0.495098 0.495098 0.495098
0.502819 0.502819 0.502819
0.510999 0.510999 0.510999
0.520420 0.520420 0.520420
0.531373 0.531373 0.531373
0.542402 0.542402 0.542402
0.553922 0.553922 0.553922
0.568750 0.568750 0.568750
0.580882 0.580882 0.580882
0.592402 0.592402 0.592402
0.607843 0.607843 0.607843
0.623284 0.623284 0.623284
0.642647 0.642647 0.642647
0.426593 0.426593 0.426593
0.438235 0.438235 0.438235
0.442034 0.442034 0.442034
0.442279 0.442279 0.442279
0.442279 0.442279 0.442279
0.442279 0.442279 0.442279
0.442279 0.442279 0.442279
0.445692 0.445692 0.445692
0.446201 0.446201 0.446201
0.450123 0.450123 0.450123
0.454044 0.454044 0.454044
0.459011 0.459011 0.459011
0.464338 0.464338 0.464338
0.468784 0.468784 0.468784
0.474548 0.474548 0.474548
0.480404 0.480404 0.480404
0.486213 0.486213 0.486213
0.492023 0.492023 0.492023
0.497878 0.497878 0.497878
0.504289 0.504289 0.504289
0.512010 0.512010 0.512010
0.519730 0.519730 0.519730
0.527451 0.527451 0.527451
0.535620 0.535620 0.535620
0.546814 0.546814 0.546814
0.558456 0.558456 0.558456
0.570397 0.570397 0.570397
0.581989 0.581989 0.581989
0.593873 0.593873 0.593873
0.606985 0.606985 0.606985
0.620833 0.620833 0.620833
0.636324 0.636324 0.636324
0.653309 0.653309 0.653309
0.449755 0.449755 0.449755
0.459191 0.459191 0.459191
0.463128 0.463128 0.463128
0.463235 0.463235 0.463235
0.463235 0.463235 0.463235
0.463235 0.463235 0.463235
0.465441 0.465441 0.465441
0.465441 0.465441 0.465441
0.468811 0.468811 0.468811
0.472181 0.472181 0.472181
0.475980 0.475980 0.475980
0.479779 0.479779 0.479779
0.484222 0.484222 0.484222
0.489989 0.489989 0.489989
0.495098 0.495098 0.495098
0.499701 0.499701 0.499701
0.505515 0.505515 0.505515
0.511328 0.511328 0.511328
0.517172 0.517172 0.517172
0.522955 0.522955 0.522955
0.528830 0.528830 0.528830
0.535172 0.535172 0.535172
0.542892 0.542892 0.542892
0.553301 0.553301 0.553301
0.562255 0.562255 0.562255
0.573897 0.573897 0.573897
0.583747 0.583747 0.583747
0.595320 0.595320 0.595320
0.606893 0.606893 0.606893
0.618627 0.618627 0.618627
0.632215 0.632215 0.632215
0.645657 0.645657 0.645657
0.663235 0.663235 0.663235
0.472917 0.472917 0.472917
0.480637 0.480637 0.480637
0.484681 0.484681 0.484681
0.484681 0.484681 0.484681
0.484681 0.484681 0.484681
0.484681 0.484681 0.484681
0.486175 0.486175 0.486175
0.488603 0.488603 0.488603
0.491544 0.491544 0.491544
0.492525 0.492525 0.492525
0.496446 0.496446 0.496446
0.500368 0.500368 0.500368
0.505438 0.505438 0.505438
0.510539 0.510539 0.510539
0.515142 0.515142 0.515142
0.519975 0.519975 0.519975
0.524816 0.524816 0.524816
0.530633 0.530633 0.530633
0.535294 0.535294 0.535294
0.541176 0.541176 0.541176
0.546814 0.546814 0.546814
0.554534 0.554534 0.554534
0.562255 0.562255 0.562255
0.569975 0.569975 0.569975
0.577696 0.577696 0.577696
0.589338 0.589338 0.589338
0.597794 0.597794 0.597794
0.608988 0.608988 0.608988
0.620573 0.620573 0.620573
0.632158 0.632158 0.632158
0.643873 0.643873 0.643873
0.659314 0.659314 0.659314
0.674755 0.674755 0.674755
0.496078 0.496078 0.496078
0.499939 0.499939 0.499939
0.501961 0.501961 0.501961
0.503738 0.503738 0.503738
0.503922 0.503922 0.503922
0.503922 0.503922 0.503922
0.505882 0.505882 0.505882
0.509375 0.509375 0.509375
0.509804 0.509804 0.509804
0.513725 0.513725 0.513725
0.517647 0.517647 0.517647
0.520895 0.520895 0.520895
0.524755 0.524755 0.524755
0.529779 0.529779 0.529779
0.534436 0.534436 0.534436
0.539216 0.539216 0.539216
0.545098 0.545098 0.545098
0.548897 0.548897 0.548897
0.555760 0.555760 0.555760
0.560417 0.560417 0.560417
0.566667 0.566667 0.566667
0.571936 0.571936 0.571936
0.579657 0.579657 0.579657
0.587377 0.587377 0.587377
0.595098 0.595098 0.595098
0.603248 0.603248 0.603248
0.614461 0.614461 0.614461
0.624449 0.624449 0.624449
0.636029 0.636029 0.636029
0.645833 0.645833 0.645833
0.659191 0.659191 0.659191
0.672794 0.672794 0.672794
0.688235 0.688235 0.688235
0.515319 0.515319 0.515319
0.521258 0.521258 0.521258
0.523162 0.523162 0.523162
0.523162 0.523162 0.523162
0.523162 0.523162 0.523162
0.524920 0.524920 0.524920
0.526739 0.526739 0.526739
0.527083 0.527083 0.527083
0.530545 0.530545 0.530545
0.532502 0.532502 0.532502
0.536359 0.536359 0.536359
0.540215 0.540215 0.540215
0.544072 0.544072 0.544072
0.547928 0.547928 0.547928
0.552819 0.552819 0.552819
0.558701 0.558701 0.558701
0.563419 0.563419 0.563419
0.569244 0.569244 0.569244
0.574020 0.574020 0.574020
0.578910 0.578910 0.578910
0.585539 0.585539 0.585539
0.589338 0.589338 0.589338
0.597059 0.597059 0.597059
0.604779 0.604779 0.604779
0.612500 0.612500 0.612500
0.621078 0.621078 0.621078
0.631863 0.631863 0.631863
0.643505 0.643505 0.643505
0.651716 0.651716 0.651716
0.663063 0.663063 0.663063
0.674640 0.674640 0.674640
0.688293 0.688293 0.688293
0.703799 0.703799 0.703799
0.536765 0.536765 0.536765
0.542348 0.542348 0.542348
0.546216 0.546216 0.546216
0.546324 0.546324 0.546324
0.546324 0.546324 0.546324
0.546324 0.546324 0.546324
0.546324 0.546324 0.546324
0.548047 0.548047 0.548047
0.550245 0.550245 0.550245
0.553064 0.553064 0.553064
0.555683 0.555683 0.555683
0.559536 0.559536 0.559536
0.563388 0.563388 0.563388
0.567241 0.567241 0.567241
0.571094 0.571094 0.571094
0.576892 0.576892 0.576892
0.581863 0.581863 0.581863
0.585662 0.585662 0.585662
0.590426 0.590426 0.590426
0.596285 0.596285 0.596285
0.600980 0.600980 0.600980
0.607943 0.607943 0.607943
0.613680 0.613680 0.613680
0.620221 0.620221 0.620221
0.628370 0.628370 0.628370
0.639583 0.639583 0.639583
0.647304 0.647304 0.647304
0.655637 0.655637 0.655637
0.666667 0.666667 0.666667
0.678309 0.678309 0.678309
0.686275 0.686275 0.686275
0.700000 0.700000 0.700000
0.715441 0.715441 0.715441
0.557721 0.557721 0.557721
0.565441 0.565441 0.565441
0.565564 0.565564 0.565564
0.565564 0.565564 0.565564
0.565564 0.565564 0.565564
0.565564 0.565564 0.565564
0.567456 0.567456 0.567456
0.569485 0.569485 0.569485
0.571232 0.571232 0.571232
0.573407 0.573407 0.573407
0.576831 0.576831 0.576831
0.579902 0.579902 0.579902
0.582705 0.582705 0.582705
0.586554 0.586554 0.586554
0.590403 0.590403 0.590403
0.594252 0.594252 0.594252
0.599265 0.599265 0.599265
0.603933 0.603933 0.603933
0.608824 0.608824 0.608824
0.613568 0.613568 0.613568
0.619470 0.619470 0.619470
0.625188 0.625188 0.625188
0.631863 0.631863 0.631863
0.639583 0.639583 0.639583
0.647304 0.647304 0.647304
0.655025 0.655025 0.655025
0.662745 0.662745 0.662745
0.670830 0.670830 0.670830
0.682108 0.682108 0.682108
0.690047 0.690047 0.690047
0.701471 0.701471 0.701471
0.713186 0.713186 0.713186
0.727083 0.727083 0.727083
0.579412 0.579412 0.579412
0.581863 0.581863 0.581863
0.584314 0.584314 0.584314
0.585646 0.585646 0.585646
0.585784 0.585784 0.585784
0.587025 0.587025 0.587025
0.587255 0.587255 0.587255
0.590319 0.590319 0.590319
0.592279 0.592279 0.592279
0.594409 0.594409 0.594409
0.596569 0.596569 0.596569
0.600490 0.600490 0.600490
0.602941 0.602941 0.602941
0.606740 0.606740 0.606740
0.611183 0.611183 0.611183
0.615028 0.615028 0.615028
0.618873 0.618873 0.618873
0.623407 0.623407 0.623407
0.627206 0.627206 0.627206
0.633333 0.633333 0.633333
0.638725 0.638725 0.638725
0.644133 0.644133 0.644133
0.650245 0.650245 0.650245
0.656495 0.656495 0.656495
0.664216 0.664216 0.664216
0.671936 0.671936 0.671936
0.679933 0.679933 0.679933
0.688848 0.688848 0.688848
0.696569 0.696569 0.696569
0.708211 0.708211 0.708211
0.718474 0.718474 0.718474
0.730070 0.730070 0.730070
0.743137 0.743137 0.743137
0.604044 0.604044 0.604044
0.604044 0.604044 0.604044
0.604044 0.604044 0.604044
0.606618 0.606618 0.606618
0.606618 0.606618 0.606618
0.607755 0.607755 0.607755
0.607966 0.607966 0.607966
0.609976 0.609976 0.609976
0.611550 0.611550 0.611550
0.613737 0.613737 0.613737
0.617578 0.617578 0.617578
0.619730 0.619730 0.619730
0.623146 0.623146 0.623146
0.627026 0.627026 0.627026
0.630905 0.630905 0.630905
0.634785 0.634785 0.634785
0.640625 0.640625 0.640625
0.644466 0.644466 0.644466
0.649755 0.649755 0.649755
0.654224 0.654224 0.654224
0.659069 0.659069 0.659069
0.663752 0.663752 0.663752
0.670588 0.670588 0.670588
0.677585 0.677585 0.677585
0.683456 0.683456 0.683456
0.691176 0.691176 0.691176
0.699380 0.699380 0.699380
0.709191 0.709191 0.709191
0.716912 0.716912 0.716912
0.727332 0.727332 0.727332
0.736275 0.736275 0.736275
0.747997 0.747997 0.747997
0.762132 0.762132 0.762132
0.623284 0.623284 0.623284
0.627206 0.627206 0.627206
0.627206 0.627206 0.627206
0.627206 0.627206 0.627206
0.627206 0.627206 0.627206
0.627206 0.627206 0.627206
0.629396 0.629396 0.629396
0.631127 0.631127 0.631127
0.631127 0.631127 0.631127
0.635049 0.635049 0.635049
0.637745 0.637745 0.637745
0.640740 0.640740 0.640740
0.644577 0.644577 0.644577
0.648415 0.648415 0.648415
0.650735 0.650735 0.650735
0.656089 0.656089 0.656089
0.659926 0.659926 0.659926
0.663764 0.663764 0.663764
0.667601 0.667601 0.667601
0.671438 0.671438 0.671438
0.677420 0.677420 0.677420
0.682230 0.682230 0.682230
0.687255 0.687255 0.687255
0.693750 0.693750 0.693750
0.701471 0.701471 0.701471
0.709191 0.709191 0.709191
0.716912 0.716912 0.716912
0.724632 0.724632 0.724632
0.732353 0.732353 0.732353
0.740074 0.740074 0.740074
0.750567 0.750567 0.750567
0.759559 0.759559 0.759559
0.775000 0.775000 0.775000
0.646446 0.646446 0.646446
0.650368 0.650368 0.650368
0.650368 0.650368 0.650368
0.650368 0.650368 0.650368
0.650368 0.650368 0.650368
0.650368 0.650368 0.650368
0.650368 0.650368 0.650368
0.653431 0.653431 0.653431
0.654289 0.654289 0.654289
0.657108 0.657108 0.657108
0.658211 0.658211 0.658211
0.662132 0.662132 0.662132
0.666054 0.666054 0.666054
0.669527 0.669527 0.669527
0.671561 0.671561 0.671561
0.675394 0.675394 0.675394
0.679228 0.679228 0.679228
0.683061 0.683061 0.683061
0.686895 0.686895 0.686895
0.690728 0.690728 0.690728
0.694975 0.694975 0.694975
0.700624 0.700624 0.700624
0.706150 0.706150 0.706150
0.713113 0.713113 0.713113
0.720129 0.720129 0.720129
0.725494 0.725494 0.725494
0.732353 0.732353 0.732353
0.740074 0.740074 0.740074
0.747794 0.747794 0.747794
0.755515 0.755515 0.755515
0.763480 0.763480 0.763480
0.774966 0.774966 0.774966
0.786520 0.786520 0.786520
0.671569 0.671569 0.671569
0.674510 0.674510 0.674510
0.674510 0.674510 0.674510
0.674510 0.674510 0.674510
0.674510 0.674510 0.674510
0.674510 0.674510 0.674510
0.675306 0.675306 0.675306
0.677788 0.677788 0.677788
0.678431 0.678431 0.678431
0.681526 0.681526 0.681526
0.682353 0.682353 0.682353
0.686275 0.686275 0.686275
0.689093 0.689093 0.689093
0.690778 0.690778 0.690778
0.694669 0.694669 0.694669
0.697181 0.697181 0.697181
0.700980 0.700980 0.700980
0.703401 0.703401 0.703401
0.707292 0.707292 0.707292
0.712377 0.712377 0.712377
0.716176 0.716176 0.716176
0.721906 0.721906 0.721906
0.726716 0.726716 0.726716
0.731219 0.731219 0.731219
0.738235 0.738235 0.738235
0.745313 0.745313 0.745313
0.749755 0.749755 0.749755
0.757475 0.757475 0.757475
0.765196 0.765196 0.765196
0.772917 0.772917 0.772917
0.783640 0.783640 0.783640
0.792402 0.792402 0.792402
0.803922 0.803922 0.803922
0.700613 0.700613 0.700613
0.704508 0.704508 0.704508
0.704534 0.704534 0.704534
0.704534 0.704534 0.704534
0.703676 0.703676 0.703676
0.703676 0.703676 0.703676
0.703676 0.703676 0.703676
0.704534 0.704534 0.704534
0.704534 0.704534 0.704534
0.706736 0.706736 0.706736
0.708456 0.708456 0.708456
0.711029 0.711029 0.711029
0.712377 0.712377 0.712377
0.716299 0.716299 0.716299
0.720221 0.720221 0.720221
0.723740 0.723740 0.723740
0.727635 0.727635 0.727635
0.731530 0.731530 0.731530
0.735424 0.735424 0.735424
0.739319 0.739319 0.739319
0.743214 0.743214 0.743214
0.747109 0.747109 0.747109
0.751961 0.751961 0.751961
0.756376 0.756376 0.756376
0.762714 0.762714 0.762714
0.767950 0.767950 0.767950
0.775000 0.775000 0.775000
0.782721 0.782721 0.782721
0.787377 0.787377 0.787377
0.795098 0.795098 0.795098
0.803010 0.803010 0.803010
0.813603 0.813603 0.813603
0.825245 0.825245 0.825245
0.723775 0.723775 0.723775
0.727574 0.727574 0.727574
0.727696 0.727696 0.727696
0.724073 0.724073 0.724073
0.723775 0.723775 0.723775
0.723775 0.723775 0.723775
0.723775 0.723775 0.723775
0.723775 0.723775 0.723775
0.727696 0.727696 0.727696
0.727696 0.727696 0.727696
0.730622 0.730622 0.730622
0.732100 0.732100 0.732100
0.735539 0.735539 0.735539
0.739461 0.739461 0.739461
0.741667 0.741667 0.741667
0.745466 0.745466 0.745466
0.748897 0.748897 0.748897
0.751225 0.751225 0.751225
0.755147 0.755147 0.755147
0.759069 0.759069 0.759069
0.762531 0.762531 0.762531
0.766912 0.766912 0.766912
0.771829 0.771829 0.771829
0.775858 0.775858 0.775858
0.782047 0.782047 0.782047
0.787377 0.787377 0.787377
0.794363 0.794363 0.794363
0.798897 0.798897 0.798897
