public/filters/spongebob.cube
TITLE "Generated by Resolve"
LUT_3D_SIZE 5
0 0.0370336 0.0548409
0.232532 0.0311742 0.0611887
0.523857 0.0117189 0.0481727
0.843305 0 0.0298314
1 0 0.0158541
0.0876478 0.245762 0
0.244114 0.261982 0.0425727
0.609628 0.230823 0.00282292
0.88835 0.220752 0.0125124
1 0.213748 0.00175479
0.269718 0.445838 0
0.434424 0.442481 0.152041
0.540368 0.51104 0
0.939696 0.467292 0
1 0.445304 0
0.448432 0.648035 0
0.652049 0.633799 0.0940566
0.62089 0.698238 0.275929
0.834455 0.75729 0
1 0.713695 0
0.625788 0.849165 0
0.844053 0.830137 0.0331884
0.824842 0.880888 0.302068
0.843549 0.957122 0.209979
1 1 0
0.00289921 0.0456855 0.158724
0.242603 0.0353552 0.207355
0.540734 0.0133059 0.204898
0.857389 0 0.195087
1 0 0.18497
0.00402838 0.268238 0.205905
0.257053 0.263569 0.22829
0.561685 0.251011 0.188754
0.857603 0.238392 0.173983
1 0.227573 0.162707
0.0868696 0.509834 0.0255741
0.453254 0.459449 0.178592
0.544091 0.515084 0.0977035
0.918822 0.475639 0.119112
1 0.463996 0.150835
0.290578 0.710887 0
0.62887 0.662638 0.124208
0.65153 0.703655 0.378225
0.838178 0.760861 0
1 0.716289 0.00860609
0.488106 0.907012 0
0.801312 0.863996 0.0684825
0.87628 0.884672 0.356344
0.860899 0.959655 0.373663
1 1 0
0.0087892 0.0538796 0.281086
0.24123 0.0414282 0.368307
0.552972 0.0128328 0.398245
0.865736 0 0.396872
1 0 0.389761
0.0160525 0.27277 0.366903
0.256931 0.274006 0.370108
0.557778 0.256107 0.391028
0.857893 0.242176 0.380377
1 0.23064 0.371984
0.0281682 0.517403 0.365332
0.29688 0.517372 0.310323
0.545388 0.515724 0.332662
0.86276 0.49247 0.362341
1 0.485252 0.350622
0.0871901 0.769436 0.178607
0.497307 0.719081 0.200458
0.702861 0.704646 0.461021
0.839368 0.761044 0.232914
1 0.720088 0.269627
0.273228 0.979095 0.0087129
0.682216 0.917403 0.133959
0.91194 0.896895 0.370733
0.883284 0.960693 0.537209
1 1 0
0.014435 0.0619669 0.403723
0.236301 0.0528878 0.490349
0.564492 0.0137179 0.583459
0.873045 0 0.584604
1 0 0.577264
0.0225071 0.281147 0.508141
0.264164 0.282368 0.511406
0.560952 0.261036 0.578042
0.860624 0.247044 0.567712
1 0.235691 0.559731
0.0522164 0.517433 0.540291
0.296681 0.518624 0.543328
0.539956 0.519829 0.553475
0.841154 0.505287 0.545068
1 0.493614 0.536828
0.0579232 0.769192 0.506294
0.321386 0.771038 0.447333
0.690455 0.729778 0.494545
0.841733 0.761425 0.462928
1 0.732311 0.505989
0.110842 1 0.314809
0.492149 0.985962 0.256886
0.859358 0.933928 0.402289
0.915496 0.964065 0.649821
1 1 0.194797
0.0191196 0.0693065 0.533547
0.239124 0.0616159 0.61854
0.564385 0.0197299 0.755978
0.878828 0 0.76994
1 0 0.761715
0.0291752 0.289342 0.648112
0.271519 0.290852 0.651667
0.550439 0.273167 0.73463
0.863951 0.25211 0.752117
1 0.240864 0.744411
0.0608072 0.52575 0.679927
0.304814 0.527092 0.683116
0.544427 0.529503 0.688594
0.84445 0.510475 0.729824
1 0.498756 0.721752
0.088014 0.764248 0.710887
0.332662 0.765423 0.71165
0.571038 0.768414 0.705837
0.838804 0.762173 0.70074
1 0.751095 0.694575
0.0852979 1 0.642893
0.33167 1 0.572229
0.689509 0.999512 0.494789
0.969482 0.965225 0.72105
1 1 0.474495
