public/filters/spongebob.cube
TITLE "Generated by Resolve"
LUT_3D_SIZE 33
0 0.0370336 0.0548409
0.018143 0.0374151 0.0555734
0.0417182 0.0386358 0.0576181
0.0729686 0.0371099 0.0634165
0.103716 0.0362249 0.0632334
0.135012 0.035172 0.0628977
0.166659 0.0339971 0.0624704
0.199145 0.0326238 0.0618448
0.232532 0.0311742 0.0611887
0.266285 0.0294041 0.0602426
0.301045 0.0273442 0.0590829
0.336538 0.0251011 0.0576638
0.372549 0.0227207 0.0561532
0.409659 0.0203403 0.0546426
0.446921 0.0176852 0.0523995
0.484977 0.0148013 0.05037
0.523857 0.0117189 0.0481727
0.563226 0.00854505 0.0458686
0.602853 0.00540169 0.0436255
0.643015 0.00222782 0.041413
0.683192 0 0.0389563
0.723369 0 0.0365454
0.763348 0 0.0342107
0.803372 0 0.0318761
0.843305 0 0.0298314
0.88278 0 0.0277714
0.921752 0 0.0258488
0.960678 0 0.0240024
0.999329 0 0.0222934
1 0 0.0204776
1 0 0.019089
1 0 0.01738
1 0 0.0158541
0.000427253 0.0616922 0.0613718
0.0239567 0.0630198 0.0629435
0.0480659 0.0639963 0.0641642
0.0750134 0.0640879 0.0648203
0.106523 0.0629587 0.0641337
0.138659 0.0616464 0.0632792
0.171298 0.0603037 0.0623941
0.204929 0.0587778 0.061326
0.239231 0.0569009 0.0599222
0.274159 0.0548562 0.0583658
0.310048 0.0525368 0.0566415
0.346654 0.0500496 0.0546578
0.383902 0.047715 0.0528115
0.421775 0.0449683 0.0505837
0.460212 0.0420691 0.0482032
0.498924 0.0391241 0.0457771
0.538231 0.0360418 0.0432441
0.578058 0.0331884 0.0409094
0.617548 0.0301976 0.0384527
0.657298 0.0271611 0.0360418
0.696986 0.0241703 0.0336156
0.736584 0.0212558 0.0312505
0.775952 0.0186923 0.0291905
0.815305 0.0161593 0.0272068
0.854215 0.0136721 0.0252232
0.892714 0.0113222 0.0233921
0.930327 0.00927749 0.0213474
0.968215 0.00715648 0.0197147
1 0.00531014 0.0184176
1 0.00334173 0.016968
1 0.00149538 0.0155947
1 0 0.0141146
1 0 0.0128481
0.00164797 0.0893111 0.0618753
0.0252384 0.0907301 0.059205
0.0569162 0.0902113 0.0521096
0.0872053 0.0873274 0.0718547
0.113542 0.0890822 0.0586252
0.1467 0.0872511 0.0625925
0.178195 0.086183 0.0613718
0.211475 0.0847028 0.0590677
0.246128 0.0828565 0.0566567
0.281636 0.0808118 0.0542
0.318334 0.078706 0.0518654
0.35552 0.0762646 0.0491493
0.393027 0.0737163 0.0464027
0.43122 0.0710307 0.043534
0.469871 0.0682841 0.04065
0.508598 0.0656291 0.0378882
0.547906 0.0630198 0.0352026
0.587106 0.0602426 0.0323644
0.626108 0.0575723 0.0296941
0.665278 0.054963 0.0271763
0.704326 0.0524605 0.0247501
0.743282 0.0501411 0.0224918
0.781811 0.0479896 0.0204013
0.820142 0.0457771 0.018265
0.858106 0.0436866 0.0162661
0.895659 0.0417487 0.0144656
0.932723 0.0399481 0.0127871
0.969757 0.0383001 0.0112917
1 0.0367285 0.0104219
1 0.0350195 0.0089723
1 0.0334936 0.00761425
1 0.0318608 0.00619516
1 0.0304112 0.00494392
0.00285344 0.118044 0.0474098
0.0342718 0.117754 0.038819
0.0781872 0.112612 0.0411994
0.109606 0.10898 0.0660868
0.110231 0.115999 0.07776
0.1505 0.115526 0.0460365
0.190829 0.111269 0.0512398
0.225193 0.10901 0.0543374
0.259083 0.107286 0.0538949
0.293858 0.105821 0.0517128
0.329641 0.103899 0.0487373
0.366262 0.101808 0.0455634
0.403433 0.0996109 0.0424811
0.441306 0.0972152 0.0393988
0.479561 0.0948043 0.0363928
0.518044 0.0926223 0.0337377
0.55671 0.0902113 0.0309453
0.595422 0.0878462 0.0282902
0.633829 0.0855726 0.0257725
0.672328 0.083299 0.0233921
0.710872 0.0813611 0.0213626
0.748989 0.0792554 0.0191958
0.786648 0.0773175 0.0172122
0.824216 0.0753948 0.0152895
0.861402 0.0735943 0.0135195
0.898146 0.071931 0.0119173
0.934676 0.0706188 0.0108186
0.97081 0.0690929 0.00976577
1 0.0676738 0.00849927
1 0.0661631 0.00723278
1 0.0647593 0.0059968
1 0.0632029 0.00460822
1 0.0619669 0.00352483
0.0111696 0.145663 0.023621
0.0526436 0.141924 0.0196689
0.0985733 0.1355 0.0324712
0.130129 0.131685 0.058732
0.130709 0.136675 0.0890211
0.140642 0.145708 0.0535439
0.187488 0.14258 0.0299535
0.234195 0.136828 0.0350195
0.27332 0.133272 0.0398871
0.30927 0.130816 0.0428473
0.344717 0.128786 0.0434119
0.380346 0.12697 0.0419471
0.416342 0.125261 0.0395056
0.453315 0.123705 0.0369573
0.490471 0.121843 0.0340429
0.527764 0.119951 0.0312047
0.565454 0.117968 0.0284276
0.60325 0.115984 0.0258488
0.640803 0.114076 0.0234531
0.678691 0.112413 0.0214389
0.716182 0.110552 0.0193179
0.753475 0.108751 0.0173037
0.790326 0.107073 0.0154574
0.827115 0.105425 0.0137179
0.863539 0.103868 0.0121157
0.899733 0.102647 0.0108949
0.935546 0.101289 0.0100557
0.971359 0.0999161 0.00872816
1 0.098558 0.00746166
1 0.0971237 0.0061799
1 0.0957656 0.00489815
1 0.0945144 0.00373846
1 0.0931258 0.00247196
0.026154 0.171527 0.000244144
0.0732128 0.165698 0.00416571
0.118166 0.158755 0.0225071
0.150179 0.154803 0.0497292
0.156847 0.157595 0.0854047
0.153277 0.165942 0.0973831
0.175616 0.175036 0.0301518
0.225788 0.17055 0.013138
0.27628 0.163775 0.017319
0.319417 0.159167 0.0228122
0.358343 0.155917 0.0279088
0.395132 0.153521 0.0313268
0.431342 0.151812 0.0330205
0.467353 0.150088 0.0328527
0.50338 0.148516 0.0315251
0.539452 0.147021 0.0296025
0.57583 0.145495 0.0273289
0.612329 0.143954 0.024979
0.648905 0.142718 0.0229648
0.68542 0.141176 0.020798
0.721813 0.139681 0.0187839
0.758114 0.138201 0.0168612
0.794141 0.136797 0.0151522
0.830396 0.13547 0.01355
0.866514 0.134234 0.0120699
0.90219 0.132906 0.0108034
0.937743 0.131624 0.00962844
0.973342 0.130343 0.00822461
1 0.129076 0.00689708
1 0.127718 0.0055848
1 0.12668 0.00450141
1 0.125231 0.0030518
1 0.123903 0.00172427
0.0452735 0.19649 0
0.0937362 0.189456 0
0.137789 0.182574 0.0123903
0.170413 0.178561 0.0400549
0.182788 0.179736 0.0763867
0.175753 0.188159 0.102693
0.180331 0.196918 0.0900587
0.212726 0.204456 0.0100557
0.2645 0.199359 0
0.316976 0.192233 0.000747692
0.363699 0.186862 0.00698863
0.405249 0.183093 0.0125277
0.443687 0.180163 0.0177615
0.480613 0.177844 0.021622
0.51664 0.175967 0.0239414
0.552193 0.17438 0.0249332
0.587869 0.173053 0.0248112
0.623377 0.171862 0.0240024
0.658518 0.170672 0.0226444
0.693889 0.169467 0.0210117
0.72929 0.168261 0.0192721
0.764813 0.167041 0.0174105
0.800168 0.165896 0.0156252
0.835935 0.16492 0.0140536
0.871397 0.163729 0.012314
0.906615 0.162585 0.0107729
0.941772 0.16144 0.00965896
0.97705 0.160281 0.00823987
1 0.158999 0.00672923
1 0.158099 0.00567636
1 0.156893 0.00428778
1 0.155535 0.00277714
1 0.154284 0.00137331
0.0659342 0.221042 0
0.114458 0.213611 0
0.157794 0.206912 0.00201419
0.191119 0.203021 0.0305943
0.20798 0.203357 0.0667277
0.202884 0.210132 0.101946
0.199329 0.218997 0.112993
0.210575 0.229267 0.0683909
0.250721 0.234241 0
0.303029 0.229023 0
0.35697 0.22182 0
0.405707 0.215732 0
0.449317 0.2112 0
0.489494 0.207721 0.00433356
0.527306 0.20502 0.00976577
0.563729 0.202976 0.0136568
0.599619 0.201404 0.016846
0.634867 0.199893 0.0185702
0.669673 0.198611 0.0193484
0.704616 0.197406 0.0191348
0.739391 0.196307 0.0184329
0.77438 0.195422 0.0174258
0.809079 0.194522 0.0160678
0.843961 0.1935 0.0145266
0.878782 0.192493 0.0128939
0.91339 0.191546 0.0113222
0.948028 0.19057 0.010193
0.982834 0.189639 0.0087129
1 0.188724 0.00726329
1 0.187701 0.00587472
1 0.186618 0.00437934
1 0.185367 0.00274662
1 0.184207 0.00132753
0.0876478 0.245762 0
0.135698 0.238315 0
0.178439 0.231846 0
0.212222 0.228016 0.0217441
0.231983 0.227451 0.0573434
0.231235 0.232609 0.0970626
0.223148 0.241901 0.117968
0.2262 0.250324 0.115557
0.244114 0.261982 0.0425727
0.288884 0.264561 0
0.341588 0.259037 0
0.395346 0.251743 0
0.445716 0.245212 0
0.491264 0.240116 0
0.533165 0.236378 0
0.572244 0.233341 0
0.609628 0.230823 0.00282292
0.645838 0.228763 0.00720226
0.681102 0.227146 0.010193
0.716075 0.225711 0.012314
0.75082 0.224537 0.0138552
0.785519 0.22356 0.0144045
0.81976 0.222583 0.0142061
0.854109 0.221637 0.0135195
0.88835 0.220752 0.0125124
0.922347 0.219959 0.0112917
0.956451 0.219089 0.0104219
0.990906 0.218494 0.00932326
1 0.217533 0.00773632
1 0.216678 0.00636301
1 0.215732 0.00485237
1 0.214649 0.00318914
1 0.213748 0.00175479
0.109987 0.270604 0
0.157473 0.263493 0
0.199573 0.257176 0
0.233387 0.253117 0.0134127
0.255314 0.252018 0.0486763
0.258991 0.255787 0.0895857
0.250523 0.264347 0.119265
0.247349 0.27364 0.130083
0.255085 0.282795 0.107485
0.279255 0.293904 0.0190127
0.327001 0.294636 0
0.379339 0.289174 0
0.433188 0.281956 0
0.485023 0.275166 0
0.532158 0.26981 0
0.575357 0.265446 0
0.615854 0.261906 0
0.654231 0.259052 0
0.690913 0.256764 0
0.727016 0.255055 0.000564584
0.762127 0.253437 0.00424201
0.796796 0.252049 0.00683604
0.830991 0.250889 0.00859083
0.865187 0.249805 0.00962844
0.89926 0.248829 0.00987259
0.933059 0.248173 0.00988785
0.966857 0.247501 0.00947585
1 0.246754 0.00865187
1 0.245899 0.00747692
1 0.245167 0.00640879
1 0.244373 0.00511177
1 0.243442 0.00358587
1 0.242802 0.00234989
0.13286 0.295689 0
0.179294 0.288548 0
0.220752 0.282368 0
0.254643 0.278264 0.00631724
0.278157 0.276814 0.0407874
0.285771 0.279484 0.0814069
0.279454 0.287083 0.117632
0.271794 0.296666 0.135607
0.273976 0.304936 0.137911
0.285344 0.315557 0.09131
0.31574 0.325338 0
0.364813 0.324895 0
0.41738 0.319661 0
0.471244 0.312535 0
0.523583 0.305531 0
0.571908 0.299626 0
0.616587 0.29482 0
0.65832 0.290913 0
0.697581 0.287938 0
0.735363 0.285389 0
0.77174 0.283177 0
0.807233 0.281346 0
0.841962 0.27982 0
0.876402 0.278477 0.000579843
0.910521 0.277378 0.00277714
0.94435 0.276616 0.00453193
0.97789 0.275761 0.00538643
1 0.274846 0.00549325
1 0.274083 0.00535592
1 0.273396 0.0049897
1 0.272847 0.00444038
1 0.272053 0.00340276
1 0.271321 0.00216678
0.155825 0.320638 0
0.201251 0.313588 0
0.242084 0.307576 0
0.276005 0.303487 0
0.300725 0.301808 0.0334783
0.311803 0.303822 0.0733959
0.308232 0.309957 0.113008
0.299062 0.319265 0.138003
0.295903 0.328344 0.14818
0.301961 0.336843 0.137407
0.317311 0.348516 0.069276
0.352865 0.356664 0
0.40293 0.355459 0
0.455299 0.34995 0
0.508705 0.343008 0
0.561517 0.335912 0
0.611017 0.329656 0
0.657084 0.324742 0
0.699611 0.320577 0
0.740047 0.317067 0
0.7785 0.314137 0
0.815549 0.311711 0
0.851423 0.309682 0
0.8869 0.308125 0
0.921538 0.306691 0
0.955459 0.305486 0
0.989197 0.304417 0
1 0.303349 0
1 0.302464 0.000198367
1 0.301793 0.00109865
1 0.301167 0.00143435
1 0.300313 0.00115969
1 0.29958 0.000686656
0.178775 0.34548 0
0.223285 0.338674 0
0.263554 0.33283 0
0.297429 0.328771 0
0.323278 0.327092 0.0264439
0.336782 0.328237 0.0652323
0.336339 0.333303 0.106355
0.327672 0.341833 0.137591
0.320699 0.351446 0.153597
0.322362 0.359838 0.158312
0.331273 0.369543 0.129412
0.350881 0.381506 0.0463569
0.390265 0.38764 0
0.440848 0.385779 0
0.492897 0.380331 0
0.546075 0.37351 0
0.59939 0.366552 0
0.64979 0.360128 0
0.696284 0.354788 0
0.740063 0.350256 0
0.781384 0.346456 0
0.820722 0.343282 0
0.858488 0.340734 0
0.895293 0.338582 0
0.930953 0.336645 0
0.965621 0.335073 0
0.999924 0.333684 0
1 0.332341 0
1 0.331502 0
1 0.330571 0
1 0.329671 0
1 0.32871 0
1 0.327901 0
0.201602 0.370413 0
0.245319 0.363821 0
0.285161 0.358206 0
0.319173 0.354345 0
0.345464 0.352255 0.0193179
0.361089 0.352865 0.0574197
0.363745 0.356985 0.0987411
0.356649 0.364553 0.134813
0.347906 0.374182 0.156527
0.345098 0.383429 0.16669
0.349996 0.391592 0.162402
0.361303 0.402258 0.115755
0.385321 0.413947 0.0229191
0.427787 0.418433 0
0.478431 0.41619 0
0.530709 0.411032 0
0.583688 0.404303 0
0.63682 0.397208 0
0.687434 0.390692 0
0.735088 0.385016 0
0.779767 0.380209 0
0.822156 0.376425 0
0.862303 0.373007 0
0.900862 0.370077 0
0.938079 0.36759 0
0.973999 0.36553 0
1 0.363607 0
1 0.362142 0
1 0.360845 0
1 0.35967 0
1 0.358557 0
1 0.357427 0
1 0.356497 0
0.224338 0.395438 0
0.267353 0.388998 0
0.30692 0.383688 0
0.340703 0.37969 0
0.367559 0.377478 0.0122988
0.384909 0.37763 0.0497292
0.390356 0.380957 0.0906386
0.385687 0.387762 0.130007
0.37644 0.396948 0.157183
0.370047 0.406516 0.171984
0.370993 0.414847 0.177676
0.378302 0.423697 0.160266
0.392386 0.435294 0.0967575
0.420722 0.446052 0.0010071
0.4654 0.449485 0
0.516304 0.446921 0
0.568246 0.44155 0
0.62089 0.434974 0
0.673594 0.428046 0
0.72488 0.421363 0
0.773388 0.41561 0
0.818936 0.410697 0
0.861845 0.406439 0
0.902907 0.402747 0
0.94226 0.399588 0
0.979843 0.396963 0
1 0.394766 0
1 0.392721 0
1 0.390921 0
1 0.38941 0
1 0.387991 0
1 0.386603 0
1 0.385641 0
0.247074 0.420615 0
0.289586 0.414481 0
0.328496 0.409033 0
0.362188 0.405051 0
0.389502 0.402686 0.00575265
0.408316 0.402502 0.0421607
0.416373 0.40528 0.0825513
0.41413 0.411093 0.123613
0.405371 0.419608 0.155489
0.39704 0.429267 0.175128
0.39411 0.438346 0.185046
0.398154 0.446372 0.184924
0.407431 0.456245 0.15227
0.424857 0.468589 0.075288
0.456809 0.478111 0
0.502861 0.480278 0
0.553887 0.47747 0
0.605615 0.47216 0
0.657603 0.465827 0
0.710628 0.459159 0
0.762142 0.45243 0
0.811063 0.446387 0
0.857114 0.441184 0
0.901015 0.436637 0
0.942763 0.432731 0
0.982742 0.429618 0
1 0.426642 0
1 0.424094 0
1 0.421836 0
1 0.419898 0
1 0.418112 0
1 0.416495 0
1 0.415183 0
0.269718 0.445838 0
0.311528 0.439704 0
0.350057 0.434379 0
0.383673 0.430426 0
0.411414 0.42797 0
0.431693 0.427741 0.0349584
0.441825 0.429847 0.0745556
0.441672 0.434806 0.116167
0.434424 0.442481 0.152041
0.425238 0.451926 0.176242
0.419211 0.461494 0.190295
0.419974 0.4701 0.19675
0.426322 0.478553 0.186831
0.437598 0.489281 0.140078
0.457954 0.501472 0.0530709
0.493187 0.509728 0
0.540368 0.51104 0
0.591333 0.50808 0
0.642741 0.50312 0
0.694682 0.49688 0
0.747204 0.490089 0
0.798688 0.483391 0
0.848005 0.477241 0
0.894942 0.471794 0
0.939696 0.467292 0
0.981842 0.463264 0
1 0.459571 0
1 0.456382 0
1 0.453605 0
1 0.451209 0
1 0.449226 0
1 0.447089 0
1 0.445304 0
0.292149 0.47097 0
0.333455 0.464973 0
0.371603 0.459785 0
0.405219 0.455848 0
0.433448 0.453437 0
0.454627 0.452842 0.0276493
0.466621 0.454475 0.0665446
0.468818 0.458717 0.108309
0.46331 0.465599 0.146838
0.454093 0.474617 0.175463
0.446281 0.484428 0.19379
0.443626 0.493614 0.203845
0.446921 0.501656 0.206043
0.454932 0.510842 0.183597
0.468269 0.522301 0.123873
0.491951 0.534173 0.030457
0.530022 0.541283 0
0.577966 0.542077 0
0.628595 0.539055 0
0.67982 0.533913 0
0.731319 0.527749 0
0.783398 0.521111 0
0.834821 0.514458 0
0.884947 0.508415 0
0.932418 0.502785 0
0.977172 0.497978 0
1 0.493538 0
1 0.489708 0
1 0.48632 0
1 0.483543 0
1 0.480888 0
1 0.478325 0
1 0.476112 0
0.314549 0.496147 0
0.355337 0.490318 0
0.393194 0.485206 0
0.427024 0.481529 0
0.455436 0.47892 0
0.477394 0.478004 0.0204471
0.490974 0.47921 0.0588693
0.495369 0.482856 0.100221
0.491844 0.488975 0.140505
0.483452 0.497673 0.173205
0.474479 0.507271 0.195544
0.468894 0.516777 0.209033
0.469062 0.525277 0.215671
0.474571 0.533394 0.210819
0.484108 0.543389 0.176211
0.499886 0.555489 0.104723
0.526848 0.566888 0.00848402
0.566949 0.572717 0
0.614954 0.5729 0
0.66569 0.569741 0
0.716655 0.56466 0
0.767605 0.558679 0
0.819577 0.552438 0
0.871122 0.545769 0
0.921111 0.539437 0
0.968688 0.533776 0
1 0.528588 0
1 0.524102 0
1 0.520211 0
1 0.516655 0
1 0.51339 0
1 0.510292 0
1 0.507637 0
0.336904 0.521385 0
0.377203 0.515694 0
0.415 0.510811 0
0.448631 0.506996 0
0.477302 0.504326 0
0.500008 0.503212 0.0132906
0.514977 0.504082 0.0512398
0.52137 0.507179 0.0921187
0.519722 0.51284 0.13341
0.512535 0.520638 0.169345
0.502968 0.530037 0.195407
0.495827 0.53962 0.212589
0.493004 0.548684 0.222507
0.495705 0.556741 0.226169
0.503014 0.565667 0.211551
0.514168 0.57641 0.165011
0.532326 0.588647 0.0839246
0.561959 0.599023 0
0.603601 0.603891 0
0.652049 0.603647 0
0.702632 0.600473 0
0.753384 0.595728 0
0.803922 0.589868 0
0.855482 0.583444 0
0.906752 0.576883 0
0.956481 0.570642 0
1 0.564767 0
1 0.559609 0
1 0.554833 0
1 0.550622 0
1 0.546746 0
1 0.543099 0
1 0.53991 0
0.359197 0.546654 0
0.399329 0.541329 0
0.436728 0.536355 0
0.470268 0.532464 0
0.499168 0.529732 0
0.522469 0.52845 0.00654612
0.538689 0.52903 0.0437171
0.547112 0.531899 0.0842908
0.547234 0.536797 0.125963
0.541405 0.543832 0.164034
0.53225 0.552712 0.19382
0.523751 0.562325 0.214542
0.518364 0.571817 0.227649
0.518532 0.580606 0.234897
0.523323 0.588556 0.233585
0.531731 0.597925 0.208026
0.54461 0.609247 0.150896
0.565255 0.6215 0.0623789
0.597299 0.630945 0
0.640406 0.634897 0
0.689219 0.634607 0
0.739361 0.631388 0
0.789593 0.626535 0
0.839948 0.620768 0
0.891035 0.614466 0
0.941863 0.608286 0
0.991989 0.602014 0
1 0.595911 0
1 0.590387 0
1 0.585519 0
1 0.580972 0
1 0.576913 0
1 0.573236 0
0.381659 0.572137 0
0.421225 0.566705 0
0.458427 0.561807 0
0.491936 0.557916 0
0.521004 0.555154 0
0.544839 0.553719 0
0.562325 0.554223 0.0364996
0.572168 0.556497 0.0763256
0.574151 0.56083 0.117968
0.56994 0.567193 0.157748
0.561364 0.57554 0.190967
0.552331 0.584985 0.215015
0.54548 0.594888 0.231617
0.542702 0.603906 0.24155
0.544884 0.612009 0.246113
0.551202 0.620325 0.236759
0.560922 0.630365 0.200824
0.575631 0.642191 0.133745
0.598917 0.654353 0.0413825
0.633265 0.662882 0
0.677317 0.666072 0
0.725795 0.665309 0
0.775662 0.662089 0
0.825772 0.657267 0
0.875776 0.651743 0
0.926162 0.645838 0
0.976867 0.639475 0
1 0.63299 0
1 0.626886 0
1 0.621286 0
1 0.616251 0
1 0.611414 0
1 0.607095 0
0.403952 0.597482 0
0.443153 0.592096 0
0.480156 0.587259 0
0.513603 0.583368 0
0.54287 0.580606 0
0.567391 0.579263 0
0.585611 0.579339 0.0292821
0.596811 0.58117 0.0684672
0.600549 0.585 0.109941
0.597696 0.59086 0.150698
0.590433 0.598596 0.186694
0.581491 0.607904 0.214282
0.573236 0.617548 0.23389
0.568093 0.626963 0.246677
0.567834 0.635508 0.253986
0.571984 0.643366 0.254978
0.579538 0.652262 0.236423
0.590814 0.663172 0.190753
0.607324 0.675242 0.115465
0.632868 0.686748 0.0198367
0.669078 0.694347 0
0.713741 0.696925 0
0.762112 0.695949 0
0.812131 0.692943 0
0.861845 0.688228 0
0.910918 0.682826 0
0.96112 0.676814 0
1 0.670405 0
1 0.664088 0
1 0.658152 0
1 0.652293 0
1 0.646693 0
1 0.641764 0
0.4262 0.622766 0
0.46508 0.617472 0
0.501884 0.61268 0
0.535286 0.608804 0
0.564874 0.606195 0
0.589624 0.604547 0
0.608637 0.604425 0.0220645
0.621088 0.605905 0.0609598
0.626459 0.609293 0.101915
0.625223 0.614603 0.143236
0.619394 0.621942 0.181491
0.610544 0.630625 0.211994
0.601602 0.640131 0.234775
0.594842 0.649714 0.250492
0.592172 0.658671 0.260441
0.594079 0.667048 0.265751
0.599802 0.67509 0.260807
0.608469 0.684565 0.233021
0.620874 0.695659 0.178775
0.639384 0.707973 0.0953231
0.667048 0.718837 0
0.704845 0.725673 0
0.75021 0.727932 0
0.798596 0.726772 0
0.847974 0.723522 0
0.896956 0.71902 0
0.945998 0.713634 0
0.995895 0.707759 0
1 0.701595 0
1 0.695308 0
1 0.688991 0
1 0.682811 0
1 0.677211 0
0.448432 0.648035 0
0.487007 0.642817 0
0.523735 0.638163 0
0.557214 0.634455 0
0.586664 0.631586 0
0.611765 0.629831 0
0.631479 0.629511 0.0149386
0.64506 0.630701 0.0534524
0.652049 0.633799 0.0940566
0.652506 0.638712 0.13576
0.647807 0.645212 0.175296
0.639521 0.653422 0.208759
0.630167 0.662745 0.234333
0.622431 0.672297 0.253025
0.617731 0.681788 0.265721
0.617288 0.69041 0.273365
0.62089 0.698238 0.275929
0.627726 0.706706 0.262882
0.637461 0.716731 0.226596
0.651347 0.728298 0.163256
0.671931 0.740597 0.074815
0.701701 0.750942 0
0.740719 0.75697 0
0.786313 0.758572 0
0.834455 0.75729 0
0.883146 0.754162 0
0.932372 0.74992 0
0.981201 0.74461 0
1 0.738674 0
1 0.732525 0
1 0.726116 0
1 0.719631 0
1 0.713695 0
0.47071 0.673259 0
0.508965 0.668132 0
0.545647 0.663676 0
0.578912 0.659815 0
0.608438 0.656931 0
0.633829 0.655085 0
0.654169 0.654597 0.00790417
0.668803 0.655558 0.046067
0.677226 0.658351 0.0862593
0.679088 0.662684 0.127871
0.675471 0.668742 0.168353
0.66833 0.676341 0.204135
0.65919 0.685252 0.232731
0.650797 0.695018 0.25452
0.644434 0.704494 0.269673
0.641657 0.713436 0.279652
0.643015 0.721614 0.285176
0.648112 0.729442 0.283238
0.656031 0.738521 0.262333
0.667048 0.749218 0.217395
0.68246 0.761105 0.146365
0.70486 0.773068 0.0545052
0.736248 0.782559 0
0.776425 0.7879 0
0.822095 0.789151 0
0.869886 0.788083 0
0.918578 0.784924 0
0.967346 0.780499 0
1 0.775143 0
1 0.769436 0
1 0.763272 0
1 0.756878 0
1 0.750439 0
0.493141 0.698634 0
0.531151 0.693645 0
0.567422 0.688975 0
0.60058 0.685145 0
0.630152 0.682216 0
0.655818 0.680293 0
0.67689 0.67985 0.00161746
0.692439 0.680568 0.0389105
0.7019 0.682841 0.0784161
0.70518 0.686717 0.119905
0.702953 0.692287 0.161044
0.69691 0.699382 0.198688
0.688319 0.708125 0.230213
0.679255 0.717449 0.254551
0.671794 0.72697 0.272343
0.667018 0.736233 0.284718
0.666346 0.744747 0.292531
0.669535 0.752682 0.296223
0.675898 0.760952 0.287938
0.684672 0.770459 0.258839
0.696712 0.781476 0.205753
0.713649 0.793561 0.128206
0.737896 0.805188 0.0340276
0.770947 0.813993 0
0.812085 0.818952 0
0.857435 0.819959 0
0.905043 0.818524 0
0.953567 0.815412 0
1 0.811032 0
1 0.806043 0
1 0.800275 0
1 0.793881 0
1 0.787381 0
0.515389 0.723873 0
0.553063 0.718868 0
0.589136 0.714244 0
0.622232 0.710414 0
0.65185 0.707454 0
0.677882 0.705623 0
0.699321 0.70489 0
0.715633 0.705379 0.031632
0.726223 0.707332 0.0706798
