public/filters/spongebob.cube
TITLE "Generated by Resolve"
LUT_3D_SIZE 9
0 0.0370336 0.0548409
0.103716 0.0362249 0.0632334
0.232532 0.0311742 0.0611887
0.372549 0.0227207 0.0561532
0.523857 0.0117189 0.0481727
0.683192 0 0.0389563
0.843305 0 0.0298314
0.999329 0 0.0222934
1 0 0.0158541
0.0111696 0.145663 0.023621
0.130709 0.136675 0.0890211
0.27332 0.133272 0.0398871
0.416342 0.125261 0.0395056
0.565454 0.117968 0.0284276
0.716182 0.110552 0.0193179
0.863539 0.103868 0.0121157
1 0.098558 0.00746166
1 0.0931258 0.00247196
0.0876478 0.245762 0
0.231983 0.227451 0.0573434
0.244114 0.261982 0.0425727
0.445716 0.245212 0
0.609628 0.230823 0.00282292
0.75082 0.224537 0.0138552
0.88835 0.220752 0.0125124
1 0.217533 0.00773632
1 0.213748 0.00175479
0.178775 0.34548 0
0.323278 0.327092 0.0264439
0.320699 0.351446 0.153597
0.390265 0.38764 0
0.59939 0.366552 0
0.781384 0.346456 0
0.930953 0.336645 0
1 0.331502 0
1 0.327901 0
0.269718 0.445838 0
0.411414 0.42797 0
0.434424 0.442481 0.152041
0.426322 0.478553 0.186831
0.540368 0.51104 0
0.747204 0.490089 0
0.939696 0.467292 0
1 0.453605 0
1 0.445304 0
0.359197 0.546654 0
0.499168 0.529732 0
0.547234 0.536797 0.125963
0.518364 0.571817 0.227649
0.54461 0.609247 0.150896
0.689219 0.634607 0
0.891035 0.614466 0
1 0.590387 0
1 0.573236 0
0.448432 0.648035 0
0.586664 0.631586 0
0.652049 0.633799 0.0940566
0.630167 0.662745 0.234333
0.62089 0.698238 0.275929
0.671931 0.740597 0.074815
0.834455 0.75729 0
1 0.738674 0
1 0.713695 0
0.53753 0.748989 0
0.673732 0.732891 0
0.750225 0.731838 0.0632944
0.745632 0.753582 0.221851
0.716258 0.790539 0.303914
0.731853 0.823941 0.28835
0.804776 0.869337 0
0.977539 0.880461 0
1 0.861769 0
0.625788 0.849165 0
0.759976 0.833326 0
0.844053 0.830137 0.0331884
0.857191 0.846326 0.191485
0.824842 0.880888 0.302068
0.812879 0.917754 0.33138
0.843549 0.957122 0.209979
0.942061 1 0
1 1 0
0 0.0413062 0.101137
0.107118 0.0400549 0.125566
0.23801 0.0338598 0.126345
0.380377 0.0246433 0.12369
0.533257 0.0130617 0.118257
0.692561 0.000274662 0.111589
0.851362 0 0.104646
1 0 0.0987716
1 0 0.0932479
0.00827039 0.14696 0.128374
0.118151 0.148836 0.118105
0.254978 0.142016 0.121309
0.406455 0.132891 0.111528
0.560967 0.123964 0.102632
0.713741 0.115892 0.095079
0.861875 0.108965 0.0886854
1 0.103441 0.0838636
1 0.0977798 0.0788586
0.0099031 0.270222 0.0512398
0.204868 0.245731 0.0785687
0.248432 0.263355 0.13434
0.439719 0.248997 0.0795758
0.587991 0.240208 0.0958877
0.728634 0.235416 0.092958
0.870085 0.231174 0.0861067
1 0.226902 0.0802014
1 0.221988 0.0743267
0.0962844 0.376364 0
0.29099 0.346654 0.0504005
0.342855 0.353643 0.190524
0.392813 0.390417 0.0503548
0.600275 0.368185 0.0244144
0.768536 0.352544 0.0516213
0.910521 0.345632 0.0703136
1 0.341817 0.0762798
1 0.339025 0.0743267
0.196384 0.475746 0
0.377432 0.448173 0.023331
0.455619 0.447333 0.166461
0.437934 0.481483 0.246082
0.542763 0.513817 0
0.750301 0.491463 0
0.933303 0.471168 0
1 0.46038 0.0252232
1 0.454002 0.0449531
0.293217 0.575128 0
0.464195 0.550195 0
0.557763 0.545464 0.134356
0.539055 0.574151 0.267994
0.552895 0.610849 0.233829
0.691646 0.637232 0
0.894362 0.615839 0
1 0.593149 0
1 0.57818 0
0.387762 0.675227 0
0.551324 0.652094 0
0.652689 0.644968 0.104494
0.654612 0.665217 0.261799
0.634272 0.701762 0.324819
0.677287 0.742046 0.166155
0.83682 0.759808 0
1 0.740063 0
1 0.715343 0
0.480583 0.775113 0
0.638086 0.753109 0
0.743954 0.744869 0.0763104
0.767086 0.758114 0.237156
0.73611 0.792844 0.344961
0.74229 0.826322 0.353674
0.808362 0.871458 0.0801556
0.98056 0.883085 0
1 0.862898 0
0.571817 0.874388 0
0.724315 0.853361 0
0.832837 0.84445 0.0469978
0.873762 0.85301 0.198718
0.848585 0.883162 0.331289
0.826947 0.921096 0.374395
0.851789 0.959091 0.286275
0.944396 1 0
1 1 0
0.00289921 0.0456855 0.158724
0.103532 0.0464942 0.182147
0.242603 0.0353552 0.207355
0.386648 0.0253758 0.207599
0.540734 0.0133059 0.204898
0.699855 0.00062562 0.200595
0.857389 0 0.195087
1 0 0.190021
1 0 0.18497
0.0118105 0.150225 0.196323
0.119158 0.151598 0.199908
0.255253 0.143938 0.213046
0.408865 0.134585 0.206134
0.564034 0.125505 0.198749
0.716777 0.117403 0.192065
0.864927 0.110506 0.186206
1 0.104875 0.181537
1 0.0988479 0.176715
0.00402838 0.268238 0.205905
0.124376 0.270649 0.18941
0.257053 0.263569 0.22829
0.415137 0.256733 0.196841
0.561685 0.251011 0.188754
0.71046 0.244358 0.180606
0.857603 0.238392 0.173983
1 0.233112 0.168307
1 0.227573 0.162707
0.0135653 0.397009 0.126406
0.203876 0.379553 0.102922
0.362188 0.358724 0.207736
0.393484 0.39176 0.157198
0.593393 0.370169 0.147158
0.74403 0.360418 0.168078
0.881865 0.356313 0.171878
1 0.35317 0.166827
1 0.349737 0.160403
0.0868696 0.509834 0.0255741
0.303197 0.478752 0.0634928
0.453254 0.459449 0.178592
0.453452 0.483589 0.302678
0.544091 0.515084 0.0977035
0.7505 0.491585 0.0919509
0.918822 0.475639 0.119112
1 0.468238 0.140444
1 0.463996 0.150835
0.187381 0.61178 0
0.397055 0.579065 0.033753
0.541527 0.56112 0.151019
0.566323 0.57496 0.304311
0.562448 0.611215 0.325017
0.692882 0.638178 0.045594
0.896559 0.615518 0.0376287
1 0.59556 0.0647288
1 0.583627 0.0909285
0.290578 0.710887 0
0.488472 0.679789 0.0065156
0.62887 0.662638 0.124208
0.678782 0.668894 0.278401
0.65153 0.703655 0.378225
0.68278 0.741695 0.273762
0.838178 0.760861 0
1 0.739727 0
1 0.716289 0.00860609
0.391028 0.809262 0
0.578195 0.779767 0
0.715541 0.763577 0.098024
0.782345 0.765118 0.246082
0.761044 0.793545 0.386664
0.754208 0.828107 0.42208
0.811307 0.871916 0.186709
0.982727 0.88426 0
1 0.862089 0
0.488106 0.907012 0
0.666743 0.879347 0
0.801312 0.863996 0.0684825
0.880064 0.862898 0.204654
0.87628 0.884672 0.356344
0.844968 0.922988 0.423468
0.860899 0.959655 0.373663
0.945602 1 0
1 1 0
0.00576791 0.0496986 0.221241
0.104463 0.0512093 0.242313
0.244312 0.0367285 0.296147
0.392142 0.0252384 0.3028
0.546975 0.0127413 0.303792
0.705455 0.000213626 0.3019
0.861738 0 0.298558
1 0 0.294545
1 0 0.289952
0.0127413 0.153872 0.268559
0.121492 0.154833 0.274678
0.252613 0.146777 0.30898
0.410407 0.135653 0.309941
0.565301 0.126711 0.303609
0.717235 0.118624 0.296864
0.865309 0.112078 0.291402
1 0.106493 0.286702
1 0.10045 0.281666
0.0128176 0.268788 0.294804
0.13344 0.269398 0.295857
0.253452 0.270069 0.296971
0.403006 0.262226 0.300053
0.556863 0.254032 0.293095
0.708507 0.246586 0.286687
0.856855 0.240101 0.281453
1 0.234424 0.276799
1 0.228595 0.272053
0.014847 0.392142 0.291279
0.137224 0.394125 0.275486
0.29929 0.385931 0.247486
0.393515 0.392187 0.27451
0.569589 0.376074 0.280598
0.711315 0.371405 0.278355
0.854459 0.366873 0.270954
0.996826 0.362158 0.264591
1 0.357153 0.258549
0.0231632 0.521843 0.214664
0.189014 0.514153 0.171893
0.395804 0.48571 0.212314
0.479362 0.483696 0.34873
0.544549 0.515236 0.217227
0.742718 0.492515 0.22771
0.892638 0.482399 0.251499
1 0.47834 0.260288
1 0.475364 0.257786
0.0793317 0.641352 0.107164
0.289906 0.616556 0.102052
0.48574 0.586725 0.184375
0.588296 0.579522 0.319265
0.574243 0.611795 0.407584
0.693278 0.638224 0.165927
0.895293 0.614557 0.172091
1 0.598901 0.199405
1 0.590204 0.222126
0.172427 0.747707 0.0214084
0.392477 0.71519 0.0591287
0.57438 0.687984 0.157763
0.684718 0.678676 0.28835
0.675624 0.703593 0.428885
0.689448 0.740307 0.388815
0.838361 0.760845 0.117464
1 0.738231 0.116976
1 0.717281 0.141924
0.276509 0.847456 0
0.491066 0.813519 0.0260014
0.661936 0.788556 0.131563
0.775464 0.778241 0.259419
0.789914 0.793835 0.418311
0.768444 0.829709 0.485313
0.813947 0.870909 0.308431
0.983703 0.884291 0.0423743
1 0.859846 0.00689708
0.380453 0.944579 0
0.585657 0.911589 0
0.74789 0.889021 0.0998703
0.86424 0.878614 0.217609
0.901518 0.888182 0.367773
0.8692 0.922972 0.472969
0.871382 0.959518 0.463767
0.945647 1 0.117403
1 1 0
0.0087892 0.0538796 0.281086
0.10753 0.0550088 0.302968
0.24123 0.0414282 0.368307
0.39791 0.0254673 0.394324
0.552972 0.0128328 0.398245
0.710719 0.000579843 0.398779
0.865736 0 0.396872
1 0 0.394034
1 0 0.389761
0.0140078 0.157839 0.337194
0.124163 0.158404 0.345464
0.24683 0.153857 0.374624
0.412345 0.137362 0.407233
0.566796 0.128603 0.401602
0.718151 0.120668 0.39556
0.8663 0.114107 0.390387
1 0.108385 0.386191
1 0.102449 0.381613
0.0160525 0.27277 0.366903
0.13666 0.273091 0.368429
0.256931 0.274006 0.370108
0.404135 0.264363 0.397726
0.557778 0.256107 0.391028
0.709438 0.248692 0.385351
0.857893 0.242176 0.380377
1 0.236378 0.376181
1 0.23064 0.371984
0.0285801 0.391012 0.383062
0.150973 0.391379 0.384314
0.272312 0.392248 0.385809
0.393774 0.393057 0.384436
0.547387 0.385183 0.378653
0.698878 0.378058 0.372107
0.846967 0.371603 0.366094
0.991836 0.366308 0.361303
1 0.360815 0.356344
0.0281682 0.517403 0.365332
0.151675 0.519692 0.347936
0.29688 0.517372 0.310323
0.483436 0.493568 0.364141
0.545388 0.515724 0.332662
0.724269 0.497307 0.354665
0.86276 0.49247 0.362341
0.999512 0.48954 0.357366
1 0.485252 0.350622
0.0378729 0.647776 0.286809
0.192889 0.643366 0.242939
0.396735 0.620249 0.238727
0.570352 0.595682 0.337041
0.589883 0.613855 0.464866
0.69424 0.638514 0.282078
0.889464 0.615595 0.300267
1 0.604791 0.326406
1 0.599313 0.340322
0.0871901 0.769436 0.178607
0.285237 0.749966 0.153307
0.497307 0.719081 0.200458
0.656901 0.697246 0.310216
0.702861 0.704646 0.461021
0.698146 0.740215 0.485466
0.839368 0.761044 0.232914
1 0.737484 0.244053
1 0.720088 0.269627
0.171878 0.878248 0.0827344
0.38996 0.848981 0.0948501
0.592447 0.817716 0.170108
0.742794 0.797909 0.283543
0.810681 0.798718 0.430655
0.786114 0.831342 0.538506
0.818158 0.870344 0.421225
0.98555 0.884474 0.154131
1 0.857847 0.130907
0.273228 0.979095 0.0087129
0.491966 0.946273 0.0498512
0.682216 0.917403 0.133959
0.827649 0.899626 0.239094
0.91194 0.896895 0.370733
0.896773 0.923186 0.510704
0.883284 0.960693 0.537209
0.946639 1 0.240345
1 1 0
0.0117037 0.0579843 0.341634
0.111086 0.0587625 0.365087
0.237797 0.0473335 0.43003
0.400946 0.0269932 0.481331
0.559274 0.0131228 0.490776
0.715816 0.00131228 0.491829
0.869734 0 0.490867
1 0 0.488106
1 0 0.483757
0.0154116 0.161852 0.405859
0.126802 0.161959 0.414984
0.246754 0.159472 0.438575
0.410819 0.14107 0.49572
0.568689 0.13077 0.495583
0.719753 0.123033 0.489372
0.867842 0.116503 0.484428
1 0.110582 0.479927
1 0.104906 0.475685
0.0192569 0.276951 0.437552
0.140215 0.277226 0.439048
0.260471 0.278187 0.440925
0.4 0.269657 0.480293
0.559411 0.258518 0.484932
0.711009 0.251133 0.479133
0.859297 0.244541 0.474311
1 0.238849 0.470192
1 0.233158 0.466026
0.0334325 0.394675 0.453605
0.155901 0.395209 0.455024
0.27689 0.396139 0.456825
0.39704 0.397055 0.458564
0.549294 0.387457 0.473457
0.701167 0.380163 0.467796
0.849531 0.37348 0.462913
0.994705 0.368017 0.459037
1 0.362341 0.454948
0.0437171 0.514992 0.465965
0.166049 0.515877 0.465858
0.286519 0.51722 0.46363
0.410101 0.519463 0.447272
0.547265 0.515709 0.449866
0.697383 0.507195 0.457694
0.842145 0.502098 0.450965
0.985763 0.497124 0.445655
1 0.491478 0.440055
0.0425574 0.64361 0.435981
0.167193 0.645777 0.415702
0.307103 0.64509 0.378729
0.503716 0.624002 0.377203
0.61416 0.614969 0.503319
0.695705 0.638773 0.397024
0.875929 0.619577 0.422095
1 0.613657 0.438483
1 0.610132 0.437736
0.0543832 0.773541 0.355322
0.204425 0.77023 0.311635
0.395773 0.753109 0.285237
0.599069 0.723339 0.345586
0.7178 0.711452 0.472251
0.708934 0.741512 0.562539
0.840665 0.761349 0.346593
1 0.738216 0.365911
1 0.725032 0.390082
0.0992294 0.895384 0.247211
0.287587 0.879866 0.211566
0.500267 0.851499 0.229236
0.689143 0.822675 0.317678
0.809522 0.810315 0.441764
0.808865 0.832425 0.582193
0.823926 0.87013 0.526024
0.987533 0.88452 0.264149
1 0.856413 0.251972
0.176394 1 0.144228
0.387427 0.980972 0.134905
0.597086 0.950454 0.178805
0.77409 0.924849 0.268605
0.899062 0.912001 0.380941
0.92488 0.924849 0.532876
0.8972 0.962768 0.596094
0.948394 1 0.361364
1 1 0.0656596
0.014435 0.0619669 0.403723
0.114763 0.06215 0.429419
0.236301 0.0528878 0.490349
0.399664 0.0305943 0.561563
0.564492 0.0137179 0.583459
0.720317 0.00248722 0.585489
0.873045 0 0.584604
1 0 0.581811
1 0 0.577264
0.0166171 0.165942 0.475654
0.129854 0.165743 0.485496
0.248951 0.164141 0.505638
0.404318 0.147707 0.570504
0.570153 0.132921 0.588495
0.721218 0.12549 0.582864
0.869245 0.11902 0.577859
1 0.1131 0.573434
1 0.107378 0.569314
0.0225071 0.281147 0.508141
0.143862 0.281376 0.509514
0.264164 0.282368 0.511406
0.393896 0.277302 0.543313
0.560952 0.261036 0.578042
0.712444 0.253635 0.572641
0.860624 0.247044 0.567712
1 0.241428 0.563699
1 0.235691 0.559731
0.0374456 0.398795 0.524025
0.159854 0.399359 0.525444
0.280705 0.40029 0.527199
0.400793 0.401266 0.529259
0.550713 0.390066 0.566537
0.702586 0.382712 0.561303
0.850889 0.376089 0.556405
0.996033 0.370626 0.552575
1 0.36466 0.548409
0.0522164 0.517433 0.540291
0.175235 0.517952 0.541741
0.296681 0.518624 0.543328
0.417594 0.519768 0.545373
0.539956 0.519829 0.553475
0.692546 0.511757 0.549783
0.841154 0.505287 0.545068
0.986191 0.499718 0.541131
1 0.493614 0.536828
0.0585031 0.640223 0.545373
0.180438 0.64123 0.54229
0.301198 0.643259 0.535698
0.425711 0.645579 0.515084
0.603601 0.628809 0.521508
0.697475 0.638575 0.515526
0.851148 0.627741 0.535714
0.986831 0.624323 0.531685
1 0.619806 0.52517
0.0579232 0.769192 0.506294
0.183642 0.771206 0.483742
0.321386 0.771038 0.447333
0.503609 0.756451 0.417975
0.690455 0.729778 0.494545
0.723354 0.743862 0.618952
0.841733 0.761425 0.462928
1 0.741176 0.487068
1 0.732311 0.505989
0.0710002 0.898039 0.423651
0.218204 0.895506 0.380529
0.398123 0.882506 0.343633
0.606836 0.854276 0.366705
0.776013 0.830167 0.466056
0.835096 0.834134 0.609781
0.831449 0.870146 0.623514
0.989364 0.884428 0.378943
1 0.855604 0.377554
0.110842 1 0.314809
0.287877 1 0.269306
0.492149 0.985962 0.256886
0.696559 0.956069 0.30573
0.859358 0.933928 0.402289
0.944091 0.930877 0.538262
0.915496 0.964065 0.649821
0.950652 1 0.485603
1 1 0.194797
0.0167697 0.0655985 0.467445
0.118288 0.0654612 0.495933
0.23711 0.057557 0.553048
0.395834 0.0359045 0.634012
0.566247 0.0158694 0.672999
0.724453 0.00386053 0.678706
0.876127 0 0.677607
1 0 0.674418
1 0 0.669917
0.018265 0.169787 0.546151
0.13286 0.169665 0.55639
0.252033 0.168475 0.574289
0.397436 0.155566 0.63476
0.567956 0.137057 0.675883
0.722988 0.127962 0.675364
0.870954 0.121523 0.670451
1 0.115618 0.666224
1 0.109911 0.662043
0.0256504 0.285115 0.578195
0.147372 0.285618 0.579767
0.267918 0.28658 0.581613
0.392721 0.283696 0.605829
0.557534 0.265888 0.662852
0.714199 0.256153 0.665232
0.862196 0.2495 0.660243
1 0.243992 0.656565
1 0.238285 0.652537
0.0412604 0.403021 0.594095
0.1635 0.403616 0.595621
0.284306 0.404334 0.597131
0.40444 0.40557 0.599542
0.545083 0.396368 0.644327
0.704112 0.385031 0.653788
0.852552 0.378668 0.649149
0.997635 0.373205 0.645518
1 0.367239 0.641245
0.0567178 0.521508 0.610285
0.179324 0.521889 0.611643
0.300969 0.522774 0.613336
0.421424 0.524041 0.615473
0.540764 0.5252 0.619379
0.694255 0.514305 0.642557
0.842741 0.507851 0.637842
0.987488 0.502022 0.633875
1 0.496162 0.629709
0.0708629 0.640696 0.626947
0.193927 0.640986 0.628244
0.31606 0.641749 0.629816
0.436835 0.642832 0.631708
0.556222 0.643977 0.632929
0.685786 0.642588 0.631678
0.832563 0.63653 0.62533
0.976608 0.630716 0.620127
1 0.624842 0.614786
0.0734874 0.765164 0.621927
0.195499 0.766537 0.616388
0.316793 0.768582 0.605615
0.441718 0.770413 0.581979
0.609262 0.760601 0.550912
0.747066 0.745541 0.654917
0.843763 0.760906 0.581109
1 0.747402 0.605509
1 0.742168 0.607431
0.0738994 0.893935 0.575906
0.200275 0.895598 0.551827
0.336828 0.895399 0.515526
0.505425 0.885557 0.475975
0.708766 0.858549 0.504723
0.844694 0.842649 0.619364
0.841337 0.871 0.706065
0.991638 0.883726 0.498283
1 0.856367 0.506004
0.0847639 1 0.489784
0.224445 1 0.443732
0.389609 1 0.392782
0.591257 0.992538 0.375296
0.792813 0.962737 0.434195
0.935027 0.944976 0.547127
0.940841 0.964065 0.69575
0.954711 1 0.609689
1 1 0.331548
0.0191196 0.0693065 0.533547
0.121843 0.0686046 0.564416
0.239124 0.0616159 0.61854
0.39147 0.0420386 0.700572
0.564385 0.0197299 0.755978
0.727794 0.0056611 0.770932
0.878828 0 0.76994
1 0 0.765988
1 0 0.761715
0.0199741 0.173526 0.61709
0.136095 0.173556 0.62739
0.255283 0.172747 0.64361
0.393194 0.162936 0.695567
0.562295 0.143191 0.753979
0.724376 0.130694 0.766537
0.872496 0.123842 0.762066
1 0.118196 0.758038
1 0.11252 0.753948
0.0291752 0.289342 0.648112
0.151064 0.289845 0.649638
0.271519 0.290852 0.651667
0.39443 0.289052 0.671061
0.550439 0.273167 0.73463
0.715373 0.258885 0.756252
0.863951 0.25211 0.752117
1 0.246632 0.748455
1 0.240864 0.744411
0.0450141 0.407294 0.663844
0.1673 0.407874 0.66537
0.287968 0.408637 0.667063
0.40827 0.409857 0.669398
0.5393 0.404334 0.706279
0.705226 0.387961 0.744762
0.854322 0.381292 0.74107
0.999313 0.37586 0.737499
1 0.369894 0.733288
0.0608072 0.52575 0.679927
0.183383 0.526085 0.681224
0.304814 0.527092 0.683116
0.42533 0.528344 0.685145
0.544427 0.529503 0.688594
0.694865 0.517418 0.732937
0.84445 0.510475 0.729824
0.989059 0.504631 0.725887
1 0.498756 0.721752
0.0764324 0.644419 0.696635
0.199619 0.644739 0.697978
0.321508 0.645533 0.699733
0.442039 0.646342 0.70135
0.561547 0.647684 0.703532
0.683268 0.64715 0.71635
0.834409 0.63888 0.718379
0.978759 0.632837 0.714183
1 0.626719 0.709789
0.088014 0.764248 0.710887
0.211154 0.76463 0.711345
0.332662 0.765423 0.71165
0.452476 0.76643 0.710613
0.571038 0.768414 0.705837
0.712337 0.765347 0.68368
0.838804 0.762173 0.70074
0.976364 0.757458 0.703349
1 0.751095 0.694575
0.0888228 0.889525 0.696422
0.210956 0.890791 0.688106
0.332494 0.892607 0.674357
0.457298 0.894423 0.648371
0.609598 0.889799 0.60737
0.804395 0.864271 0.645594
0.855039 0.872923 0.765072
0.994446 0.882414 0.62179
1 0.859892 0.636332
0.0852979 1 0.642893
0.205417 1 0.614649
0.33167 1 0.572229
0.4851 1 0.515526
0.689509 0.999512 0.494789
0.886381 0.969024 0.573556
0.969482 0.965225 0.72105
0.961074 1 0.727932
1 1 0.474495
