src/assets/filters/unhinged.cube
LUT_3D_SIZE 16
0.000000 0.000000 0.000000
0.000000 0.000000 0.000000
0.000000 0.000000 0.000000
0.000000 0.000000 0.000000
0.000000 0.000000 0.000000
0.003922 0.003922 0.011765
0.015686 0.012549 0.040785
0.027451 0.027451 0.077647
0.041569 0.041569 0.120784
0.054118 0.058040 0.166274
0.070588 0.074510 0.219608
0.087844 0.094902 0.272941
0.107451 0.112941 0.330196
0.126275 0.134118 0.389804
0.144314 0.155294 0.447843
0.168549 0.176432 0.513529
0.000000 0.000000 0.000000
0.000000 0.000000 0.000000
0.000000 0.000000 0.000000
0.003137 0.003137 0.010981
0.013177 0.013177 0.040785
0.025098 0.025098 0.077647
0.040784 0.041569 0.119372
0.054118 0.058039 0.166274
0.070588 0.074510 0.216157
0.087059 0.094275 0.272314
0.107451 0.112157 0.327059
0.124706 0.133177 0.385726
0.144627 0.154196 0.447059
0.173961 0.183686 0.529725
0.313568 0.305569 0.855216
0.439020 0.374863 0.980392
0.000000 0.000000 0.000000
0.002353 0.002353 0.009726
0.013961 0.012549 0.040785
0.026039 0.025098 0.075294
0.040000 0.041569 0.117333
0.054118 0.058039 0.162353
0.070588 0.074510 0.215687
0.087059 0.092549 0.269647
0.106510 0.112314 0.326275
0.123922 0.133020 0.384314
0.144314 0.153726 0.443922
0.175372 0.184941 0.534118
0.307294 0.301490 0.842353
0.436236 0.374745 0.980392
0.524392 0.392941 0.980392
0.622510 0.396078 0.953859
0.014118 0.012549 0.036863
0.025098 0.025098 0.074196
0.039216 0.040627 0.115922
0.054118 0.054118 0.162353
0.070588 0.074510 0.211765
0.087059 0.090981 0.267451
0.104000 0.111372 0.324706
0.123922 0.131765 0.382902
0.143686 0.153569 0.441569
0.173804 0.181961 0.524863
0.303530 0.298039 0.834510
0.434824 0.373334 0.980392
0.521569 0.392157 0.980392
0.618824 0.396078 0.956862
0.721255 0.396078 0.888627
0.817828 0.396078 0.814274
0.038432 0.038432 0.113725
0.054118 0.054118 0.162353
0.070588 0.074039 0.211765
0.087059 0.090981 0.264784
0.103529 0.111215 0.321569
0.123921 0.131764 0.381961
0.143686 0.152157 0.440627
0.167686 0.177569 0.513255
0.296941 0.294588 0.824785
0.430588 0.372549 0.978823
0.516863 0.391373 0.980392
0.614902 0.396078 0.958588
0.717647 0.396078 0.892863
0.816471 0.396078 0.815373
0.901961 0.405647 0.746667
0.973961 0.428165 0.705177
0.070588 0.070588 0.211765
0.087059 0.090980 0.265098
0.103529 0.111372 0.320000
0.123922 0.131765 0.378039
0.143529 0.152157 0.436863
0.160784 0.172549 0.498039
0.290196 0.291765 0.818824
0.427451 0.371765 0.980392
0.516078 0.390588 0.980392
0.614118 0.396078 0.960000
0.713725 0.396078 0.894118
0.812549 0.396078 0.816471
0.901961 0.405490 0.748235
0.971765 0.428235 0.705098
1.000000 0.454902 0.698039
1.000000 0.470549 0.698039
0.103530 0.108235 0.319215
0.121412 0.129255 0.376627
0.141176 0.150274 0.435294
0.166118 0.177098 0.509490
0.286117 0.286588 0.805647
0.426667 0.370980 0.980392
0.511372 0.389804 0.980392
0.610980 0.396078 0.962039
0.709804 0.396078 0.897255
0.808628 0.396706 0.820392
0.898039 0.405491 0.751373
0.969255 0.428235 0.706196
1.000000 0.456000 0.698039
1.000000 0.470588 0.698823
1.000000 0.487059 0.705255
1.000000 0.504267 0.710580
0.140392 0.149804 0.434509
0.164549 0.173177 0.501647
0.280784 0.281098 0.791529
0.421647 0.368941 0.976627
0.508706 0.389333 0.980392
0.607059 0.396078 0.963137
0.706667 0.396078 0.899608
0.807059 0.396706 0.822745
0.895529 0.404863 0.754039
0.966902 0.424784 0.707137
1.000000 0.454118 0.698039
1.000000 0.470588 0.699608
1.000000 0.487059 0.703529
1.000000 0.503529 0.710745
1.000000 0.523922 0.718431
1.000000 0.545827 0.727059
0.277647 0.278432 0.784314
0.417098 0.366902 0.974117
0.505882 0.389647 0.980392
0.603137 0.396078 0.964392
0.703843 0.396078 0.900078
0.802353 0.396078 0.825883
0.892392 0.403138 0.754980
0.965333 0.425255 0.709961
0.999372 0.454118 0.698039
1.000000 0.470588 0.699922
1.000000 0.487059 0.704314
1.000000 0.503529 0.709019
1.000000 0.522980 0.717647
1.000000 0.544314 0.727216
1.000000 0.567059 0.738823
1.000000 0.591310 0.749780
0.501961 0.390588 0.980392
0.599216 0.396078 0.965804
0.701490 0.396078 0.902745
0.800784 0.396078 0.829019
0.890039 0.402353 0.758431
0.962353 0.425098 0.709019
0.999372 0.453490 0.698039
1.000000 0.467451 0.699294
1.000000 0.483137 0.703843
1.000000 0.503529 0.709020
1.000000 0.523137 0.716863
1.000000 0.543686 0.728000
1.000000 0.565961 0.738039
1.000000 0.590588 0.750118
1.000000 0.615686 0.763137
1.000000 0.640706 0.778784
0.698039 0.396078 0.905882
0.796863 0.396078 0.831372
0.886274 0.401569 0.758432
0.962353 0.421961 0.709019
1.000000 0.454118 0.698039
1.000000 0.466667 0.698039
1.000000 0.483137 0.702745
1.000000 0.503529 0.709804
1.000000 0.522353 0.717647
1.000000 0.543529 0.725490
1.000000 0.564706 0.737255
1.000000 0.589019 0.749804
1.000000 0.614902 0.762353
1.000000 0.640000 0.778824
1.000000 0.665098 0.791373
1.000000 0.690157 0.807804
0.885490 0.401569 0.762353
0.958275 0.422902 0.712471
1.000000 0.453804 0.698039
1.000000 0.466667 0.698823
1.000000 0.483137 0.702745
1.000000 0.500392 0.710588
1.000000 0.520784 0.718431
1.000000 0.542431 0.726588
1.000000 0.565176 0.736784
1.000000 0.589019 0.749177
1.000000 0.614118 0.762353
1.000000 0.638588 0.777412
1.000000 0.664314 0.791372
1.000000 0.690981 0.807843
1.000000 0.718431 0.824314
1.000000 0.743490 0.840745
1.000000 0.452549 0.698039
1.000000 0.466667 0.698353
1.000000 0.483137 0.703529
1.000000 0.500549 0.709804
1.000000 0.520000 0.716549
1.000000 0.541961 0.727059
1.000000 0.565019 0.736941
1.000000 0.587608 0.749177
1.000000 0.613333 0.762353
1.000000 0.638431 0.775373
1.000000 0.663530 0.791372
1.000000 0.689882 0.807843
1.000000 0.716706 0.823686
1.000000 0.742745 0.839216
1.000000 0.768628 0.856000
1.000000 0.796785 0.872133
1.000000 0.483137 0.704314
1.000000 0.499608 0.708549
1.000000 0.520000 0.716078
1.000000 0.541804 0.726275
1.000000 0.563137 0.735372
1.000000 0.587451 0.747451
1.000000 0.611765 0.762353
1.000000 0.637647 0.774902
1.000000 0.662745 0.791372
1.000000 0.688628 0.805490
1.000000 0.716863 0.820392
1.000000 0.741961 0.836863
1.000000 0.769412 0.853333
1.000000 0.795137 0.869804
1.000000 0.821176 0.886275
1.000000 0.846196 0.902706
1.000000 0.520000 0.716863
1.000000 0.539764 0.725490
1.000000 0.562039 0.736000
1.000000 0.586667 0.747922
1.000000 0.611765 0.762353
1.000000 0.636863 0.774902
1.000000 0.661961 0.791373
1.000000 0.688941 0.803922
1.000000 0.715608 0.820392
1.000000 0.741176 0.836863
1.000000 0.766274 0.853333
1.000000 0.794510 0.869804
1.000000 0.820392 0.886275
1.000000 0.845490 0.902745
1.000000 0.868078 0.919216
1.000000 0.891726 0.932510
1.000000 0.560706 0.737177
1.000000 0.584988 0.745843
1.000000 0.609294 0.760721
1.000000 0.635961 0.774824
1.000000 0.661059 0.788188
1.000000 0.686157 0.803844
1.000000 0.714392 0.820314
1.000000 0.740275 0.836784
1.000000 0.766925 0.853255
1.000000 0.794360 0.869725
1.000000 0.819490 0.886197
1.000000 0.843804 0.902667
1.000000 0.868118 0.919137
1.000000 0.890879 0.931702
1.000000 0.912855 0.948157
1.000000 0.933215 0.960666
0.000000 0.000000 0.000000
0.000000 0.000000 0.000000
0.000000 0.000000 0.000000
0.000000 0.000000 0.000000
0.000000 0.000000 0.000000
0.007843 0.007843 0.020392
0.019765 0.017255 0.053961
0.032941 0.032941 0.093647
0.045490 0.046274 0.137255
0.061961 0.062745 0.186667
0.078431 0.082353 0.236863
0.094902 0.100235 0.293490
0.113412 0.121255 0.350902
0.132549 0.142274 0.410510
0.152784 0.163294 0.469647
0.218502 0.229451 0.652439
0.000000 0.000000 0.000000
0.000000 0.000000 0.000000
0.000063 0.000063 0.000722
0.007122 0.007059 0.020392
0.019639 0.017600 0.053333
0.032314 0.032314 0.090981
0.045490 0.046274 0.136471
0.061961 0.062745 0.182808
0.078431 0.082353 0.236172
0.094902 0.100110 0.290824
0.112784 0.120628 0.348235
0.132173 0.141020 0.408784
0.152314 0.162416 0.468298
0.214651 0.224533 0.640942
0.368345 0.343498 0.938980
0.468822 0.382712 0.980392
0.000000 0.000000 0.000314
0.006526 0.005898 0.020079
0.018070 0.018070 0.052863
0.031498 0.030557 0.090196
0.045490 0.045584 0.133804
0.060706 0.062275 0.182745
0.077427 0.080847 0.234196
0.094902 0.099326 0.290227
0.111968 0.119529 0.346980
0.132016 0.139922 0.406118
0.152471 0.162039 0.466667
0.212141 0.219451 0.627702
0.363953 0.338824 0.928816
0.467953 0.382557 0.980392
0.560533 0.395607 0.977631
0.659373 0.396078 0.931606
0.018039 0.016784 0.049412
0.030337 0.030714 0.089412
0.045490 0.045490 0.133333
0.059326 0.061961 0.181051
0.075294 0.079216 0.232533
0.093647 0.099294 0.287843
0.111843 0.119310 0.345255
0.131012 0.139043 0.404392
0.150902 0.160471 0.464000
0.206839 0.216188 0.620173
0.361255 0.336000 0.925647
0.464314 0.382400 0.980392
0.556863 0.394635 0.978321
0.656157 0.396078 0.933647
0.758431 0.396078 0.860298
0.852338 0.398431 0.787624
0.045490 0.045490 0.130196
0.058824 0.061961 0.178824
0.075294 0.079121 0.231686
0.091765 0.098573 0.285553
0.111372 0.118588 0.342589
0.131137 0.138980 0.403137
0.149522 0.159623 0.461678
0.203953 0.214463 0.612424
0.355702 0.334745 0.920032
0.460518 0.381302 0.980392
0.553098 0.395294 0.980392
0.652549 0.396078 0.935561
0.754510 0.396078 0.864377
0.848690 0.399216 0.788486
0.931263 0.412329 0.727969
0.992033 0.443812 0.699466
0.074510 0.078431 0.228235
0.091765 0.098823 0.282980
0.111372 0.117333 0.340863
0.130510 0.138353 0.400471
0.149020 0.159372 0.460392
0.195294 0.206275 0.591373
0.350745 0.331765 0.919059
0.459608 0.381961 0.980392
0.549020 0.394510 0.980392
0.648627 0.396078 0.938824
0.750589 0.396078 0.865883
0.845490 0.397490 0.791372
0.928941 0.411451 0.727843
0.992157 0.440784 0.699294
1.000000 0.461961 0.698039
1.000000 0.475255 0.701961
0.111373 0.116706 0.339608
0.128753 0.137098 0.398274
0.148894 0.158557 0.458353
0.193945 0.203106 0.582996
0.343906 0.327090 0.905945
0.456471 0.379451 0.980392
0.545726 0.393569 0.979106
0.646337 0.396078 0.939608
0.747043 0.396078 0.869553
0.844079 0.397490 0.792659
0.926118 0.410824 0.731921
0.986823 0.439968 0.700047
1.000000 0.461334 0.698039
1.000000 0.475294 0.701961
1.000000 0.492267 0.706541
1.000000 0.511490 0.714470
0.148549 0.158118 0.455686
0.192063 0.201443 0.578510
0.338573 0.323796 0.895122
0.452549 0.379890 0.980392
0.543592 0.393725 0.980141
0.643921 0.396078 0.940863
0.743278 0.396078 0.871373
0.839498 0.397961 0.796894
0.924267 0.409726 0.733459
0.986353 0.438118 0.700863
1.000000 0.460706 0.698039
1.000000 0.474980 0.701961
1.000000 0.491765 0.706510
1.000000 0.511561 0.713725
1.000000 0.531639 0.722353
1.000000 0.553674 0.731272
0.334118 0.321098 0.889883
0.450259 0.377945 0.980392
0.540424 0.393757 0.980204
0.640000 0.396078 0.944031
0.740988 0.396078 0.874604
0.836078 0.398431 0.799529
0.920691 0.409506 0.735623
0.984533 0.437616 0.701302
1.000000 0.460079 0.698039
1.000000 0.474510 0.701647
1.000000 0.491451 0.705882
1.000000 0.511372 0.712564
1.000000 0.531200 0.721569
1.000000 0.553255 0.731263
1.000000 0.575529 0.742839
1.000000 0.599953 0.755260
0.538039 0.394666 0.980392
0.636079 0.396078 0.946792
0.738824 0.396078 0.876392
0.834510 0.397961 0.801317
0.918714 0.409412 0.736471
0.983686 0.436706 0.700235
1.000000 0.459200 0.698039
1.000000 0.474510 0.701239
1.000000 0.490981 0.705568
1.000000 0.510243 0.712439
1.000000 0.531137 0.720785
1.000000 0.551780 0.729914
1.000000 0.574243 0.741961
1.000000 0.598745 0.754761
1.000000 0.624314 0.768188
1.000000 0.649365 0.782863
0.734902 0.396078 0.877647
0.832941 0.396862 0.803137
0.917176 0.409412 0.738823
0.983059 0.434824 0.699608
1.000000 0.458196 0.698039
1.000000 0.474510 0.701961
1.000000 0.490980 0.705882
1.000000 0.509490 0.711843
1.000000 0.528627 0.720314
1.000000 0.551529 0.730039
1.000000 0.573333 0.741176
1.000000 0.598274 0.753725
1.000000 0.623216 0.767059
1.000000 0.648627 0.782745
1.000000 0.674353 0.796706
1.000000 0.701890 0.812510
0.914353 0.406902 0.739608
0.980047 0.433569 0.702557
1.000000 0.458039 0.698039
1.000000 0.474510 0.700706
1.000000 0.490980 0.705506
1.000000 0.508235 0.711216
1.000000 0.528753 0.719843
1.000000 0.550714 0.730761
1.000000 0.573804 0.741051
1.000000 0.597521 0.753851
1.000000 0.622745 0.766902
1.000000 0.647686 0.782619
1.000000 0.673318 0.796078
1.000000 0.701239 0.812455
1.000000 0.727184 0.828235
1.000000 0.752733 0.844666
1.000000 0.458039 0.698039
1.000000 0.472878 0.700078
1.000000 0.489851 0.704878
1.000000 0.507765 0.711372
1.000000 0.528157 0.719467
1.000000 0.550275 0.730980
1.000000 0.573114 0.740925
1.000000 0.596549 0.753726
1.000000 0.621490 0.766745
1.000000 0.647310 0.781741
1.000000 0.672157 0.796079
1.000000 0.700016 0.811765
1.000000 0.726086 0.828235
1.000000 0.752628 0.844706
1.000000 0.779765 0.861177
1.000000 0.805412 0.877608
1.000000 0.487843 0.704314
1.000000 0.507545 0.712157
1.000000 0.527278 0.720000
1.000000 0.549835 0.729443
1.000000 0.571608 0.741239
1.000000 0.596078 0.753726
1.000000 0.621020 0.766525
1.000000 0.645961 0.780863
1.000000 0.672627 0.795608
1.000000 0.698761 0.811765
1.000000 0.725490 0.828235
1.000000 0.752094 0.844706
1.000000 0.778604 0.861177
1.000000 0.804236 0.877647
1.000000 0.830180 0.894118
1.000000 0.854389 0.910549
1.000000 0.527216 0.720785
1.000000 0.547859 0.729286
1.000000 0.572078 0.740266
1.000000 0.594824 0.752220
1.000000 0.619764 0.766306
1.000000 0.645490 0.780235
1.000000 0.670557 0.795294
1.000000 0.697569 0.811765
1.000000 0.724612 0.828235
1.000000 0.750431 0.844706
1.000000 0.778039 0.861176
1.000000 0.803765 0.877647
1.000000 0.828706 0.894118
1.000000 0.853647 0.908078
1.000000 0.878588 0.923419
1.000000 0.899724 0.939568
1.000000 0.569325 0.741105
1.000000 0.594235 0.753026
1.000000 0.619176 0.766201
1.000000 0.644118 0.779542
1.000000 0.670314 0.795215
1.000000 0.697890 0.811687
1.000000 0.723647 0.828157
1.000000 0.750766 0.844627
1.000000 0.777429 0.861098
1.000000 0.802392 0.877568
1.000000 0.828118 0.890933
1.000000 0.853059 0.907372
1.000000 0.876292 0.923067
1.000000 0.899037 0.937666
1.000000 0.920675 0.952086
1.000000 0.941027 0.964597
0.000000 0.000000 0.000000
0.000000 0.000000 0.000000
0.000000 0.000000 0.000000
0.000000 0.000000 0.000000
0.000000 0.000000 0.004392
0.011765 0.011765 0.032941
0.024313 0.023843 0.068549
0.036863 0.036863 0.108235
0.050980 0.053333 0.153726
0.067451 0.069804 0.203137
0.083922 0.087843 0.258039
0.102745 0.108235 0.314039
0.120784 0.128627 0.372549
0.140549 0.149020 0.431216
0.160000 0.171294 0.492863
0.274941 0.278902 0.786620
0.000000 0.000000 0.000000
0.000000 0.000000 0.000000
0.000910 0.000784 0.003765
0.011106 0.010980 0.032816
0.023592 0.022086 0.066510
0.036863 0.036863 0.107451
0.050918 0.053333 0.153726
0.065882 0.069804 0.203137
0.083420 0.088126 0.256659
0.100863 0.106980 0.313349
0.119529 0.127372 0.371765
0.139922 0.148110 0.429804
0.162761 0.172329 0.497600
0.271843 0.273098 0.770981
0.416879 0.366588 0.977380
0.501757 0.388988 0.980392
0.001569 0.001569 0.003765
0.010698 0.009914 0.030620
0.023121 0.022557 0.065694
0.036298 0.036863 0.106667
0.050353 0.053145 0.152157
0.065882 0.069804 0.201725
0.082478 0.087279 0.254306
0.100769 0.106918 0.310808
0.119592 0.127435 0.369004
0.139325 0.147953 0.427890
0.159216 0.168471 0.488314
0.265694 0.267608 0.759687
0.410949 0.363545 0.971357
0.499200 0.388863 0.980392
0.596423 0.396078 0.967090
0.696236 0.396078 0.906980
0.021961 0.021019 0.064314
0.035451 0.036581 0.105098
0.049788 0.050980 0.149804
0.065882 0.069428 0.199216
0.082353 0.087028 0.253114
0.099765 0.106667 0.308235
0.119216 0.126494 0.366275
0.138666 0.147263 0.425631
0.158243 0.168031 0.486651
0.261051 0.264785 0.749679
0.405961 0.362824 0.968784
0.496471 0.389333 0.980392
0.593726 0.396078 0.968376
0.693114 0.396078 0.908392
0.793130 0.396078 0.834039
0.884657 0.402330 0.762510
0.049411 0.050980 0.146667
0.065883 0.067828 0.197616
0.082353 0.086275 0.250761
0.099576 0.106196 0.306322
0.118369 0.126149 0.365490
0.137255 0.146981 0.423530
0.157773 0.167717 0.484581
0.256188 0.259326 0.738698
0.405177 0.360439 0.967937
0.493334 0.387827 0.980392
0.589804 0.396078 0.969725
0.690416 0.396078 0.910118
0.790619 0.396078 0.835922
0.881255 0.401569 0.764110
0.956769 0.421270 0.713192
0.998717 0.452031 0.698047
0.082353 0.086275 0.248627
0.098823 0.104784 0.305882
0.116863 0.124706 0.363137
0.136627 0.146510 0.422745
0.157333 0.167372 0.481569
0.249412 0.255686 0.728627
0.405176 0.362039 0.976627
0.490980 0.387451 0.980392
0.585882 0.396078 0.974745
0.688157 0.396078 0.913725
0.787451 0.396078 0.837647
0.877647 0.400784 0.766275
0.954510 0.419764 0.712941
1.000000 0.453333 0.698039
1.000000 0.465883 0.698039
1.000000 0.482314 0.701961
0.117333 0.125177 0.360314
0.136251 0.145568 0.419733
0.156957 0.166651 0.481820
0.245271 0.251294 0.714008
0.398118 0.359279 0.967717
0.486275 0.387137 0.980392
0.581961 0.396078 0.974023
0.684706 0.396078 0.914980
0.783530 0.396078 0.841537
0.875702 0.401412 0.768219
0.952471 0.418353 0.716392
1.000000 0.451294 0.698039
1.000000 0.465882 0.698541
1.000000 0.482353 0.702557
1.000000 0.499137 0.709427
1.000000 0.519487 0.716062
0.156078 0.166431 0.479216
0.240125 0.247529 0.702400
0.390745 0.354917 0.957427
0.485490 0.386447 0.980392
0.579012 0.395796 0.973176
0.680784 0.396078 0.918588
0.779796 0.396078 0.843106
0.872314 0.401820 0.771012
0.949835 0.418259 0.717804
0.997176 0.449537 0.698039
1.000000 0.465882 0.698039
1.000000 0.482353 0.702777
1.000000 0.499075 0.708643
1.000000 0.518651 0.715670
1.000000 0.539827 0.725145
1.000000 0.561520 0.735509
0.387922 0.352784 0.955294
0.482039 0.385882 0.980392
0.576628 0.395513 0.974274
0.676863 0.396078 0.919780
0.777255 0.396078 0.846275
0.869804 0.402353 0.772706
0.947984 0.417914 0.718117
0.996235 0.448094 0.698604
1.000000 0.465882 0.698039
1.000000 0.480188 0.702714
1.000000 0.498824 0.708235
1.000000 0.518275 0.716078
1.000000 0.539043 0.725114
1.000000 0.561412 0.735059
1.000000 0.584000 0.746855
1.000000 0.608573 0.760132
0.574118 0.395294 0.976000
0.673192 0.396078 0.922635
0.774651 0.396078 0.848627
0.866636 0.400157 0.775122
0.945631 0.416408 0.719215
0.996706 0.448157 0.698510
1.000000 0.464000 0.698039
1.000000 0.480000 0.701961
1.000000 0.498635 0.708267
1.000000 0.516800 0.716078
1.000000 0.538823 0.724706
1.000000 0.559874 0.734337
1.000000 0.584157 0.746635
1.000000 0.608784 0.759686
1.000000 0.633412 0.774118
1.000000 0.659848 0.788201
0.771765 0.396078 0.851765
0.864628 0.400314 0.777569
0.943686 0.415843 0.719843
0.997490 0.448470 0.698039
1.000000 0.463530 0.698039
1.000000 0.480000 0.701961
1.000000 0.496941 0.706666
1.000000 0.515921 0.715294
1.000000 0.537255 0.723922
1.000000 0.559529 0.734588
1.000000 0.581961 0.745098
1.000000 0.606745 0.758902
1.000000 0.632157 0.774118
1.000000 0.658196 0.787294
1.000000 0.685020 0.803138
1.000000 0.711317 0.819569
0.941176 0.415686 0.720784
0.995984 0.445396 0.698039
1.000000 0.463216 0.698353
1.000000 0.478431 0.702431
1.000000 0.496847 0.706666
1.000000 0.515607 0.714509
1.000000 0.536345 0.723388
1.000000 0.558996 0.734933
1.000000 0.582118 0.745600
1.000000 0.606745 0.758902
1.000000 0.631373 0.773647
1.000000 0.658353 0.786667
1.000000 0.683357 0.803137
1.000000 0.710588 0.819608
1.000000 0.736533 0.836078
1.000000 0.763385 0.852510
1.000000 0.462902 0.698039
1.000000 0.478431 0.702275
1.000000 0.495906 0.707451
1.000000 0.515670 0.714353
1.000000 0.535906 0.722855
1.000000 0.558588 0.734902
1.000000 0.581396 0.745851
1.000000 0.605114 0.758212
1.000000 0.631529 0.772329
1.000000 0.656157 0.786667
1.000000 0.683137 0.803137
1.000000 0.709490 0.818667
1.000000 0.736314 0.833726
1.000000 0.762980 0.850196
1.000000 0.789208 0.866667
1.000000 0.814063 0.883098
1.000000 0.494902 0.708235
1.000000 0.514541 0.714196
1.000000 0.535498 0.723357
1.000000 0.557867 0.733553
1.000000 0.580204 0.745224
1.000000 0.604706 0.757647
1.000000 0.629490 0.771577
1.000000 0.655749 0.786667
1.000000 0.682165 0.802290
1.000000 0.708518 0.817255
1.000000 0.734118 0.833726
1.000000 0.762133 0.850196
1.000000 0.787608 0.866667
1.000000 0.814275 0.883137
1.000000 0.838902 0.898667
1.000000 0.863475 0.914471
1.000000 0.535216 0.722353
1.000000 0.556957 0.733239
1.000000 0.580235 0.745286
1.000000 0.604110 0.757772
1.000000 0.629490 0.770855
1.000000 0.654118 0.786666
1.000000 0.681098 0.801161
1.000000 0.707608 0.817255
1.000000 0.734274 0.833726
1.000000 0.761098 0.850196
1.000000 0.787451 0.866667
1.000000 0.812235 0.881882
1.000000 0.838777 0.898039
1.000000 0.862181 0.914510
1.000000 0.886588 0.929475
1.000000 0.907722 0.943493
1.000000 0.577945 0.745035
1.000000 0.602706 0.757581
1.000000 0.628111 0.770133
1.000000 0.654157 0.785191
1.000000 0.680959 0.800706
1.000000 0.707318 0.815623
1.000000 0.732431 0.832079
1.000000 0.760805 0.848549
1.000000 0.785608 0.865020
1.000000 0.812118 0.881490
1.000000 0.836745 0.897961
1.000000 0.861530 0.914431
1.000000 0.884450 0.928573
1.000000 0.907195 0.943457
1.000000 0.928526 0.956021
1.000000 0.946549 0.968549
0.000000 0.000000 0.000000
0.000000 0.000000 0.000000
0.000000 0.000000 0.000000
0.000000 0.000000 0.000000
0.003608 0.003608 0.012863
0.015686 0.015686 0.045490
0.028235 0.028235 0.082353
0.042196 0.043137 0.124706
0.057255 0.059608 0.173490
0.073726 0.077647 0.223529
0.090196 0.096471 0.276863
0.109020 0.114980 0.334902
0.128000 0.135843 0.394353
0.147451 0.156706 0.453961
0.182902 0.194353 0.557961
0.334510 0.322063 0.895788
0.000000 0.000000 0.000000
0.000000 0.000000 0.000094
0.004141 0.003953 0.013114
0.015090 0.015090 0.044737
0.027984 0.027984 0.081725
0.040785 0.042667 0.123922
0.057255 0.059608 0.170196
0.073725 0.076392 0.222776
0.090196 0.094588 0.276831
0.107137 0.114886 0.334118
0.127059 0.135372 0.392157
0.146541 0.156204 0.452330
0.183310 0.193161 0.555451
0.328784 0.316204 0.881130
0.447843 0.377475 0.980392
0.535483 0.392929 0.980392
0.004549 0.002510 0.011608
0.014871 0.013929 0.042635
0.027608 0.027608 0.080000
0.040784 0.041349 0.121725
0.056627 0.057255 0.170196
0.072157 0.076078 0.219608
0.090196 0.094306 0.274792
0.107043 0.114321 0.331765
0.126682 0.135090 0.390431
0.146510 0.155859 0.449600
0.182275 0.192627 0.554039
0.322949 0.311874 0.870086
0.444486 0.377631 0.980392
0.533553 0.393098 0.980392
0.632125 0.396078 0.948549
0.733098 0.396078 0.879396
0.027294 0.027294 0.078432
0.040784 0.040784 0.120784
0.056063 0.057255 0.166275
0.072157 0.075702 0.218980
0.088628 0.093992 0.272628
0.106667 0.113882 0.328627
0.126432 0.134275 0.388549
0.145694 0.155232 0.448376
0.180016 0.190965 0.548361
0.318620 0.309647 0.862746
0.442510 0.375686 0.980392
0.531294 0.392502 0.980392
0.630212 0.396078 0.949584
0.730541 0.396078 0.881412
0.826541 0.397961 0.806431
0.912916 0.407647 0.741153
0.055686 0.057255 0.166274
0.072157 0.074102 0.216063
0.088628 0.093804 0.271404
0.106541 0.112753 0.328031
0.125020 0.132863 0.386353
0.145412 0.154981 0.446275
0.173961 0.183279 0.528847
0.313224 0.305883 0.856000
0.439436 0.375216 0.979263
0.528628 0.392721 0.980392
0.626667 0.396078 0.952157
0.728094 0.396078 0.884455
0.825098 0.397333 0.808972
0.910777 0.407373 0.741992
0.978416 0.433004 0.702902
0.999997 0.457687 0.698039
0.086275 0.092549 0.269020
0.105412 0.112941 0.326275
0.124079 0.131922 0.384470
0.143529 0.153726 0.444079
0.165804 0.177255 0.508863
0.307451 0.302745 0.849412
0.436078 0.376000 0.980392
0.523921 0.392157 0.980392
0.622745 0.396078 0.953882
0.723922 0.396078 0.885490
0.822745 0.396078 0.810980
0.909804 0.407059 0.744314
0.976627 0.431529 0.701961
1.000000 0.457255 0.698039
1.000000 0.472157 0.701177
1.000000 0.488588 0.705843
0.123608 0.131451 0.382745
0.143623 0.152283 0.442102
0.171169 0.181490 0.521098
0.302118 0.297851 0.834353
0.433788 0.373804 0.980392
0.520000 0.392941 0.980392
0.618824 0.396078 0.957176
0.720816 0.396078 0.889255
0.819325 0.396737 0.813365
0.905945 0.405459 0.745945
0.975686 0.429804 0.704313
1.000000 0.456941 0.698039
1.000000 0.472157 0.700078
1.000000 0.488628 0.704627
1.000000 0.506666 0.710588
1.000000 0.527473 0.718431
0.170510 0.180863 0.521882
0.297569 0.293835 0.823498
0.432157 0.372298 0.979827
0.518431 0.391592 0.980392
0.614902 0.396078 0.957961
0.717647 0.396078 0.890981
0.814902 0.396392 0.816659
0.902369 0.405930 0.747608
