src/assets/filters/unhinged.cube
LUT_3D_SIZE 6
0.000000 0.000000 0.000000
0.000000 0.000000 0.000000
0.015686 0.012549 0.040785
0.054118 0.058040 0.166274
0.107451 0.112941 0.330196
0.168549 0.176432 0.513529
0.014118 0.012549 0.036863
0.054118 0.054118 0.162353
0.104000 0.111372 0.324706
0.173804 0.181961 0.524863
0.521569 0.392157 0.980392
0.817828 0.396078 0.814274
0.103530 0.108235 0.319215
0.166118 0.177098 0.509490
0.511372 0.389804 0.980392
0.808628 0.396706 0.820392
1.000000 0.456000 0.698039
1.000000 0.504267 0.710580
0.501961 0.390588 0.980392
0.800784 0.396078 0.829019
0.999372 0.453490 0.698039
1.000000 0.503529 0.709020
1.000000 0.565961 0.738039
1.000000 0.640706 0.778784
1.000000 0.452549 0.698039
1.000000 0.500549 0.709804
1.000000 0.565019 0.736941
1.000000 0.638431 0.775373
1.000000 0.716706 0.823686
1.000000 0.796785 0.872133
1.000000 0.560706 0.737177
1.000000 0.635961 0.774824
1.000000 0.714392 0.820314
1.000000 0.794360 0.869725
1.000000 0.868118 0.919137
1.000000 0.933215 0.960666
0.000000 0.000000 0.000000
0.000000 0.000000 0.000000
0.028235 0.028235 0.082353
0.073726 0.077647 0.223529
0.128000 0.135843 0.394353
0.334510 0.322063 0.895788
0.027294 0.027294 0.078432
0.072157 0.075702 0.218980
0.126432 0.134275 0.388549
0.318620 0.309647 0.862746
0.630212 0.396078 0.949584
0.912916 0.407647 0.741153
0.123608 0.131451 0.382745
0.302118 0.297851 0.834353
0.618824 0.396078 0.957176
0.905945 0.405459 0.745945
1.000000 0.472157 0.700078
1.000000 0.527473 0.718431
0.609412 0.396078 0.960941
0.898824 0.405020 0.751843
1.000000 0.469804 0.700173
1.000000 0.524643 0.718745
1.000000 0.592314 0.750933
1.000000 0.668180 0.794470
1.000000 0.469177 0.699608
1.000000 0.522196 0.717647
1.000000 0.590275 0.750149
1.000000 0.666353 0.792188
1.000000 0.745286 0.840000
1.000000 0.824259 0.889373
1.000000 0.588117 0.748965
1.000000 0.664334 0.790510
1.000000 0.742313 0.838369
1.000000 0.820588 0.887768
1.000000 0.892609 0.934823
1.000000 0.952823 0.972494
0.000000 0.000000 0.000000
0.006275 0.004393 0.016784
0.043921 0.043921 0.128627
0.093334 0.097882 0.284079
0.150588 0.158745 0.460706
0.456275 0.381129 0.980392
0.042039 0.043922 0.124706
0.090196 0.096000 0.278463
0.147200 0.157176 0.454996
0.451451 0.378824 0.980392
0.741177 0.396078 0.873412
0.986063 0.437258 0.700913
0.146667 0.154666 0.449412
0.442165 0.376376 0.980392
0.730164 0.396078 0.881726
0.979483 0.434228 0.702306
1.000000 0.489820 0.706196
1.000000 0.550681 0.730165
0.721569 0.396078 0.888627
0.974683 0.430055 0.703906
1.000000 0.489412 0.705129
1.000000 0.549302 0.729004
1.000000 0.619514 0.765615
1.000000 0.696424 0.810941
1.000000 0.486275 0.703529
1.000000 0.546102 0.728282
1.000000 0.617412 0.764706
1.000000 0.694745 0.810196
1.000000 0.775216 0.859608
1.000000 0.851694 0.905862
1.000000 0.615568 0.764628
1.000000 0.692890 0.807012
1.000000 0.770863 0.856392
1.000000 0.849451 0.905021
1.000000 0.917238 0.950510
1.000000 0.972431 0.984243
0.000000 0.000000 0.000000
0.018039 0.018039 0.050980
0.059608 0.062902 0.181961
0.112784 0.120000 0.348392
0.211451 0.219608 0.629334
0.558980 0.396039 0.980392
0.059137 0.059608 0.178039
0.110149 0.117867 0.342274
0.201506 0.209537 0.601914
0.549396 0.394353 0.980392
0.846620 0.398431 0.792439
1.000000 0.460827 0.698039
0.184157 0.192628 0.553883
0.539608 0.392941 0.979545
0.838306 0.397490 0.798588
1.000000 0.459608 0.698039
1.000000 0.510651 0.712157
1.000000 0.574855 0.742550
0.829020 0.396078 0.804706
1.000000 0.458981 0.698039
1.000000 0.508863 0.712941
1.000000 0.573208 0.742243
1.000000 0.647529 0.781020
1.000000 0.726850 0.829137
1.000000 0.506353 0.711372
1.000000 0.571263 0.740894
1.000000 0.645333 0.780392
1.000000 0.724580 0.825882
1.000000 0.803608 0.875294
1.000000 0.878361 0.924356
1.000000 0.642235 0.779537
1.000000 0.721762 0.825804
1.000000 0.800667 0.875216
1.000000 0.876118 0.923843
1.000000 0.938740 0.964177
1.000000 0.988149 0.995223
0.000000 0.000000 0.000000
0.032314 0.032314 0.094902
0.079215 0.083137 0.239529
0.133804 0.141961 0.412236
0.382118 0.351529 0.957333
0.669569 0.396078 0.926408
0.076863 0.080784 0.235294
0.131608 0.140580 0.406431
0.364518 0.339890 0.930635
0.659608 0.396078 0.931639
0.935906 0.413553 0.725647
1.000000 0.479177 0.701945
0.349961 0.331137 0.912628
0.649443 0.396078 0.938039
0.929129 0.410918 0.729474
1.000000 0.476549 0.701961
1.000000 0.533051 0.722479
1.000000 0.602290 0.755747
0.921569 0.410196 0.735215
1.000000 0.475294 0.701365
1.000000 0.530322 0.721475
1.000000 0.600314 0.754918
1.000000 0.676737 0.798118
1.000000 0.756019 0.847020
1.000000 0.529255 0.719216
1.000000 0.597710 0.753945
1.000000 0.674196 0.796831
1.000000 0.753914 0.845490
1.000000 0.832314 0.894902
1.000000 0.901750 0.940353
1.000000 0.672024 0.796000
1.000000 0.751246 0.843059
1.000000 0.828431 0.892471
1.000000 0.900593 0.938450
1.000000 0.958353 0.977039
1.000000 0.999961 1.000000
0.007843 0.007843 0.023529
0.049372 0.049412 0.144275
0.098784 0.102745 0.301129
0.156039 0.163922 0.479145
0.483843 0.385882 0.980392
0.780078 0.396078 0.843411
0.094902 0.102706 0.294862
0.153554 0.163275 0.472893
0.474921 0.385862 0.980392
0.770270 0.396078 0.852596
0.994024 0.446886 0.698980
1.000000 0.497192 0.708212
0.467373 0.381961 0.980392
0.760706 0.396078 0.859360
0.992439 0.444198 0.698039
1.000000 0.494902 0.706665
1.000000 0.556839 0.734409
1.000000 0.629726 0.770188
0.991325 0.439992 0.699608
1.000000 0.494863 0.705568
1.000000 0.555269 0.733164
1.000000 0.627420 0.770196
1.000000 0.706317 0.815686
1.000000 0.785765 0.865059
1.000000 0.553686 0.730980
1.000000 0.625074 0.769234
1.000000 0.703809 0.815647
1.000000 0.783493 0.865059
1.000000 0.858808 0.910588
1.000000 0.924667 0.954486
1.000000 0.701804 0.811687
1.000000 0.780997 0.861098
1.000000 0.855577 0.910510
1.000000 0.923781 0.952886
1.000000 0.977922 0.988149
1.000000 1.000000 1.000000
